!!!!SEGMENT: pl-wtm--r-1683_stefani-jozef--kolka-polka.krn
!!!cenid: 18xx:2303
!!!COM: Stefani, Józef
!!!COM-rismID:
!!!CDT: 1800/04/16-1876/03/19
!!!CNT: Polish
!!!OTL: Kolka-Polka
!!!PDT:
!!!AGN: Secular; Polka
!!!SMS-siglum: PL-Wtm
!!!SMS-shelfmark: R 1683
!!!SMS-shelfwork: W
!!!SMS-variant:
!!!SMS-altvar:
!!!NIFC-rismSourceID: 1001114548
!!!NIFC-islandoraID: pl-wtm:27977
!!!URL-pdf-islandora: https://repozytorium.nifc.pl/islandora/object/pl-wtm%3A27977/datastream/PDF/view
!!!URL-scan: https://polish.musicsources.pl/pl/lokalizacje/galeria/rekopisy/6423 @EN{Scan on Polish Music Herritage in Open Access Website} @PL{Skany w portalu Dziedzictwo Muzyki Polskiej w otwartym dostępie}
!!!ONB-nifc: UWAGA: razem ze wstępem
!!!AIN: 1 cbass 1 cello 1 clars 5 empty 1 fagot 1 flt 1 oboe 1 picco 1 timpa 1 tromp 2 tromt 1 viola
!!!key:
**kern	**dynam	**kern	**dynam	**kern	**dynam	**kern	**dynam	**kern	**dynam	**kern	**dynam	**kern	**dynam	**kern	**dynam	**kern	**dynam	**kern	**dynam	**kern	**dynam	**kern	**dynam	**kern	**dynam	**kern	**dynam	**kern	**dynam	**kern	**dynam	**kern	**dynam
*group6	*	*group6	*	*group5	*	*group5	*	*group5	*	*group4	*	*group4	*	*group3	*	*group3	*	*	*	*	*	*group2	*	*group2	*	*	*	*	*	*group1	*	*group1	*
*	*	*	*	*	*	*I""Violini	*	*I""Violini	*	*	*	*	*	*I""Tromboni	*	*I""Tromboni	*	*	*	*	*	*I""Corni	*	*I""Corni	*	*	*	*	*	*	*	*	*
*part17	*part17	*part16	*part16	*part15	*part15	*part14	*part14	*part13	*part13	*part12	*part12	*part11	*part11	*part10	*part10	*part9	*part9	*part8	*part8	*part7	*part7	*part6	*part6	*part5	*part5	*part4	*part4	*part3	*part3	*part2	*part2	*part1	*part1
*staff17	*	*staff16	*	*staff15	*	*staff14	*	*staff13	*	*staff12	*	*staff11	*	*staff10	*	*staff9	*	*staff8	*	*staff7	*	*staff6	*	*staff5	*	*staff4	*	*staff3	*	*staff2	*	*staff1	*
*Icbass	*	*Icello	*	*Iviola	*	*Iempty	*	*Iempty	*	*Iempty	*	*Itimpa	*	*Itromt	*	*Itromt	*	*Itromp	*	*Ifagot	*	*Iempty	*	*Iempty	*	*Iclars	*	*Ioboe	*	*Ipicco	*	*Iflt	*
*I"C: Baſsi	*	*I"Violoncelli	*	*I"Viole	*	*	*	*	*	*I"Banda	*	*I"Timpani in F. C.	*	*I"Tromboni	*	*I"Tromboni	*	*I"Trombe	*	*I"Fagotti	*	*I"in C	*	*I"in F.	*	*I"Clarinetti in C	*	*I"Oboe	*	*I"F. Picolo	*	*I"Flauto	*
*>[A,B,C,C,D,E,E1,E,E2,F]	*	*>[A,B,C,C,D,E,E1,E,E2,F]	*	*>[A,B,C,C,D,E,E1,E,E2,F]	*	*>[A,B,C,C,D,E,E1,E,E2,F]	*	*>[A,B,C,C,D,E,E1,E,E2,F]	*	*>[A,B,C,C,D,E,E1,E,E2,F]	*	*>[A,B,C,C,D,E,E1,E,E2,F]	*	*>[A,B,C,C,D,E,E1,E,E2,F]	*	*>[A,B,C,C,D,E,E1,E,E2,F]	*	*>[A,B,C,C,D,E,E1,E,E2,F]	*	*>[A,B,C,C,D,E,E1,E,E2,F]	*	*>[A,B,C,C,D,E,E1,E,E2,F]	*	*>[A,B,C,C,D,E,E1,E,E2,F]	*	*>[A,B,C,C,D,E,E1,E,E2,F]	*	*>[A,B,C,C,D,E,E1,E,E2,F]	*	*>[A,B,C,C,D,E,E1,E,E2,F]	*	*>[A,B,C,C,D,E,E1,E,E2,F]	*
*>A	*>A	*>A	*>A	*>A	*>A	*>A	*>A	*>A	*>A	*>A	*>A	*>A	*>A	*>A	*>A	*>A	*>A	*>A	*>A	*>A	*>A	*>A	*>A	*>A	*>A	*>A	*>A	*>A	*>A	*>A	*>A	*>A	*>A
*clefF4	*	*clefF4	*	*clefC3	*	*clefG2	*	*clefG2	*	*clefX	*	*clefF4	*	*clefF4	*	*clefC4	*	*clefG2	*	*clefF4	*	*clefG2	*	*clefG2	*	*clefG2	*	*clefG2	*	*clefG2	*	*clefG2	*
*ITrd0c0	*	*	*	*	*	*	*	*	*	*	*	*	*	*	*	*	*	*	*	*	*	*	*	*ITrd4c7	*	*	*	*	*	*ITrd0c0	*	*	*
*k[b-]	*	*k[b-]	*	*k[b-]	*	*k[b-]	*	*k[b-]	*	*k[]	*	*k[b-]	*	*k[b-]	*	*k[b-]	*	*k[b-]	*	*k[b-]	*	*k[b-]	*	*k[b-]	*	*k[b-]	*	*k[b-]	*	*k[b-]	*	*k[b-]	*
*F:	*	*F:	*	*F:	*	*F:	*	*F:	*	*F:	*	*F:	*	*F:	*	*F:	*	*F:	*	*F:	*	*F:	*	*	*	*F:	*	*F:	*	*F:	*	*F:	*
*M3/4	*	*M3/4	*	*M3/4	*	*M3/4	*	*M3/4	*	*M3/4	*	*M3/4	*	*M3/4	*	*M3/4	*	*M3/4	*	*M3/4	*	*M3/4	*	*M3/4	*	*M3/4	*	*M3/4	*	*M3/4	*	*M3/4	*
*all\right	*	*all\right	*	*all\right	*	*all\right	*	*all\right	*	*all\right	*	*all\right	*	*all\right	*	*all\right	*	*all\right	*	*all\right	*	*all\right	*	*all\right	*	*all\right	*	*all\right	*	*all\right	*	*all\right	*
*2\right	*	*2\right	*	*2\right	*	*2\right	*	*2\right	*	*2\right	*	*2\right	*	*2\right	*	*2\right	*	*2\right	*	*2\right	*	*2\right	*	*2\right	*	*2\right	*	*2\right	*	*2\right	*	*2\right	*
!	!	!	!	!	!	!	!	!	!	!	!	!	!	!	!	!	!	!	!	!	!	!	!	!	!	!	!	!	!	!	!	!LO:TX:a:B:t=Wstęp do Polki	!
!	!	!LO:TX:t=P:problem=w partii wiolonczeli puste takty	!	!	!	!	!	!	!	!LO:TX:t=P:problem=klucz wiolinowy, zaraz po nim basowy	!	!	!	!	!	!	!	!	!	!	!	!	!	!	!	!	!	!	!	!	!	!LO:TX:a:B:t=Allegro.	!
8d\L	f	8d\Lyy	fyy	8f\L	.	8a-X/L	.	8bn\L	f	8r	.	8r	.	8r	.	8r	.	8r	.	8r	.	8r	.	8r	.	8r	.	8r	.	8r	.	8r	.
8c\	.	8c\yy	.	8f\	.	8a-/	.	8cc\	.	4r	.	4r	.	4r	.	4r	.	4r	.	4r	.	4r	.	4r	.	4r	.	4r	.	4r	.	4r	.
8Bn\J	.	8Bn\Jyy	.	8f\J	.	8a-/J	.	8dd\J	.	.	.	.	.	.	.	.	.	.	.	.	.	.	.	.	.	.	.	.	.	.	.	.	.
=1	=1	=1	=1	=1	=1	=1	=1	=1	=1	=1	=1	=1	=1	=1	=1	=1	=1	=1	=1	=1	=1	=1	=1	=1	=1	=1	=1	=1	=1	=1	=1	=1	=1
*	*	*	*	*	*	*	*	*	*	*^	*	*	*	*	*	*	*	*	*	*	*	*	*	*	*	*	*	*	*	*	*	*	*
4c\	.	4c\yy	.	4f\	.	4a-X/	.	4cc\	.	4r	4rgg	.	4r	.	4r	.	4r	.	4r	.	4r	.	4r	.	4r	.	4r	.	4r	.	4r	.	4r	.
4r	.	4ryy	.	4r	.	4r	.	4r	.	4r	4rgg	.	4r	.	4r	.	4r	.	4r	.	4r	.	4r	.	4r	.	4r	.	4r	.	4r	.	4r	.
*	*	*	*	*	*	*	*	*	*	*tremolo	*	*	*	*	*	*	*	*	*	*	*	*	*	*	*	*	*	*	*	*	*	*	*	*
4C/	.	4C/yy	.	4g 4c\	.	4b- 4g/	.	4ee\	.	16Ree/LL	4Ra\	.	4C/	f	4C/	.	4e 4B-\	.	4b- 4e/	f	4C 4CC/	.	4ee 4cc\	.	4g 4c/	f	4ee 4b-\	.	4gg 4ee\	f	4ee\	.	4eee\	f
.	.	.	.	.	.	.	.	.	.	16Ree/	.	.	.	.	.	.	.	.	.	.	.	.	.	.	.	.	.	.	.	.	.	.	.	.
.	.	.	.	.	.	.	.	.	.	16Ree/	.	.	.	.	.	.	.	.	.	.	.	.	.	.	.	.	.	.	.	.	.	.	.	.
.	.	.	.	.	.	.	.	.	.	16Ree/JJ	.	.	.	.	.	.	.	.	.	.	.	.	.	.	.	.	.	.	.	.	.	.	.	.
*	*	*	*	*	*	*	*	*	*	*Xtremolo	*	*	*	*	*	*	*	*	*	*	*	*	*	*	*	*	*	*	*	*	*	*	*	*
=2	=2	=2	=2	=2	=2	=2	=2	=2	=2	=2	=2	=2	=2	=2	=2	=2	=2	=2	=2	=2	=2	=2	=2	=2	=2	=2	=2	=2	=2	=2	=2	=2	=2	=2
*	*	*	*	*	*	*	*	*	*	*	*	*	*	*	*	*	*	*	*^	*	*	*	*	*	*^	*	*	*	*	*	*	*	*	*
4F\	.	4F\yy	.	4f 4c\	.	4a-X/	.	4ff\	.	4Ree/	4Ra\	.	4F\	.	4F\	.	4f 4A-X\	.	4a-X 4f/	4rcyy	.	4F 4FF/	.	4ff 4cc\	.	4a-X/	4f\	.	4ff 4a-X\	.	4aa-X 4ff\	.	4ff\	.	4fff\	.
4r	.	4ryy	.	4r	.	4r	.	4r	.	4r	4rgg	.	4r	.	4r	.	4r	.	4r	4rcyy	.	4r	.	4r	.	4r	4rFyy	.	4r	.	4r	.	4r	.	4r	.
*	*	*	*	*	*	*	*	*	*	*tremolo	*	*	*	*	*	*	*	*	*	*	*	*	*	*	*	*	*	*	*	*	*	*	*	*	*	*
4B-\	.	4B-\yy	.	4f 4B-\	.	4b- 4g/	.	4gg 4b-X\	.	16Ree/LL	4Ra\	.	4F\	.	4BB-/	.	4f 4G\	.	4g/	4f\	.	4B- 4BB-\	.	4ff 4dd\	.	4g/	4f\	.	4ff 4dd\	.	4gg 4ff\	.	4gg\	.	4r	.
.	.	.	.	.	.	.	.	.	.	16Ree/	.	.	.	.	.	.	.	.	.	.	.	.	.	.	.	.	.	.	.	.	.	.	.	.	.	.
.	.	.	.	.	.	.	.	.	.	16Ree/	.	.	.	.	.	.	.	.	.	.	.	.	.	.	.	.	.	.	.	.	.	.	.	.	.	.
.	.	.	.	.	.	.	.	.	.	16Ree/JJ	.	.	.	.	.	.	.	.	.	.	.	.	.	.	.	.	.	.	.	.	.	.	.	.	.	.
*	*	*	*	*	*	*	*	*	*	*Xtremolo	*	*	*	*	*	*	*	*	*	*	*	*	*	*	*	*	*	*	*	*	*	*	*	*	*	*
=3	=3	=3	=3	=3	=3	=3	=3	=3	=3	=3	=3	=3	=3	=3	=3	=3	=3	=3	=3	=3	=3	=3	=3	=3	=3	=3	=3	=3	=3	=3	=3	=3	=3	=3	=3	=3
4c\	.	4c\yy	.	4f 4c\	.	4a-X/	.	4aa-X 4cc\	.	4Ree/	4Ra\	.	4F\	.	4C/	.	4f 4A-X\	.	4a-X/	4f\	.	4c 4C\	.	4ff 4cc\	.	4a-X/	4f\	.	4ff 4cc\	.	4aa-X 4ff\	.	4aa-X\	.	4r	.
.	.	.	.	.	.	.	.	.	.	.	.	.	.	.	.	.	.	.	.	.	.	.	.	.	.	.	.	.	.	.	.	.	(16qqddd-X/LL	.	(16qqddd-X/LL	.
.	.	.	.	.	.	.	.	.	.	.	.	.	.	.	.	.	.	.	.	.	.	.	.	.	.	.	.	.	.	.	.	.	16qqccc/	.	16qqccc/	.
.	.	.	.	.	.	.	.	.	.	.	.	.	.	.	.	.	.	.	.	.	.	.	.	.	.	.	.	.	.	.	.	.	16qqbbn/JJ	.	16qqbbn/JJ	.
4r	.	4ryy	.	4r	.	4r	.	4r	.	4r	4rgg	.	4r	.	4r	.	4r	.	4r	4rcyy	.	4r	.	4r	.	4r	4rFyy	.	4r	.	4r	.	4ccc\)	.	4ccc\)	.
4r	.	4ryy	.	4r	.	4r	.	4r	.	4r	4rgg	.	4r	.	4r	.	4r	.	4r	4rcyy	.	4r	.	4r	.	4r	4rFyy	.	4r	.	4r	.	4r	.	4r	.
*	*	*	*	*	*	*	*	*	*	*	*	*	*	*	*	*	*	*	*	*	*	*	*	*	*	*v	*v	*	*	*	*	*	*	*	*	*
=4	=4	=4	=4	=4	=4	=4	=4	=4	=4	=4	=4	=4	=4	=4	=4	=4	=4	=4	=4	=4	=4	=4	=4	=4	=4	=4	=4	=4	=4	=4	=4	=4	=4	=4	=4
4C/	.	4C/yy	.	4g 4c\	.	4cc 4e/	.	4gg 4cc\	.	4Ree/	4Ra\	.	4C/	.	4C/	.	4f 4G\	.	4g/	4e\	.	4G 4C\	.	4ee 4cc\	.	4g 4c/	.	4ee 4cc\	.	4gg 4ee\	.	4r	.	4r	.
.	.	.	.	.	.	.	.	.	.	.	.	.	.	.	.	.	.	.	.	.	.	.	.	.	.	.	.	.	.	.	.	(16qqddd-X/LL	.	(16qqddd-X/LL	.
.	.	.	.	.	.	.	.	.	.	.	.	.	.	.	.	.	.	.	.	.	.	.	.	.	.	.	.	.	.	.	.	16qqccc/	.	16qqccc/	.
.	.	.	.	.	.	.	.	.	.	.	.	.	.	.	.	.	.	.	.	.	.	.	.	.	.	.	.	.	.	.	.	16qqbbn/JJ	.	16qqbbn/JJ	.
4r	.	4ryy	.	4r	.	4r	.	4r	.	4r	4rcyy	.	4r	.	4r	.	4r	.	4r	4rcyy	.	4r	.	4r	.	4r	.	4r	.	4r	.	4ccc\)	.	4ccc\)	.
4r;	.	4r;yy	.	4r;	.	4r;	.	4r;	.	4r;	4rcyy	.	4r;	.	4r;	.	4r;	.	4r;	4rcyy	.	4r;	.	4r;	.	4r;	.	4r;	.	4r;	.	4r;	.	4r;	.
*	*	*	*	*	*	*	*	*	*	*v	*v	*	*	*	*	*	*	*	*v	*v	*	*	*	*	*	*	*	*	*	*	*	*	*	*	*
!!LO:PB:g=original
=5||	=5||	=5||	=5||	=5||	=5||	=5||	=5||	=5||	=5||	=5||	=5||	=5||	=5||	=5||	=5||	=5||	=5||	=5||	=5||	=5||	=5||	=5||	=5||	=5||	=5||	=5||	=5||	=5||	=5||	=5||	=5||	=5||	=5||
*>B	*>B	*>B	*>B	*>B	*>B	*>B	*>B	*>B	*>B	*>B	*>B	*>B	*>B	*>B	*>B	*>B	*>B	*>B	*>B	*>B	*>B	*>B	*>B	*>B	*>B	*>B	*>B	*>B	*>B	*>B	*>B	*>B	*>B
*M2/4	*	*M2/4	*	*M2/4	*	*M2/4	*	*M2/4	*	*M2/4	*	*M2/4	*	*M2/4	*	*M2/4	*	*M2/4	*	*M2/4	*	*M2/4	*	*M2/4	*	*M2/4	*	*M2/4	*	*M2/4	*	*M2/4	*
*	*	*	*	*	*	*	*	*	*	*^	*	*	*	*	*	*	*	*	*	*	*	*	*	*	*	*	*	*	*	*	*	*	*
!	!	!	!	!	!	!	!	!	!	!	!	!	!	!	!	!	!	!	!	!	!	!	!	!	!	!	!	!	!	!	!	!	!LO:TX:t=P:problem=2 takty skreśleń	!
!	!	!	!	!	!	!	!	!	!	!	!	!	!	!	!	!	!	!	!	!	!	!	!	!	!	!	!	!	!	!	!	!	!LO:TX:t=P:problem=takty 5-12 oznaczone wtórnie literami AB i tak też potem cytowane przez kopistę w powtórkach (zamiast przepisywania)	!
!	!	!	!	!	!	!	!	!	!	!	!	!	!	!	!	!	!	!	!	!	!LO:TX:t=P:problem=2\right&colon; global	!	!	!	!	!	!	!	!	!	!	!	!LO:TX:a:B:t=Polka	!
.	.	.	.	.	.	.	.	(8qd/	p	.	.	.	.	.	.	.	.	.	.	.	.	.	.	.	.	.	.	.	(8qdd/	.	(8qdd/	.	.	.
*	*	*	*	*	*	*	*	*	*	*	*	*	*	*	*	*	*	*	*	*	*^	*	*	*	*	*	*	*	*^	*	*	*	*	*
!	!	!	!	!	!	!	!	!	!	!	!	!LO:DY:a	!	!	!	!	!	!	!	!	!	!	!	!	!	!	!	!	!	!	!	!	!	!	!	!
8C/	p	8C/yy	pyy	8r	.	8r	.	8c/L)	.	4Ree/	2rg	p	2r	.	2r	.	2r	.	2r	.	2G/	2C\	p	2r	.	2r	.	[2e [2B-/	p	8cc/L)	2rc	.	8cc\L)	.	2r	.
8r	.	8ryy	.	8c 8G\	.	8e 8B-/	.	8c'/J	.	.	.	.	.	.	.	.	.	.	.	.	.	.	.	.	.	.	.	.	.	8cc/J	.	.	8cc'\J	.	.	.
.	.	.	.	.	.	.	.	(8qa/	.	.	.	.	.	.	.	.	.	.	.	.	.	.	.	.	.	.	.	.	.	(8qaa/	.	.	(8qaa/	.	.	.
8C/	.	8C/yy	.	8r	.	8r	.	4b-/)	.	4Ree/	.	.	.	.	.	.	.	.	.	.	.	.	.	.	.	.	.	.	.	4bb-/)	.	.	4bb-\)	.	.	.
8r	.	8ryy	.	8c 8G\	.	8e 8B-/	.	.	.	.	.	.	.	.	.	.	.	.	.	.	.	.	.	.	.	.	.	.	.	.	.	.	.	.	.	.
=6	=6	=6	=6	=6	=6	=6	=6	=6	=6	=6	=6	=6	=6	=6	=6	=6	=6	=6	=6	=6	=6	=6	=6	=6	=6	=6	=6	=6	=6	=6	=6	=6	=6	=6	=6	=6
8C/	.	8C/yy	.	8r	.	8r	.	(8.g/L	.	4Ree/	2rg	.	2r	.	2r	.	2r	.	2r	.	4G/	4C\	.	2r	.	2r	.	4e] 4B-/]	.	(8.gg/L	2rc	.	(8.gg\L	.	2r	.
8r	.	8ryy	.	8c 8G/	.	8e 8B-/	.	.	.	.	.	.	.	.	.	.	.	.	.	.	.	.	.	.	.	.	.	.	.	.	.	.	.	.	.	.
.	.	.	.	.	.	.	.	32a/LL	.	.	.	.	.	.	.	.	.	.	.	.	.	.	.	.	.	.	.	.	.	32aa/LL	.	.	32aa\LL	.	.	.
.	.	.	.	.	.	.	.	32g/JJJ	.	.	.	.	.	.	.	.	.	.	.	.	.	.	.	.	.	.	.	.	.	32gg/JJJ)	.	.	32gg\JJJ)	.	.	.
8F\	.	8F\yy	.	8r	.	8r	.	4f/)	.	4Ree/	.	.	.	.	.	.	.	.	.	.	4F/	4F\	.	.	.	.	.	4f 4A/	.	4ff/	.	.	4ff\	.	.	.
8r	.	8ryy	.	8c 8F/	.	8f 8A/	.	.	.	.	.	.	.	.	.	.	.	.	.	.	.	.	.	.	.	.	.	.	.	.	.	.	.	.	.	.
*	*	*	*	*	*	*	*	*	*	*	*	*	*	*	*	*	*	*	*	*	*v	*v	*	*	*	*	*	*	*	*v	*v	*	*	*	*	*
=7	=7	=7	=7	=7	=7	=7	=7	=7	=7	=7	=7	=7	=7	=7	=7	=7	=7	=7	=7	=7	=7	=7	=7	=7	=7	=7	=7	=7	=7	=7	=7	=7	=7	=7
*	*	*	*	*	*	*	*	*	*	*	*	*	*	*	*	*	*	*	*	*	*	*	*	*	*	*	*^	*	*	*	*	*	*	*
8C/	.	8C/yy	.	8r	.	8r	.	8e'/L	.	2ree	2rg	.	2r	.	2r	.	2r	.	2r	.	2r	.	2ee [2c/	.	2g [2c/	p	8e'/L	2rc	.	2r	.	2r	.	8ee'\L	.
8r	.	8ryy	.	8c 8G/	.	8e 8B-/	.	8g'/J	.	.	.	.	.	.	.	.	.	.	.	.	.	.	.	.	.	.	8g'/J	.	.	.	.	.	.	8gg'\J	.
8C/	.	8C/yy	.	8r	.	8r	.	(8dd\L	.	.	.	.	.	.	.	.	.	.	.	.	.	.	.	.	.	.	(8dd/L	.	.	.	.	.	.	(8ddd\L	.
8r	.	8ryy	.	8c 8G/	.	8e 8B-/	.	8cc\J)	.	.	.	.	.	.	.	.	.	.	.	.	.	.	.	.	.	.	8cc/J)	.	.	.	.	.	.	8ccc\J)	.
=8	=8	=8	=8	=8	=8	=8	=8	=8	=8	=8	=8	=8	=8	=8	=8	=8	=8	=8	=8	=8	=8	=8	=8	=8	=8	=8	=8	=8	=8	=8	=8	=8	=8	=8	=8
*rep	*	*	*	*	*	*	*	*	*	*	*	*	*	*	*	*	*	*	*	*	*	*	*	*	*	*	*	*	*	*	*	*	*	*	*
8C/	.	8C/yy	.	8r	.	8r	.	8a'\L	.	2ree	2rg	.	2r	.	2r	.	2r	.	2r	.	2r	.	2ff 2c/]	.	2a 2c/]	.	8a'/L	2rc	.	2r	.	2r	.	8aa'\L	.
8r	.	8ryy	.	8c 8F/	.	8f 8A/	.	8cc'\J	.	.	.	.	.	.	.	.	.	.	.	.	.	.	.	.	.	.	8cc'/	.	.	.	.	.	.	8ccc'\J	.
8C/	.	8C/yy	.	8r	.	8r	.	(8gg\L	.	.	.	.	.	.	.	.	.	.	.	.	.	.	.	.	.	.	(8gg/	.	.	.	.	.	.	(8ggg\L	.
8r	.	8ryy	.	8c 8F/	.	8f 8A/	.	8ff\J)	.	.	.	.	.	.	.	.	.	.	.	.	.	.	.	.	.	.	8ff/J)	.	.	.	.	.	.	8fff\J)	.
*Xrep	*	*	*	*	*	*	*	*	*	*	*	*	*	*	*	*	*	*	*	*	*	*	*	*	*	*	*	*	*	*	*	*	*	*	*
*	*	*	*	*	*	*	*	*	*	*	*	*	*	*	*	*	*	*	*	*	*	*	*	*	*	*	*v	*v	*	*	*	*	*	*	*
=9	=9	=9	=9	=9	=9	=9	=9	=9	=9	=9	=9	=9	=9	=9	=9	=9	=9	=9	=9	=9	=9	=9	=9	=9	=9	=9	=9	=9	=9	=9	=9	=9	=9	=9
*rep	*	*	*	*	*	*	*	*	*	*	*	*	*	*	*	*	*	*	*	*	*	*	*	*	*	*	*	*	*	*	*	*	*	*
!	!	!	!	!	!	!	!	!	!	!	!	!	!	!	!	!	!	!	!	!	!	!	!	!	!	!	!	!	!	!	!	!	!LO:TX:t=P:problem=2 takty skreśleń	!
.	.	.	.	.	.	.	.	(8qd/	.	.	.	.	.	.	.	.	.	.	.	.	.	.	.	.	.	.	.	.	(8qdd/	.	(8qdd/	.	.	.
*	*	*	*	*	*	*	*	*	*	*	*	*	*	*	*	*	*	*	*	*	*^	*	*	*	*	*	*	*	*^	*	*	*	*	*
8C/	.	8C/yy	.	8r	.	8r	.	8c/L)	.	4Ree/	2rg	.	2r	.	2r	.	2r	.	2r	.	[2G/	[2C\	p	2r	.	2r	.	[2e [2B-/	.	8cc/L)	2rc	.	8cc\L)	.	2r	.
8r	.	8ryy	.	8c 8G/	.	8e 8B-/	.	8c'/J	.	.	.	.	.	.	.	.	.	.	.	.	.	.	.	.	.	.	.	.	.	8cc'/J	.	.	8cc\J	.	.	.
.	.	.	.	.	.	.	.	(8qa/	.	.	.	.	.	.	.	.	.	.	.	.	.	.	.	.	.	.	.	.	.	(8qaa/	.	.	(8qcc/	.	.	.
8C/	.	8C/yy	.	8r	.	8r	.	4b-/)	.	4Ree/	.	.	.	.	.	.	.	.	.	.	.	.	.	.	.	.	.	.	.	4bb-/)	.	.	4bb-\)	.	.	.
8r	.	8ryy	.	8c 8G/	.	8e 8B-/	.	.	.	.	.	.	.	.	.	.	.	.	.	.	.	.	.	.	.	.	.	.	.	.	.	.	.	.	.	.
*Xrep	*	*	*	*	*	*	*	*	*	*	*	*	*	*	*	*	*	*	*	*	*	*	*	*	*	*	*	*	*	*	*	*	*	*	*	*
*	*	*	*	*	*	*	*	*	*	*	*	*	*	*	*	*	*	*	*	*	*v	*v	*	*	*	*	*	*	*	*	*	*	*	*	*	*
!!LO:PB:g=original
=10	=10	=10	=10	=10	=10	=10	=10	=10	=10	=10	=10	=10	=10	=10	=10	=10	=10	=10	=10	=10	=10	=10	=10	=10	=10	=10	=10	=10	=10	=10	=10	=10	=10	=10	=10
8C/	.	8C/yy	.	8r	.	8r	.	(8.g/L	.	4Ree/	2rg	.	2r	.	2r	.	2r	.	2r	.	(4G] 4C]\	.	2r	.	2r	.	4e] 4B-/]	.	(8.gg/L	2rg	.	(8.gg\L	.	2r	.
8r	.	8ryy	.	8c 8A/	.	8e 8B-/	.	.	.	.	.	.	.	.	.	.	.	.	.	.	.	.	.	.	.	.	.	.	.	.	.	.	.	.	.
.	.	.	.	.	.	.	.	32a/LL	.	.	.	.	.	.	.	.	.	.	.	.	.	.	.	.	.	.	.	.	32aa/LL	.	.	32aa\LL	.	.	.
.	.	.	.	.	.	.	.	32g/JJJ	.	.	.	.	.	.	.	.	.	.	.	.	.	.	.	.	.	.	.	.	32gg/JJJ	.	.	32gg\JJJ	.	.	.
8F\	.	8F\yy	.	8r	.	8r	.	4f/)	.	4Ree/	.	.	.	.	.	.	.	.	.	.	4F\)	.	.	.	.	.	4f 4A/	.	4ff/)	.	.	4ff\)	.	.	.
8r	.	8ryy	.	8c 8G/	.	8f 8A/	.	.	.	.	.	.	.	.	.	.	.	.	.	.	.	.	.	.	.	.	.	.	.	.	.	.	.	.	.
=11	=11	=11	=11	=11	=11	=11	=11	=11	=11	=11	=11	=11	=11	=11	=11	=11	=11	=11	=11	=11	=11	=11	=11	=11	=11	=11	=11	=11	=11	=11	=11	=11	=11	=11	=11
*	*	*	*	*	*	*	*	*	*	*	*	*	*	*	*	*	*	*	*	*	*	*	*^	*	*	*	*^	*	*	*	*	*	*	*	*
8C/	.	8C/yy	.	8r	.	8r	.	8e'/L	.	2r	2r	.	2r	.	2r	.	2r	.	2r	.	2r	.	2ee/	2cc\	.	2g 2c/	.	8e/L	2rc	.	2ree	2r	.	2r	.	8ee'\L	.
8r	.	8ryy	.	8c 8G/	.	8e 8B-/	.	8g'/J	.	.	.	.	.	.	.	.	.	.	.	.	.	.	.	.	.	.	.	8g/	.	.	.	.	.	.	.	8gg'\	.
8C/	.	8C/yy	.	8r	.	8r	.	(8dd\L	.	.	.	.	.	.	.	.	.	.	.	.	.	.	.	.	.	.	.	8dd/	.	.	.	.	.	.	.	(8ddd\	.
8r	.	8ryy	.	8c 8G/	.	8e 8B-/	.	8cc\J)	.	.	.	.	.	.	.	.	.	.	.	.	.	.	.	.	.	.	.	8cc/J	.	.	.	.	.	.	.	8ccc\J)	.
=12	=12	=12	=12	=12	=12	=12	=12	=12	=12	=12	=12	=12	=12	=12	=12	=12	=12	=12	=12	=12	=12	=12	=12	=12	=12	=12	=12	=12	=12	=12	=12	=12	=12	=12	=12	=12	=12
8F\	.	8F\yy	.	8r	.	8r	.	(16a/LL	.	2r	2r	.	2r	.	2r	.	2r	.	2r	.	2r	.	2ff/	2cc\	.	2f 2A/	.	16a/LL	2rc	.	2ree	2r	.	2r	.	16aa\LL	.
.	.	.	.	.	.	.	.	16f/	.	.	.	.	.	.	.	.	.	.	.	.	.	.	.	.	.	.	.	16f/	.	.	.	.	.	.	.	(16ff\	.
8r	.	8ryy	.	8c 8F/	.	8f 8A/	.	16a/	.	.	.	.	.	.	.	.	.	.	.	.	.	.	.	.	.	.	.	16a/	.	.	.	.	.	.	.	16aa\	.
.	.	.	.	.	.	.	.	16cc/JJ)	.	.	.	.	.	.	.	.	.	.	.	.	.	.	.	.	.	.	.	16cc/JJ	.	.	.	.	.	.	.	16ccc\JJ	.
4FF/	.	4FF/yy	.	4c 4F/	.	4f 4A/	.	4ff 4a\	.	.	.	.	.	.	.	.	.	.	.	.	.	.	.	.	.	.	.	4ff/	.	.	.	.	.	.	.	4fff\)	.
*	*	*	*	*	*	*	*	*	*	*	*	*	*	*	*	*	*	*	*	*	*	*	*v	*v	*	*	*	*	*	*	*	*	*	*	*	*	*
!!LO:TX:a:t= [segno]
*>C	*>C	*>C	*>C	*>C	*>C	*>C	*>C	*>C	*>C	*>C	*>C*>C	*>C	*>C	*>C	*>C	*>C	*>C	*>C	*>C	*>C	*>C	*>C	*>C	*>C	*>C	*>C	*>C	*>C	*>C	*>C	*>C	*>C	*>C	*>C	*>C	*>C
=13!|:	=13!|:	=13!|:	=13!|:	=13!|:	=13!|:	=13!|:	=13!|:	=13!|:	=13!|:	=13!|:	=13!|:	=13!|:	=13!|:	=13!|:	=13!|:	=13!|:	=13!|:	=13!|:	=13!|:	=13!|:	=13!|:	=13!|:	=13!|:	=13!|:	=13!|:	=13!|:	=13!|:	=13!|:	=13!|:	=13!|:	=13!|:	=13!|:	=13!|:	=13!|:	=13!|:	=13!|:
8BB-/	f	8BB-/yy	fyy	8r	.	8r	.	8dd\L	f	8r	8Ra\	.	8r	.	8r	.	8r	.	8dL 8B-/	.	8B-L 8BB-\	f	8ffL 8dd\	.	8fL 8B-/	f	8ddL 8b-\	4rcyy	f	8dd/L	8b-\L	.	8dd'\L	f	8ddd'\L	.
8r	.	8ryy	.	8d 8F/	.	8f 8B-/	f	8dd\J	.	8Ree/	8r	.	8F\	.	8B-\	.	8f 8d\	.	8dJ 8B-/	.	8B-J 8BB-\	.	8ffJ 8dd\	.	8fJ 8B-/	.	8ddJ 8b-\	.	.	8dd/J	8b-\J	.	8dd'\J	.	8ddd'\J	.
8B-\	.	8B-\yy	.	8r	.	8r	.	(<4ffT\	.	8r	8Ra\	.	8r	.	8r	.	8r	.	4f 4d/	.	4B- 4BB-\	.	4ff 4dd\	.	4f 4B-/	.	4ff/	4b-\	.	4ffT/	4dd\	.	4ffT\	.	4fffT\	.
8r	.	8ryy	.	8d 8F/	.	8f 8B-/	.	.	.	8Ree/	8r	.	8F\	.	8B-\	.	8f 8d\	.	.	.	.	.	.	.	.	.	.	.	.	.	.	.	.	.	.	.
.	.	.	.	.	.	.	.	16qqee/LL	.	.	.	.	.	.	.	.	.	.	.	.	.	.	.	.	.	.	16qqee/LL	.	.	(16qqee/LL	.	.	(16qqee/LL	.	(16qqeee/LL	.
.	.	.	.	.	.	.	.	16qqff/JJ)	.	.	.	.	.	.	.	.	.	.	.	.	.	.	.	.	.	.	16qqff/JJ	.	.	16qqff/JJ)	.	.	16qqff/JJ)	.	16qqfff/JJ)	.
=14	=14	=14	=14	=14	=14	=14	=14	=14	=14	=14	=14	=14	=14	=14	=14	=14	=14	=14	=14	=14	=14	=14	=14	=14	=14	=14	=14	=14	=14	=14	=14	=14	=14	=14	=14	=14
8AA/	.	8AA/yy	.	8r	.	8r	.	8cc\L	.	8r	8Ra\	.	8r	.	8r	.	8r	.	8c/L	.	8AL 8AA\	.	8ffL 8cc\	.	8fL 8A/	.	8cc/L	8cc\L	.	8cc/L	8cc\L	.	8cc\L	.	8ccc'\L	.
8r	.	8ryy	.	8c 8F/	.	8f 8c/	.	8cc\J	.	8Ree/	8r	.	8F\	.	8A\	.	8f 8c\	.	8c/J	.	8AJ 8AA\	.	8ffJ 8cc\	.	8fJ 8A/	.	8cc/J	8cc\J	.	8cc/J	8cc\J	.	8cc\J	.	8ccc'\J	.
8A\	.	8A\yy	.	8r	.	8r	.	4ffT\	.	8r	8Ra\	.	8r	.	8r	.	8r	.	4f 4c/	.	4A 4AA\	.	4ff 4cc\	.	4f 4A/	.	4ff/	4cc\	.	4ffT/	4cc\	.	4ffT\	.	4fffT\	.
8r	.	8ryy	.	8c 8F/	.	8f 8c/	.	.	.	8Ree/	8r	.	8F\	.	8A\	.	8f 8c\	.	.	.	.	.	.	.	.	.	.	.	.	.	.	.	.	.	.	.
*	*	*	*	*	*	*	*	*	*	*v	*v	*	*	*	*	*	*	*	*	*	*	*	*	*	*	*	*v	*v	*	*	*	*	*	*	*	*
.	.	.	.	.	.	.	.	16qqee/LL	.	.	.	.	.	.	.	.	.	.	.	.	.	.	.	.	.	16qqee/LL	.	16qqee/LL	.	.	(16qqee/LL	.	16qqeee/LL	.
.	.	.	.	.	.	.	.	16qqff/JJ	.	.	.	.	.	.	.	.	.	.	.	.	.	.	.	.	.	16qqff/JJ	.	16qqff/JJ	.	.	16qqff/JJ)	.	16qqfff/JJ	.
=15	=15	=15	=15	=15	=15	=15	=15	=15	=15	=15	=15	=15	=15	=15	=15	=15	=15	=15	=15	=15	=15	=15	=15	=15	=15	=15	=15	=15	=15	=15	=15	=15	=15	=15
*	*	*	*	*	*	*	*	*	*	*	*	*	*	*	*	*^	*	*	*	*	*	*	*	*	*	*	*	*	*	*	*	*	*	*
8G\	.	8G\yy	.	8r	.	8r	.	(16ee\LL	.	2r	.	2r	.	4G\	.	2e/	2B-\	.	2r	.	4G 4GG/	.	2ee 2cc\	.	2g 2c/	.	16ee/LL	.	2ee/	2b-\	.	2r	.	(16eee\LL	.
.	.	.	.	.	.	.	.	16dd\)	.	.	.	.	.	.	.	.	.	.	.	.	.	.	.	.	.	.	16dd/	.	.	.	.	.	.	16ddd\)	.
8r	.	8ryy	.	8c 8G/	.	8e 8B-/	.	16cc'\	.	.	.	.	.	.	.	.	.	.	.	.	.	.	.	.	.	.	16cc/	.	.	.	.	.	.	16ccc'\	.
.	.	.	.	.	.	.	.	16b-'\JJ	.	.	.	.	.	.	.	.	.	.	.	.	.	.	.	.	.	.	16b-/JJ	.	.	.	.	.	.	16bb-'\JJ	.
8C/	.	8C/yy	.	8r	.	8r	.	(>16a/LL	.	.	.	.	.	4C/	.	.	.	.	.	.	4C 4CC/	.	.	.	.	.	16a/LL	.	.	.	.	.	.	(16aa\LL	.
.	.	.	.	.	.	.	.	16g/)	.	.	.	.	.	.	.	.	.	.	.	.	.	.	.	.	.	.	16g/	.	.	.	.	.	.	16gg\)	.
8r	.	8ryy	.	8c 8G/	.	8B-/	.	16f'>/	.	.	.	.	.	.	.	.	.	.	.	.	.	.	.	.	.	.	16f/	.	.	.	.	.	.	16ff'\	.
.	.	.	.	.	.	.	.	16e'>/JJ	.	.	.	.	.	.	.	.	.	.	.	.	.	.	.	.	.	.	16e/JJ	.	.	.	.	.	.	16ee'\JJ	.
*	*	*	*	*	*	*	*	*	*	*	*	*	*	*	*	*v	*v	*	*	*	*	*	*	*	*	*	*	*	*v	*v	*	*	*	*	*
!!LO:PB:g=original
=16	=16	=16	=16	=16	=16	=16	=16	=16	=16	=16	=16	=16	=16	=16	=16	=16	=16	=16	=16	=16	=16	=16	=16	=16	=16	=16	=16	=16	=16	=16	=16	=16	=16
8F\	.	8F\yy	.	8r	.	8r	.	8f'/L	.	2ryy	.	2ryy	.	8F\	.	8f 8A\	.	8f/L	.	8F 8FF/	.	8ff 8dd\	.	8f 8A/	.	8f/L	.	8ff 8a\	.	2r	.	8ff'\L	.
8r	.	8ryy	.	8c 8F/	.	8f 8A/	.	8a'/J	.	.	.	.	.	8r	.	8r	.	8a/J	.	8r	.	8r	.	8r	.	8a/J	.	8r	.	.	.	8aa'\J	.
*	*	*	*	*rep	*	*rep	*	*	*	*	*	*	*	*	*	*	*	*	*	*	*	*	*	*	*	*	*	*	*	*	*	*	*
8F\	.	8F\yy	.	8r	.	8r	.	4ccT\	.	.	.	.	.	4F\	.	4f 4A\	.	4c/	.	4F 4FF/	.	4ff 4dd\	.	4f 4A/	.	4ccT\	.	4ff 4a\	.	.	.	4cccT\	.
8r	.	8ryy	.	8c 8F/	.	8f 8A/	.	.	.	.	.	.	.	.	.	.	.	.	.	.	.	.	.	.	.	.	.	.	.	.	.	.	.
.	.	.	.	.	.	.	.	16qqbn/LL	.	.	.	.	.	.	.	.	.	.	.	.	.	.	.	.	.	(16qqbn/LL	.	.	.	.	.	(16qqbbn/LL	.
.	.	.	.	.	.	.	.	16qqcc/JJ	.	.	.	.	.	.	.	.	.	.	.	.	.	.	.	.	.	16qqcc/JJ)	.	.	.	.	.	16qqccc/JJ)	.
*	*	*	*	*Xrep	*	*Xrep	*	*	*	*	*	*	*	*	*	*	*	*	*	*	*	*	*	*	*	*	*	*	*	*	*	*	*
=17	=17	=17	=17	=17	=17	=17	=17	=17	=17	=17	=17	=17	=17	=17	=17	=17	=17	=17	=17	=17	=17	=17	=17	=17	=17	=17	=17	=17	=17	=17	=17	=17	=17
*	*	*	*	*	*	*	*	*	*	*^	*	*	*	*	*	*	*	*	*	*	*	*	*	*	*	*^	*	*^	*	*	*	*	*
8BB-/	.	8BB-/yy	.	8r	.	8r	.	8dd'\L	.	8rdd	8Ra\	.	8r	.	8r	.	8r	.	8dL 8B-/	.	8B-L 8BB-\	.	8ffL 8dd\	.	8fL 8B-/	.	8dd/L	8b-\L	.	8dd/L	8b-\L	.	8dd'\L	.	2r	.
8r	.	8ryy	.	8d 8F/	.	8f 8B-/	.	8dd'\J	.	8Ree/	8r	.	8F\	.	8B- 8BB-\	.	8f 8d\	.	8dJ 8B-/	.	8B-J 8BB-\	.	8ffJ 8dd\	.	8fJ 8B-/	.	8dd/J	8b-\J	.	8dd/J	8b-\J	.	8dd'\J	.	.	.
*	*	*	*	*rep	*	*rep	*	*	*	*	*	*	*	*	*	*	*	*	*	*	*	*	*	*	*	*	*	*	*	*	*	*	*	*	*	*
8B-\	.	8B-\yy	.	8r	.	8r	.	4ffT\	.	8rdd	8Ra\	.	8r	.	8r	.	8r	.	4f 4d/	.	4B- 4BB-\	.	4ff 4dd\	.	4f 4B-/	.	4ffT/	4b-\	.	4ffT/	4dd\	.	4ffT\	.	.	.
8r	.	8ryy	.	8d 8F/	.	8f 8B-/	.	.	.	8Ree/	8r	.	8F\	.	8B- 8BB-\	.	8f 8d\	.	.	.	.	.	.	.	.	.	.	.	.	.	.	.	.	.	.	.
.	.	.	.	.	.	.	.	(16qqee/LL	.	.	.	.	.	.	.	.	.	.	.	.	.	.	.	.	.	.	16qqee/LL	.	.	16qqee/LL	.	.	16qqee/LL	.	.	.
.	.	.	.	.	.	.	.	16qqff/JJ)	.	.	.	.	.	.	.	.	.	.	.	.	.	.	.	.	.	.	16qqff/JJ	.	.	16qqff/JJ	.	.	16qqff/JJ	.	.	.
*	*	*	*	*Xrep	*	*Xrep	*	*	*	*	*	*	*	*	*	*	*	*	*	*	*	*	*	*	*	*	*	*	*	*	*	*	*	*	*	*
=18	=18	=18	=18	=18	=18	=18	=18	=18	=18	=18	=18	=18	=18	=18	=18	=18	=18	=18	=18	=18	=18	=18	=18	=18	=18	=18	=18	=18	=18	=18	=18	=18	=18	=18	=18	=18
*	*	*	*	*	*	*	*	*	*	*rep	*rep	*	*rep	*	*	*	*	*	*	*	*	*	*	*	*	*	*	*	*	*	*	*	*	*	*	*
8AA/	.	8AA/yy	.	8r	.	8r	.	8cc'\L	.	8rdd	8Ra\	.	8r	.	8r	.	8r	.	8c/L	.	8AL 8AA/	.	8ffL 8cc\	.	8fL 8A/	.	8cc/L	8cc\L	.	8cc/L	8cc\L	.	8cc\L	.	2r	.
8r	.	8ryy	.	8c 8F/	.	8f 8c/	.	8cc'\J	.	8Ree/	8r	.	8F\	.	8A 8AA\	.	8f 8c\	.	8c/J	.	8AJ 8AA/	.	8ffJ 8cc\	.	8fJ 8A/	.	8cc/J	8cc\J	.	8cc/J	8cc\J	.	8cc\J	.	.	.
*	*	*	*	*rep	*	*rep	*	*	*	*	*	*	*	*	*	*	*	*	*	*	*	*	*	*	*	*	*	*	*	*	*	*	*	*	*	*
8A\	.	8A\yy	.	8r	.	8r	.	(<4ffT\	.	8rdd	8Ra\	.	8r	.	8r	.	8r	.	4f 4c/	.	4A 4AA/	.	4ff 4cc\	.	4f 4A/	.	4ffT/	4cc\	.	4ffT/	4cc\	.	4ffT\	.	.	.
8r	.	8ryy	.	8c 8F/	.	8f 8c/	.	.	.	8Ree/	8r	.	8F\	.	8A 8AA\	.	8f 8c\	.	.	.	.	.	.	.	.	.	.	.	.	.	.	.	.	.	.	.
*	*	*	*	*	*	*	*	*	*	*	*	*	*	*	*	*	*	*	*	*	*	*	*	*	*	*	*v	*v	*	*	*	*	*	*	*	*
*	*	*	*	*	*	*	*	*	*	*	*	*	*	*	*	*	*	*	*	*	*	*	*	*	*	*	*	*	*v	*v	*	*	*	*	*
.	.	.	.	.	.	.	.	16qqee/LL	.	.	.	.	.	.	.	.	.	.	.	.	.	.	.	.	.	.	16qqff/LL	.	16qqee/LL	.	(16qqee/LL	.	.	.
.	.	.	.	.	.	.	.	16qqff/JJ)	.	.	.	.	.	.	.	.	.	.	.	.	.	.	.	.	.	.	16qqff/JJ	.	16qqff/JJ	.	16qqff/JJ)	.	.	.
*	*	*	*	*Xrep	*	*Xrep	*	*	*	*Xrep	*Xrep	*	*Xrep	*	*	*	*	*	*	*	*	*	*	*	*	*	*	*	*	*	*	*	*	*
=19	=19	=19	=19	=19	=19	=19	=19	=19	=19	=19	=19	=19	=19	=19	=19	=19	=19	=19	=19	=19	=19	=19	=19	=19	=19	=19	=19	=19	=19	=19	=19	=19	=19	=19
*	*	*	*	*	*	*	*	*	*	*	*	*	*	*	*	*	*	*	*	*	*	*	*^	*	*	*	*	*	*	*	*	*	*	*
*	*	*	*	*	*	*	*	*	*	*tremolo	*	*	*	*	*	*	*	*	*	*	*	*	*	*	*	*	*	*	*	*	*	*	*	*	*
!	!	!	!	!	!	!	!	!	!	!	!	!	!	!	!	!	!	!	!	!	!	!	!	!	!	!	!	!	!	!	!	!LO:TX:t=col Fl	!	!	!
8G\	.	8G\yy	.	8r	.	8r	.	(16e/LL	.	16Ree/LL	4Ra\	.	2CT/	.	4G 4GG/	.	2e 2B-\	.	16eLL 16c/	.	4G 4GG/	.	2ee/	2cc\	.	2g 2c/	.	16eLL 16c/	.	(16cc\LL	.	(yy16eeyy\LL	.	(16ee\LL	.
.	.	.	.	.	.	.	.	16f/	.	16Ree/	.	.	.	.	.	.	.	.	(16f 16d/	.	.	.	.	.	.	.	.	(16f 16d/	.	16dd\	.	16ffyy\	.	16ff\	.
8r	.	8ryy	.	8c 8G/	.	8e 8B-/	.	16g/	.	16Ree/	.	.	.	.	.	.	.	.	16g 16e/	.	.	.	.	.	.	.	.	16g 16e/	.	16ee\	.	16ggyy\	.	16gg\	.
.	.	.	.	.	.	.	.	16a/JJ	.	16Ree/	.	.	.	.	.	.	.	.	16aJJ 16f/	.	.	.	.	.	.	.	.	16aJJ 16f/	.	16ff\JJ	.	16aayy\JJ	.	16aa\JJ	.
8C/	.	8C/yy	.	8r	.	8r	.	16b-\LL	.	16Ree/	4Ra\	.	.	.	4C/	.	.	.	16b-LL 16g/	.	4C 4CC/	.	.	.	.	.	.	16b-LL 16g/	.	16gg\LL	.	16bb-yy\LL	.	16bb-\LL	.
.	.	.	.	.	.	.	.	16cc\	.	16Ree/	.	.	.	.	.	.	.	.	16cc 16a/	.	.	.	.	.	.	.	.	16cc 16a/	.	16aa\	.	16cccyy\	.	16ccc\	.
8r	.	8ryy	.	8c 8C/	.	8g 8B-/	.	16dd\	.	16Ree/	.	.	.	.	.	.	.	.	16dd 16b-/	.	.	.	.	.	.	.	.	16dd 16b-/	.	16bb-\	.	16dddyy\	.	16ddd\	.
.	.	.	.	.	.	.	.	16ee\JJ	.	16Ree/JJ	.	.	.	.	.	.	.	.	16eeJJ 16g/)	.	.	.	.	.	.	.	.	16eeJJ 16g/)	.	16gg\JJ)	.	16eeeyy\JJ	.	16eee\JJ	.
*	*	*	*	*	*	*	*	*	*	*Xtremolo	*	*	*	*	*	*	*	*	*	*	*	*	*	*	*	*	*	*	*	*	*	*	*	*	*
*	*	*	*	*	*	*	*	*	*	*	*	*	*	*	*	*	*	*	*	*	*	*	*v	*v	*	*	*	*	*	*	*	*	*	*	*
=20	=20	=20	=20	=20	=20	=20	=20	=20	=20	=20	=20	=20	=20	=20	=20	=20	=20	=20	=20	=20	=20	=20	=20	=20	=20	=20	=20	=20	=20	=20	=20	=20	=20	=20
*	*	*	*	*	*	*	*	*	*	*	*	*	*	*	*	*	*	*	*	*	*	*	*	*	*	*	*^	*	*	*	*	*	*	*
8F\L	.	8F\Lyy	.	8cL 8F/	.	8fL 8A/	.	8ff'\L)	.	8Ree/L	4Ra\	.	8F/L	.	8F\L	.	8fL 8A\	.	8ffL 8a\	.	8FL 8FF/	.	8ffL 8cc\	.	8aL 8f\	.	8ff/L	8a\L	.	8ff\L	.	8fffyy\L)	.	8fff\L)	.
*	*	*	*	*	*	*	*	*	*	*tremolo	*	*	*	*	*	*	*	*	*	*	*	*	*	*	*	*	*	*	*	*	*	*	*	*	*
8C\J	.	8C\Jyy	.	8cJ 8C/	.	8gJ 8B-/	.	(16ee\L	.	32Ree/LL	.	.	8C/J	.	8C\J	.	8eJ 8B-\	.	8eeJ 8g\	.	8CJ 8CC/	.	8eeJ 8cc\	.	8gJ 8c\	.	16ee/L	8b-\J	.	8ggJ 8ee\	.	(yy16yyeeeyy\L	.	(16eee\L	.
.	.	.	.	.	.	.	.	.	.	32Ree/	.	.	.	.	.	.	.	.	.	.	.	.	.	.	.	.	.	.	.	.	.	.	.	.	.
.	.	.	.	.	.	.	.	16gg\JJ	.	32Ree/	.	.	.	.	.	.	.	.	.	.	.	.	.	.	.	.	16gg/JJ	.	.	.	.	16gggyy\JJ	.	16ggg\JJ	.
.	.	.	.	.	.	.	.	.	.	32Ree/JJJ	.	.	.	.	.	.	.	.	.	.	.	.	.	.	.	.	.	.	.	.	.	.	.	.	.
*	*	*	*	*	*	*	*	*	*	*Xtremolo	*	*	*	*	*	*	*	*	*	*	*	*	*	*	*	*	*	*	*	*	*	*	*	*	*
8F\	.	8F\yy	.	8c 8F/	.	8f 8A/	.	8ff\)	.	8Ree/	8Ra\	.	8F\	.	8F\	.	8f 8A\	.	8ff 8a\	.	8F 8FF/	.	8ff 8cc\	.	8f 8A/	.	8ff\	8a\	.	8ff\	.	8fffyy\)	.	8fff\)	.
8r	.	8ryy	.	8r	.	8r	.	8r	.	8rdd	8rcyy	.	8r	.	8r	.	8r	.	8r	.	8r	.	8r	.	8r	.	8rdd	8rcyy	.	8r	.	8ryy	.	8r	.
*	*	*	*	*	*	*	*	*	*	*	*	*	*	*	*	*	*	*	*	*	*	*	*	*	*	*	*v	*v	*	*	*	*	*	*	*
!!LO:PB:g=original
!!LO:TX:t=P:problem:do t. 28 powtórka t. 6-13, rozpisane jedynie partie fl i vl 1
=21	=21	=21	=21	=21	=21	=21	=21	=21	=21	=21	=21	=21	=21	=21	=21	=21	=21	=21	=21	=21	=21	=21	=21	=21	=21	=21	=21	=21	=21	=21	=21	=21	=21	=21
!	!	!	!	!	!	!	!	!	!	!	!	!	!	!	!	!	!	!	!	!	!	!	!	!	!	!	!	!	!	!	!	!	!	!
.	.	.	.	.	.	.	.	(8qd/	p	.	.	.	.	.	.	.	.	.	.	.	.	.	.	.	.	.	.	.	(yy8qddyy/	.	(8qdd/	.	.	.
*	*	*	*	*	*	*	*	*	*	*	*	*	*	*	*	*	*	*	*	*	*^	*	*	*	*	*	*	*	*^	*	*	*	*	*
!	!	!	!	!	!	!	!	!	!	!	!	!LO:DY:a	!	!	!	!	!	!	!	!	!	!	!	!	!	!	!	!	!	!	!	!	!	!	!	!
8Cyy/	pyy	8C/yy	pyy	8ryy	.	8ryy	.	8c/L)	.	4Reeyy/	2rcyy	pyy	2ryy	.	2ryy	.	2ryy	.	2ryy	.	2Gyy/	2Cyy\	pyy	2ryy	.	2ryy	.	[yy2eyy [yy2B-yy/	pyy	8ccyy/L)	2reyy	.	8cc\L)	.	2ryy	.
8ryy	.	8ryy	.	8yyc 8Gyy\	.	8eyy 8B-yy/	.	8c'/J	.	.	.	.	.	.	.	.	.	.	.	.	.	.	.	.	.	.	.	.	.	8cyyc/J	.	.	8cc'\J	.	.	.
.	.	.	.	.	.	.	.	(8qa/	.	.	.	.	.	.	.	.	.	.	.	.	.	.	.	.	.	.	.	.	.	(yy8qaayy/	.	.	(8qaa/	.	.	.
8Cyy/	.	8C/yy	.	8ryy	.	8ryy	.	4b-/)	.	4Reeyy/	.	.	.	.	.	.	.	.	.	.	.	.	.	.	.	.	.	.	.	4bb-yy/)	.	.	4bb-\)	.	.	.
8ryy	.	8ryy	.	8cyy 8Gyy\	.	8eyy 8B-yy/	.	.	.	.	.	.	.	.	.	.	.	.	.	.	.	.	.	.	.	.	.	.	.	.	.	.	.	.	.	.
=22	=22	=22	=22	=22	=22	=22	=22	=22	=22	=22	=22	=22	=22	=22	=22	=22	=22	=22	=22	=22	=22	=22	=22	=22	=22	=22	=22	=22	=22	=22	=22	=22	=22	=22	=22	=22
8Cyy/	.	8C/yy	.	8ryy	.	8ryy	.	(8.g/L	.	4Reeyy/	2rcyy	.	2ryy	.	2ryy	.	2ryy	.	2ryy	.	4Gyy/	4Cyy\	.	2ryy	.	2ryy	.	4eyy]yy 4B-yy/]yy	.	(yy8.ggyy/L	2reyy	.	(8.gg\L	.	2ryy	.
8ryy	.	8ryy	.	8cyy 8Gyy/	.	8eyy 8B-yy/	.	.	.	.	.	.	.	.	.	.	.	.	.	.	.	.	.	.	.	.	.	.	.	.	.	.	.	.	.	.
.	.	.	.	.	.	.	.	32a/LL	.	.	.	.	.	.	.	.	.	.	.	.	.	.	.	.	.	.	.	.	.	32aayy/LL	.	.	32aa\LL	.	.	.
.	.	.	.	.	.	.	.	32g/JJJ	.	.	.	.	.	.	.	.	.	.	.	.	.	.	.	.	.	.	.	.	.	32ggyy/JJJ)	.	.	32gg\JJJ)	.	.	.
8yyF\	.	8F\yy	.	8ryy	.	8ryy	.	4f/)	.	4Reeyy/	.	.	.	.	.	.	.	.	.	.	4Fyy/	4Fyy\	.	.	.	.	.	4fyy 4Ayy/	.	4ffyy/	.	.	4ff\	.	.	.
8ryy	.	8ryy	.	8cyy 8Fyy/	.	8fyy 8Ayy/	.	.	.	.	.	.	.	.	.	.	.	.	.	.	.	.	.	.	.	.	.	.	.	.	.	.	.	.	.	.
*	*	*	*	*	*	*	*	*	*	*	*	*	*	*	*	*	*	*	*	*	*v	*v	*	*	*	*	*	*	*	*v	*v	*	*	*	*	*
=23	=23	=23	=23	=23	=23	=23	=23	=23	=23	=23	=23	=23	=23	=23	=23	=23	=23	=23	=23	=23	=23	=23	=23	=23	=23	=23	=23	=23	=23	=23	=23	=23	=23	=23
*	*	*	*	*	*	*	*	*	*	*	*	*	*	*	*	*	*	*	*	*	*	*	*	*	*	*	*^	*	*	*	*	*	*	*
8Cyy/	.	8C/yy	.	8ryy	.	8ryy	.	8e'/L	.	2ryy	2rcyy	.	2ryy	.	2ryy	.	2ryy	.	2ryy	.	2ryy	.	2eeyy [yy2cyy/	.	2gyy [yy2cyy/	pyy	8e'yy/L	2rcyy	.	2ryy	.	2ryy	.	8ee'yy\L	.
8ryy	.	8ryy	.	8cyy 8Gyy/	.	8eyy 8B-yy/	.	8g'/	.	.	.	.	.	.	.	.	.	.	.	.	.	.	.	.	.	.	8g'yy/J	.	.	.	.	.	.	8gg'yy\J	.
8Cyy/	.	8C/yy	.	8ryy	.	8ryy	.	(8dd	.	.	.	.	.	.	.	.	.	.	.	.	.	.	.	.	.	.	(yy8ddyy/L	.	.	.	.	.	.	(yy8dddyy\L	.
8ryy	.	8ryy	.	8cyy 8Gyy/	.	8eyy 8B-yy/	.	8cc/J)	.	.	.	.	.	.	.	.	.	.	.	.	.	.	.	.	.	.	8ccyy/J)	.	.	.	.	.	.	8cccyy\J)	.
=24	=24	=24	=24	=24	=24	=24	=24	=24	=24	=24	=24	=24	=24	=24	=24	=24	=24	=24	=24	=24	=24	=24	=24	=24	=24	=24	=24	=24	=24	=24	=24	=24	=24	=24	=24
*rep	*	*	*	*	*	*	*	*	*	*	*	*	*	*	*	*	*	*	*	*	*	*	*	*	*	*	*	*	*	*	*	*	*	*	*
8Cyy/	.	8C/yy	.	8ryy	.	8ryy	.	8a'\L	.	2ryy	2rcyy	.	2ryy	.	2ryy	.	2ryy	.	2ryy	.	2ryy	.	2ffyy 2cyy/]yy	.	2ayy 2cyy/]yy	.	8a'yy/L	2rcyy	.	2ryy	.	2ryy	.	8aa'yy\L	.
8ryy	.	8ryy	.	8cyy 8Fyy/	.	8fyy 8Ayy/	.	8cc'\	.	.	.	.	.	.	.	.	.	.	.	.	.	.	.	.	.	.	8cc'yy/	.	.	.	.	.	.	8ccc'yy\J	.
8Cyy/	.	8C/yy	.	8ryy	.	8ryy	.	(8gg\	.	.	.	.	.	.	.	.	.	.	.	.	.	.	.	.	.	.	(yy8ggyy/	.	.	.	.	.	.	(yy8gggyy\L	.
8ryy	.	8ryy	.	8cyy 8Fyy/	.	8fyy 8Ayy/	.	8ff\J)	.	.	.	.	.	.	.	.	.	.	.	.	.	.	.	.	.	.	8ffyy/J)	.	.	.	.	.	.	8fffyy\J)	.
*Xrep	*	*	*	*	*	*	*	*	*	*	*	*	*	*	*	*	*	*	*	*	*	*	*	*	*	*	*	*	*	*	*	*	*	*	*
*	*	*	*	*	*	*	*	*	*	*	*	*	*	*	*	*	*	*	*	*	*	*	*	*	*	*	*v	*v	*	*	*	*	*	*	*
=25	=25	=25	=25	=25	=25	=25	=25	=25	=25	=25	=25	=25	=25	=25	=25	=25	=25	=25	=25	=25	=25	=25	=25	=25	=25	=25	=25	=25	=25	=25	=25	=25	=25	=25
*rep	*	*	*	*	*	*	*	*	*	*	*	*	*	*	*	*	*	*	*	*	*	*	*	*	*	*	*	*	*	*	*	*	*	*
.	.	.	.	.	.	.	.	(8qd/	.	.	.	.	.	.	.	.	.	.	.	.	.	.	.	.	.	.	.	.	(yy8qddyy/	.	(8qdd/	.	.	.
*	*	*	*	*	*	*	*	*	*	*	*	*	*	*	*	*	*	*	*	*	*^	*	*	*	*	*	*	*	*^	*	*	*	*	*
8Cyy/	.	8C/yy	.	8ryy	.	8ryy	.	8c/L)	.	4Reeyy/	2rcyy	.	2ryy	.	2ryy	.	2ryy	.	2ryy	.	[yy2Gyy/	[yy2Cyy\	pyy	2ryy	.	2ryy	.	[yy2eyy [yy2B-yy/	.	8cyy/L)	2reyy	.	8cc\L)	.	2ryy	.
8ryy	.	8ryy	.	8cyy 8Gyy/	.	8eyy 8B-yy/	.	8c'/J	.	.	.	.	.	.	.	.	.	.	.	.	.	.	.	.	.	.	.	.	.	8cc'yy/J	.	.	8cc\J	.	.	.
.	.	.	.	.	.	.	.	(8qa/	.	.	.	.	.	.	.	.	.	.	.	.	.	.	.	.	.	.	.	.	.	(yy8qaayy/	.	.	(8qaa/	.	.	.
8Cyy/	.	8C/yy	.	8ryy	.	8ryy	.	4b-/)	.	4Reeyy/	.	.	.	.	.	.	.	.	.	.	.	.	.	.	.	.	.	.	.	4bb-yy/)	.	.	4bb-\)	.	.	.
8ryy	.	8ryy	.	8cyy 8Gyy/	.	8eyy 8B-yy/	.	.	.	.	.	.	.	.	.	.	.	.	.	.	.	.	.	.	.	.	.	.	.	.	.	.	.	.	.	.
*Xrep	*	*	*	*	*	*	*	*	*	*	*	*	*	*	*	*	*	*	*	*	*	*	*	*	*	*	*	*	*	*	*	*	*	*	*	*
*	*	*	*	*	*	*	*	*	*	*	*	*	*	*	*	*	*	*	*	*	*v	*v	*	*	*	*	*	*	*	*	*	*	*	*	*	*
=26	=26	=26	=26	=26	=26	=26	=26	=26	=26	=26	=26	=26	=26	=26	=26	=26	=26	=26	=26	=26	=26	=26	=26	=26	=26	=26	=26	=26	=26	=26	=26	=26	=26	=26	=26
8Cyy/	.	8C/yy	.	8ryy	.	8ryy	.	(8.g/L	.	4Reeyy/	2rcyy	.	2ryy	.	2ryy	.	2ryy	.	2ryy	.	(yy4Gyy]yy 4Cyy]yy\	.	2ryy	.	2ryy	.	4eyy]yy 4B-yy/]yy	.	(yy8.ggyy/L	2reyy	.	(8.gg\L	.	2ryy	.
8ryy	.	8ryy	.	8cyy 8Ayy/	.	8eyy 8B-yy/	.	.	.	.	.	.	.	.	.	.	.	.	.	.	.	.	.	.	.	.	.	.	.	.	.	.	.	.	.
.	.	.	.	.	.	.	.	32a/LL	.	.	.	.	.	.	.	.	.	.	.	.	.	.	.	.	.	.	.	.	32aayy/LL	.	.	32aa\LL	.	.	.
.	.	.	.	.	.	.	.	32g/JJJ)	.	.	.	.	.	.	.	.	.	.	.	.	.	.	.	.	.	.	.	.	32ggyy/JJJ	.	.	32gg\JJJ	.	.	.
8Fyy\	.	8F\yy	.	8ryy	.	8ryy	.	4f/	.	4Reeyy/	.	.	.	.	.	.	.	.	.	.	4Fyy\)yy	.	.	.	.	.	4fyy 4Ayy/	.	4ffyy/)	.	.	4ff\)	.	.	.
8ryy	.	8ryy	.	8cyy 8Gyy/	.	8fyy 8Ayy/	.	.	.	.	.	.	.	.	.	.	.	.	.	.	.	.	.	.	.	.	.	.	.	.	.	.	.	.	.
!!LO:PB:g=original
=27	=27	=27	=27	=27	=27	=27	=27	=27	=27	=27	=27	=27	=27	=27	=27	=27	=27	=27	=27	=27	=27	=27	=27	=27	=27	=27	=27	=27	=27	=27	=27	=27	=27	=27	=27
*	*	*	*	*	*	*	*	*	*	*	*	*	*	*	*	*	*	*	*	*	*	*	*^	*	*	*	*^	*	*	*	*	*	*	*	*
8Cyy/	.	8C/yy	.	8ryy	.	8ryy	.	8e'/L	.	2ryy	2ryy	.	2ryy	.	2ryy	.	2ryy	.	2ryy	.	2ryy	.	2eeyy/	2ccyy\	.	2gyy 2cyy/	.	8eyy/L	2rcyy	.	2ryy	2ryy	.	2ryy	.	8ee'yy\L	.
8ryy	.	8ryy	.	8cyy 8Gyy/	.	8eyy 8B-yy/	.	8g'/	.	.	.	.	.	.	.	.	.	.	.	.	.	.	.	.	.	.	.	8gyy/	.	.	.	.	.	.	.	8gg'yy\	.
8Cyy/	.	8C/yy	.	8ryy	.	8ryy	.	(8dd/	.	.	.	.	.	.	.	.	.	.	.	.	.	.	.	.	.	.	.	8ddyy/	.	.	.	.	.	.	.	(yy8dddyy\	.
8ryy	.	8ryy	.	8cyy 8Gyy/	.	8eyy 8B-yy/	.	8cc/J)	.	.	.	.	.	.	.	.	.	.	.	.	.	.	.	.	.	.	.	8ccyy/J	.	.	.	.	.	.	.	8cccyy\J)	.
=28	=28	=28	=28	=28	=28	=28	=28	=28	=28	=28	=28	=28	=28	=28	=28	=28	=28	=28	=28	=28	=28	=28	=28	=28	=28	=28	=28	=28	=28	=28	=28	=28	=28	=28	=28	=28	=28
8Fyy\	.	8F\yy	.	8ryy	.	8ryy	.	(16a/LL	.	2ryy	2ryy	.	2ryy	.	2ryy	.	2ryy	.	2ryy	.	2ryy	.	2ffyy/	2ccyy\	.	2fyy 2Ayy/	.	16ayy/LL	2rcyy	.	2ryy	2ryy	.	2ryy	.	16aayy\LL	.
.	.	.	.	.	.	.	.	16f/	.	.	.	.	.	.	.	.	.	.	.	.	.	.	.	.	.	.	.	16fyy/	.	.	.	.	.	.	.	(yy16ffyy\	.
8ryy	.	8ryy	.	8cyy 8Fyy/	.	8fyy 8Ayy/	.	16a/	.	.	.	.	.	.	.	.	.	.	.	.	.	.	.	.	.	.	.	16ayy/	.	.	.	.	.	.	.	16aayy\	.
.	.	.	.	.	.	.	.	16cc/JJ)	.	.	.	.	.	.	.	.	.	.	.	.	.	.	.	.	.	.	.	16ccyy/JJ	.	.	.	.	.	.	.	16cccyy\JJ	.
4FFyy/	.	4FF/yy	.	4cyy 4Fyy/	.	4fyy 4Ayy/	.	4ff\	.	.	.	.	.	.	.	.	.	.	.	.	.	.	.	.	.	.	.	4ffyy/	.	.	.	.	.	.	.	4fffyy\)	.
*	*	*	*	*	*	*	*	*	*	*	*	*	*	*	*	*	*	*	*	*	*	*	*v	*v	*	*	*	*	*	*	*	*	*	*	*	*	*
*>D	*>D	*>D	*>D	*>D	*>D	*>D	*>D	*>D	*>D	*>D	*>D	*>D	*>D	*>D	*>D	*>D	*>D	*>D	*>D	*>D	*>D	*>D	*>D	*>D	*>D	*>D	*>D	*>D	*>D	*>D	*>D	*>D	*>D	*>D	*>D	*>D
=29:|!	=29:|!	=29:|!	=29:|!	=29:|!	=29:|!	=29:|!	=29:|!	=29:|!	=29:|!	=29:|!	=29:|!	=29:|!	=29:|!	=29:|!	=29:|!	=29:|!	=29:|!	=29:|!	=29:|!	=29:|!	=29:|!	=29:|!	=29:|!	=29:|!	=29:|!	=29:|!	=29:|!	=29:|!	=29:|!	=29:|!	=29:|!	=29:|!	=29:|!	=29:|!	=29:|!	=29:|!
!	!	!	!	!	!	!	!	!	!	!	!	!	!	!	!	!	!	!	!	!	!	!	!	!	!	!	!LO:TX:a:t=Col Oboe	!	!LO:DY:a	!	!	!LO:DY:a	!	!	!	!
8D\L	f	8D\Lyy	fyy	8d\L	.	8ddL 8d/	.	8ffL 8a 8d/	f	8Ree/L	4Ra\	.	8F\L	.	8D\L	.	8fL 8A\	f	8fL 8d/	.	8DL 8DD/	f	8ffL 8dd\	.	8aL 8f\	f	8ffyyL 8ayy/	4rcyy	fyy	8ffL 8a/	4rcyy	f	8ff\L	.	2ryy	.
8D\J	.	8D\Jyy	.	8d\J	.	8ddJ 8d/	.	8ffJ 8a/	.	8Ree/J	.	.	8F\J	.	8D\J	.	8fJ 8A\	.	8fJ 8d/	.	8DJ 8DD/	.	8ffJ 8dd\	.	8aJ 8f\	.	8ffyyJ 8ayy/	.	.	8ffJ 8a/	.	.	8ff\J	.	.	.
4F\	.	4F\yy	.	4f\	.	4a 4d/	.	4ddT\	.	4Reet/	4Ra\	.	4F\	.	4F\	.	4d 4A\	.	4d/	.	4F 4FF/	.	4ff 4dd\	.	4a 4f\	.	4ddyyTyy/	[yy4ayy\	.	4ddT/	4a\	.	4ddT\	.	.	.
.	.	.	.	.	.	.	.	(16qqcc#X/LL	.	.	.	.	.	.	.	.	.	.	.	.	.	.	.	.	.	.	16qqcc#yyX/LL	.	.	16qqcc#X/LL	.	.	(16qqcc#X/LL	.	.	.
.	.	.	.	.	.	.	.	16qqdd/JJ)	.	.	.	.	.	.	.	.	.	.	.	.	.	.	.	.	.	.	16qqddyy/JJ	.	.	16qqdd/JJ	.	.	16qqdd/JJ)	.	.	.
=30	=30	=30	=30	=30	=30	=30	=30	=30	=30	=30	=30	=30	=30	=30	=30	=30	=30	=30	=30	=30	=30	=30	=30	=30	=30	=30	=30	=30	=30	=30	=30	=30	=30	=30	=30	=30
*	*	*	*	*	*	*	*	*^	*	*	*	*	*	*	*	*	*	*	*	*	*	*	*	*	*	*	*	*	*	*	*	*	*	*	*	*
8G\L	.	8G\Lyy	.	8g\L	.	8b-L 8g/	.	8eeL 8b-/	4g\	.	8Ree/L	4Ra\	.	2r	.	8G\L	.	8eL 8B-\	.	8b-L 8g/	.	8GL 8GG/	.	8ee\L	.	8b-L 8g\	.	8eeyyL 8b-yy/	4rcyy]yy	.	8eeL 8b-/	4rcyy	.	8ee\L	.	2ryy	.
8G\J	.	8G\Jyy	.	8g\J	.	8b-J 8g/	.	8eeJ 8b-/	.	.	8Ree/J	.	.	.	.	8G\J	.	8eJ 8B-\	.	8b-J 8g/	.	8GJ 8GG/	.	8ee\J	.	8b-J 8g\	.	8eeyyJ 8b-yy/	.	.	8eeJ 8b-/	.	.	8ee\J	.	.	.
4G\	.	4G\yy	.	4e\	.	4b- 4g/	.	4b-T/	4rcyy	.	4Reet/	4Ra\	.	.	.	4G\	.	4e 4B-\	.	4b- 4g/	.	4G 4GG/	.	4ee\	.	4b- 4g\	.	4b-yyT/	4gyy\	.	4b-T/	4g\	.	4b-T\	.	.	.
*	*	*	*	*	*	*	*	*v	*v	*	*	*	*	*	*	*	*	*	*	*	*	*	*	*	*	*	*	*	*	*	*	*	*	*	*	*	*
.	.	.	.	.	.	.	.	(16qqa/LL	.	.	.	.	.	.	.	.	.	.	.	.	.	.	.	.	.	.	(yy16qqayy/LL	.	.	(16qqa/LL	.	.	(16qqa/LL	.	.	.
.	.	.	.	.	.	.	.	16qqb-/JJ)	.	.	.	.	.	.	.	.	.	.	.	.	.	.	.	.	.	.	16qqb-yy/JJ)	.	.	16qqb-/JJ)	.	.	16qqb-/JJ	.	.	.
=31	=31	=31	=31	=31	=31	=31	=31	=31	=31	=31	=31	=31	=31	=31	=31	=31	=31	=31	=31	=31	=31	=31	=31	=31	=31	=31	=31	=31	=31	=31	=31	=31	=31	=31	=31	=31
*	*	*	*	*	*	*	*	*	*	*	*	*	*	*	*	*	*^	*	*	*	*	*	*^	*	*^	*	*	*	*	*	*	*	*	*	*	*
8A\	.	8A\yy	.	8r	.	8r	.	8a'\L	.	4Ree/	2rg	.	2r	.	4A\	.	2e/	2G\	.	2r	.	4A 4AA/	.	2ee/	2cc#X\	.	2a/	4a\	.	8a/L	2e\	.	8a/L	2g\	.	8a'\L)	.	2ryy	.
8r	.	8ryy	.	8e#X 8c\	.	8a 8g/	.	(16cc#X\L	.	.	.	.	.	.	.	.	.	.	.	.	.	.	.	.	.	.	.	.	.	16cc#X/L	.	.	16cc#X/L	.	.	(16cc#X\L	.	.	.
.	.	.	.	.	.	.	.	16ee\JJ	.	.	.	.	.	.	.	.	.	.	.	.	.	.	.	.	.	.	.	.	.	16ee/JJ	.	.	16ee/JJ	.	.	16ee\JJ	.	.	.
8AA/	.	8AA/yy	.	8r	.	8r	.	8aa\L)	.	4Ree/	.	.	.	.	4AA/	.	.	.	.	.	.	4A 4AA/	.	.	.	.	.	4A\	.	8a/L	.	.	8aa/L	.	.	8aa\L)	.	.	.
8r	.	8ryy	.	8e# 8c\	.	8a 8g/	.	8gg'\J	.	.	.	.	.	.	.	.	.	.	.	.	.	.	.	.	.	.	.	.	.	8cc#/J	.	.	8gg/J	.	.	8gg'\J	.	.	.
*	*	*	*	*	*	*	*	*	*	*	*	*	*	*	*	*	*	*	*	*	*	*	*	*	*	*	*v	*v	*	*	*	*	*	*	*	*	*	*	*
*	*	*	*	*	*	*	*	*	*	*	*	*	*	*	*	*	*v	*v	*	*	*	*	*	*	*	*	*	*	*v	*v	*	*	*	*	*	*	*	*
!!LO:PB:g=original
=32	=32	=32	=32	=32	=32	=32	=32	=32	=32	=32	=32	=32	=32	=32	=32	=32	=32	=32	=32	=32	=32	=32	=32	=32	=32	=32	=32	=32	=32	=32	=32	=32	=32	=32	=32	=32
8D\	.	8D\yy	.	8r	.	8r	.	(16ff\LL	.	4Ree/	2rg	.	4F\	.	2D\	.	2d 2F/	.	2r	.	2D\	.	2ff/	2dd\	.	2a 2A/	.	2dd 2f/	.	16ff/LL	2f\	.	(16ff\LL	.	2r	.
.	.	.	.	.	.	.	.	16ee\	.	.	.	.	.	.	.	.	.	.	.	.	.	.	.	.	.	.	.	.	.	16ee/	.	.	16ee\	.	.	.
8r	.	8ryy	.	8d\	.	8a 8f/	.	16ff\	.	.	.	.	.	.	.	.	.	.	.	.	.	.	.	.	.	.	.	.	.	16ff/	.	.	16ff\	.	.	.
.	.	.	.	.	.	.	.	16ee\JJ)	.	.	.	.	.	.	.	.	.	.	.	.	.	.	.	.	.	.	.	.	.	16ee/JJ	.	.	16ee\JJ)	.	.	.
8D\	.	8D\yy	.	8r	.	8r	.	(8dd\L	.	4Ree/	.	.	4F\	.	.	.	.	.	.	.	.	.	.	.	.	.	.	.	.	8dd/L	.	.	(8dd\L	.	.	.
8r	.	8ryy	.	8d\	.	8a 8f/	.	8ddd\J)	.	.	.	.	.	.	.	.	.	.	.	.	.	.	.	.	.	.	.	.	.	8ddd/J	.	.	8ddd\J)	.	.	.
*	*	*	*	*	*	*	*	*	*	*	*	*	*	*	*	*	*	*	*	*	*	*	*v	*v	*	*	*	*	*	*	*	*	*	*	*	*
=33	=33	=33	=33	=33	=33	=33	=33	=33	=33	=33	=33	=33	=33	=33	=33	=33	=33	=33	=33	=33	=33	=33	=33	=33	=33	=33	=33	=33	=33	=33	=33	=33	=33	=33	=33
*	*	*	*	*	*	*	*	*	*	*	*	*	*	*	*	*	*	*	*	*	*	*	*	*	*	*	*^	*	*	*	*	*	*	*	*
8BBn/L	.	8BBn/Lyy	.	8dL 8G/	.	8g/L	.	8ggL 8bn 8d\	.	8Ree/L	4Ra\	.	2r	.	8BBn/L	.	8dL 8G\	.	8g/L	.	8BBn/L	.	8dd\L	.	8g\L	.	8ddL 8g/	4rcyy	.	8ggL 8g/	4ryy	.	2r	.	8ggg'\L	.
8BB/J	.	8BB/Jyy	.	8dJ 8G/	.	8g/J	.	8ggJ 8b\	.	8Ree/J	.	.	.	.	8BB/J	.	8dJ 8G\	.	8g/J	.	8BB/J	.	8dd\J	.	8g\J	.	8ddJ 8g/	.	.	8ggJ 8g/	.	.	.	.	8ggg'\J	.
4Bn\	.	4Bn\yy	.	4d 4G/	.	4g/	.	4ddT\	.	4Reet/	4Ra\	.	.	.	4BB/	.	4d 4G\	.	4d/	.	4Bn 4BB\	.	4dd\	.	4g\	.	4ddT/	4g\	.	4ddT/	4g\	.	.	.	4dddT\	.
.	.	.	.	.	.	.	.	(16qqcc#X/LL	.	.	.	.	.	.	.	.	.	.	.	.	.	.	.	.	.	.	(16qqcc#X/LL	.	.	(>16qqcc#X/LL	.	.	.	.	(16qqccc/LL	.
.	.	.	.	.	.	.	.	16qqdd/JJ)	.	.	.	.	.	.	.	.	.	.	.	.	.	.	.	.	.	.	16qqdd/JJ)	.	.	16qqdd/JJ)	.	.	.	.	16qqddd/JJ)	.
=34	=34	=34	=34	=34	=34	=34	=34	=34	=34	=34	=34	=34	=34	=34	=34	=34	=34	=34	=34	=34	=34	=34	=34	=34	=34	=34	=34	=34	=34	=34	=34	=34	=34	=34	=34	=34
*	*	*	*	*	*	*	*	*	*	*rep	*	*	*	*	*	*	*	*	*	*	*	*	*	*	*	*	*	*	*	*	*	*	*	*	*	*
8c\L	.	8c\Lyy	.	8eL 8G/	.	8gL 8c/	.	8eeL 8cc 8g\	.	8Ree/L	4Ra\	.	8C/L	.	8C/L	.	8cL 8G\	.	8e/L	.	8cL 8C\	.	8eeL 8cc\	.	8gL 8c/	.	8cc/L	8g\L	.	8ee'/L	8g\L	.	2r	.	8eee\L	.
8c\J	.	8c\Jyy	.	8eJ 8G/	.	8gJ 8c/	.	8eeJ 8cc\	.	8Ree/J	.	.	8C/J	.	8C/J	.	8cJ 8G\	.	8e/J	.	8cJ 8C\	.	8eeJ 8cc\	.	8gJ 8c/	.	8cc/J	8g\J	.	8ee'/J	8g\J	.	.	.	8eee\J	.
4E\	.	4E\yy	.	4e 4G/	.	4g 4c/	.	4ccT\	.	4Reet/	4Ra\	.	4C/	.	4C/	.	4c 4G\	.	4c/	.	4E\	.	4ee 4cc\	.	4g 4c/	.	4ccT/	4g\	.	4ccT/	4g\	.	.	.	4cccT\	.
*	*	*	*	*	*	*	*	*	*	*	*	*	*	*	*	*	*	*	*	*	*	*	*	*	*	*	*v	*v	*	*	*	*	*	*	*	*
.	.	.	.	.	.	.	.	(16qqbn/LL	.	.	.	.	.	.	.	.	.	.	.	.	.	.	.	.	.	.	(>16qqbn/LL	.	16qqbn/LL	.	.	.	.	(16qqbbn/LL	.
.	.	.	.	.	.	.	.	16qqcc/JJ)	.	.	.	.	.	.	.	.	.	.	.	.	.	.	.	.	.	.	16qqcc/JJ)	.	16qqcc/JJ	.	.	.	.	16qqccc/JJ)	.
*	*	*	*	*	*	*	*	*	*	*Xrep	*	*	*	*	*	*	*	*	*	*	*	*	*	*	*	*	*	*	*	*	*	*	*	*	*
=35	=35	=35	=35	=35	=35	=35	=35	=35	=35	=35	=35	=35	=35	=35	=35	=35	=35	=35	=35	=35	=35	=35	=35	=35	=35	=35	=35	=35	=35	=35	=35	=35	=35	=35	=35
*	*	*	*	*	*	*	*	*	*	*	*	*	*	*	*	*	*	*	*^	*	*	*	*	*	*^	*	*	*	*	*	*	*	*	*	*
*	*	*	*	*	*	*	*	*	*	*tremolo	*	*	*	*	*	*	*	*	*	*	*	*	*	*	*	*	*	*	*	*	*	*	*	*	*	*	*
8D/	.	8D/yy	.	8r	.	8r	.	(16bn\LL	.	16Ree/LL	4Ra\	.	2FTT\	.	4D/	.	2f 2Bn\	.	2g/	2g\	.	4D\	.	2dd 2g/	.	2g/	2f\	.	2dd 2f/	.	(16bn\LL	4ryy	.	(16bn\LL	.	2r	.
.	.	.	.	.	.	.	.	16cc\	.	16Ree/	.	.	.	.	.	.	.	.	.	.	.	.	.	.	.	.	.	.	.	.	16cc\	.	.	16cc\	.	.	.
8r	.	8ryy	.	8f 8G/	.	8bn 8d/	.	16dd\	.	16Ree/	.	.	.	.	.	.	.	.	.	.	.	.	.	.	.	.	.	.	.	.	16dd\	.	.	16dd\	.	.	.
.	.	.	.	.	.	.	.	16ee\JJ	.	16Ree/	.	.	.	.	.	.	.	.	.	.	.	.	.	.	.	.	.	.	.	.	16ee\JJ	.	.	16ee\JJ	.	.	.
8GG/	.	8GG/yy	.	8r	.	8r	.	16ff\LL	.	16Ree/	4Ra\	.	.	.	4GG/	.	.	.	.	.	.	4GG/	.	.	.	.	.	.	.	.	16ff/LL	8ff\L	.	16ff\LL	.	.	.
.	.	.	.	.	.	.	.	16gg\	.	16Ree/	.	.	.	.	.	.	.	.	.	.	.	.	.	.	.	.	.	.	.	.	16gg/	.	.	16gg\	.	.	.
8r	.	8ryy	.	8d 8G/	.	8dd 8f/	.	16aa\	.	16Ree/	.	.	.	.	.	.	.	.	.	.	.	.	.	.	.	.	.	.	.	.	16aa/	8dd\J	.	16aa\	.	.	.
.	.	.	.	.	.	.	.	16bbn\JJ)	.	16Ree/JJ	.	.	.	.	.	.	.	.	.	.	.	.	.	.	.	.	.	.	.	.	16bbn/JJ)	.	.	16bbn\JJ)	.	.	.
*	*	*	*	*	*	*	*	*	*	*Xtremolo	*	*	*	*	*	*	*	*	*	*	*	*	*	*	*	*	*	*	*	*	*	*	*	*	*	*	*
*	*	*	*	*	*	*	*	*	*	*	*	*	*	*	*	*	*	*	*v	*v	*	*	*	*	*	*v	*v	*	*	*	*v	*v	*	*	*	*	*
=36	=36	=36	=36	=36	=36	=36	=36	=36	=36	=36	=36	=36	=36	=36	=36	=36	=36	=36	=36	=36	=36	=36	=36	=36	=36	=36	=36	=36	=36	=36	=36	=36	=36	=36
8C/L	.	8C/Lyy	.	8eL 8G/	.	8ccL 8e/	.	8ccc\L	.	8Ree/L	4Ra\	.	8C/L	.	8C/L	.	8eL 8c\	.	8ccL 8e/	.	8C/L	.	8eeL 8cc\	.	8gL 8c/	.	8ccL 8e/	.	8cccL 8ee\	.	8ccc'\L	.	2r	.
*	*	*	*	*	*	*	*	*	*	*tremolo	*	*	*	*	*	*	*	*	*	*	*	*	*	*	*	*	*	*	*	*	*	*	*	*
8GG/J	.	8GG/Jyy	.	8fJ 8G/	.	8bnJ 8d/	.	(16bbn\L	.	32Ree/LL	.	.	8F/J	.	8GG/J	.	8fJ 8d\	.	8bnJ 8d/	.	8GG/J	.	8ddJ 8a\	.	8gJ 8BX/	.	8ddJ 8f/	.	8bbnJ 8dd\	.	(16bbn\L	.	.	.
.	.	.	.	.	.	.	.	.	.	32Ree/	.	.	.	.	.	.	.	.	.	.	.	.	.	.	.	.	.	.	.	.	.	.	.	.
.	.	.	.	.	.	.	.	16ddd\JJ	.	32Ree/	.	.	.	.	.	.	.	.	.	.	.	.	.	.	.	.	.	.	.	.	16ddd\JJ)	.	.	.
.	.	.	.	.	.	.	.	.	.	32Ree/JJ	.	.	.	.	.	.	.	.	.	.	.	.	.	.	.	.	.	.	.	.	.	.	.	.
*	*	*	*	*	*	*	*	*	*	*Xtremolo	*	*	*	*	*	*	*	*	*	*	*	*	*	*	*	*	*	*	*	*	*	*	*	*
8C/	.	8C/yy	.	8e 8G/	.	8cc 8e/	.	8ccc\)	.	8Ree/J	8Ra\	.	8C/	.	8C/	.	8e 8c\	.	8cc 8e/	.	8C/	.	8cc 8e/	.	8g 8c/	.	8cc 8e/	.	8ccc 8ee\	.	8ccc\	.	.	.
8r	.	8ryy	.	8r	.	8r	.	8r	.	8r	8r	.	8r	.	8r	.	8r	.	8r	.	8r	.	8r	.	8r	.	8r	.	8r	.	8r	.	.	.
!!LO:PB:g=original
=37	=37	=37	=37	=37	=37	=37	=37	=37	=37	=37	=37	=37	=37	=37	=37	=37	=37	=37	=37	=37	=37	=37	=37	=37	=37	=37	=37	=37	=37	=37	=37	=37	=37	=37
!	!	!	!	!	!	!	!	!	!	!	!	!	!	!	!	!	!	!	!	!	!	!	!	!	!	!	!	!	!	!	!	!	!LO:TX:t=P:problem=fragment do t. 44 wpisany w większości za pomocą odsyłacza literowego AB	!
.	.	.	.	.	.	.	.	(8qd/	p	.	.	.	.	.	.	.	.	.	.	.	.	.	.	.	.	.	.	.	(yy8qddyy/	.	(8qdd/	.	.	.
*	*	*	*	*	*	*	*	*	*	*	*	*	*	*	*	*	*	*	*	*	*^	*	*	*	*	*	*	*	*^	*	*	*	*	*
!	!	!	!	!	!	!	!	!	!	!	!	!LO:DY:a	!	!	!	!	!	!	!	!	!	!	!	!	!	!	!	!	!	!	!	!	!	!	!	!
8Cyy/	pyy	8C/yy	pyy	8ryy	.	8ryy	.	8c/L)	.	4Reeyy/	2rcyy	pyy	2ryy	.	2ryy	.	2ryy	.	2ryy	.	2Gyy/	2Cyy\	pyy	2ryy	.	2ryy	.	[yy2eyy [yy2B-yy/	pyy	8ccyy/L)	2rcyy	.	8cc\L)	.	2ryy	.
8ryy	.	8ryy	.	8cyy 8Gyy\	.	8eyy 8B-yy/	.	8c'/J	.	.	.	.	.	.	.	.	.	.	.	.	.	.	.	.	.	.	.	.	.	8ccyy/J	.	.	8cc'\J	.	.	.
.	.	.	.	.	.	.	.	(8qa/	.	.	.	.	.	.	.	.	.	.	.	.	.	.	.	.	.	.	.	.	.	(yy8qaayy/	.	.	(8qaa/	.	.	.
8Cyy/	.	8C/yy	.	8ryy	.	8ryy	.	4b-/)	.	4Reeyy/	.	.	.	.	.	.	.	.	.	.	.	.	.	.	.	.	.	.	.	4bb-yy/)	.	.	4bb-\)	.	.	.
8ryy	.	8ryy	.	8cyy 8Gyy\	.	8eyy 8B-yy/	.	.	.	.	.	.	.	.	.	.	.	.	.	.	.	.	.	.	.	.	.	.	.	.	.	.	.	.	.	.
=38	=38	=38	=38	=38	=38	=38	=38	=38	=38	=38	=38	=38	=38	=38	=38	=38	=38	=38	=38	=38	=38	=38	=38	=38	=38	=38	=38	=38	=38	=38	=38	=38	=38	=38	=38	=38
8Cyy/	.	8C/yy	.	8ryy	.	8ryy	.	(8.g/L	.	4Reeyy/	2rcyy	.	2ryy	.	2ryy	.	2ryy	.	2ryy	.	4Gyy/	4Cyy\	.	2ryy	.	2ryy	.	4eyy]yy 4B-yy/]yy	.	(yy8.ggyy/L	2rcyy	.	(8.gg\L	.	2ryy	.
8ryy	.	8ryy	.	8cyy 8Gyy/	.	8eyy 8B-yy/	.	.	.	.	.	.	.	.	.	.	.	.	.	.	.	.	.	.	.	.	.	.	.	.	.	.	.	.	.	.
.	.	.	.	.	.	.	.	32a/LL	.	.	.	.	.	.	.	.	.	.	.	.	.	.	.	.	.	.	.	.	.	32aayy/LL	.	.	32aa\LL	.	.	.
.	.	.	.	.	.	.	.	32g/JJJ	.	.	.	.	.	.	.	.	.	.	.	.	.	.	.	.	.	.	.	.	.	32ggyy/JJJ)	.	.	32gg\JJJ)	.	.	.
8Fyy\	.	8F\yy	.	8ryy	.	8ryy	.	4f/)	.	4Reeyy/	.	.	.	.	.	.	.	.	.	.	4Fyy/	4Fyy\	.	.	.	.	.	4fyy 4Ayy/	.	4ffyy/	.	.	4ff\	.	.	.
8ryy	.	8ryy	.	8cyy 8Fyy/	.	8fyy 8Ayy/	.	.	.	.	.	.	.	.	.	.	.	.	.	.	.	.	.	.	.	.	.	.	.	.	.	.	.	.	.	.
*	*	*	*	*	*	*	*	*	*	*	*	*	*	*	*	*	*	*	*	*	*v	*v	*	*	*	*	*	*	*	*v	*v	*	*	*	*	*
=39	=39	=39	=39	=39	=39	=39	=39	=39	=39	=39	=39	=39	=39	=39	=39	=39	=39	=39	=39	=39	=39	=39	=39	=39	=39	=39	=39	=39	=39	=39	=39	=39	=39	=39
*	*	*	*	*	*	*	*	*	*	*	*	*	*	*	*	*	*	*	*	*	*	*	*	*	*	*	*^	*	*	*	*	*	*	*
8Cyy/	.	8C/yy	.	8ryy	.	8ryy	.	8e'/LL	.	2raayy	2rcyy	.	2ryy	.	2ryy	.	2ryy	.	2ryy	.	2ryy	.	2eeyy [yy2cyy/	.	2gyy [yy2cyy/	pyy	8e'yy/L	2rcyy	.	2ryy	.	2ryy	.	8ee'yy\L	.
8ryy	.	8ryy	.	8cyy 8Gyy/	.	8eyy 8B-yy/	.	8g'/	.	.	.	.	.	.	.	.	.	.	.	.	.	.	.	.	.	.	8g'yy/J	.	.	.	.	.	.	8gg'yy\J	.
8Cyy/	.	8C/yy	.	8ryy	.	8ryy	.	(8dd\	.	.	.	.	.	.	.	.	.	.	.	.	.	.	.	.	.	.	(yy8ddyy/L	.	.	.	.	.	.	(yy8dddyy\L	.
8ryy	.	8ryy	.	8cyy 8Gyy/	.	8eyy 8B-yy/	.	8cc\JJ)	.	.	.	.	.	.	.	.	.	.	.	.	.	.	.	.	.	.	8ccyy/J)	.	.	.	.	.	.	8ccyyc\J)	.
=40	=40	=40	=40	=40	=40	=40	=40	=40	=40	=40	=40	=40	=40	=40	=40	=40	=40	=40	=40	=40	=40	=40	=40	=40	=40	=40	=40	=40	=40	=40	=40	=40	=40	=40	=40
8Cyy/	.	8C/yy	.	8ryy	.	8ryy	.	8a'\LL	.	2raayy	2rcyy	.	2ryy	.	2ryy	.	2ryy	.	2ryy	.	2ryy	.	2ffyy 2cyy/]yy	.	2ayy 2cyy/]yy	.	8a'yy/L	2rcyy	.	2ryy	.	2ryy	.	8aa'yy\L	.
8ryy	.	8ryy	.	8cyy 8Fyy/	.	8fyy 8Ayy/	.	8cc'\	.	.	.	.	.	.	.	.	.	.	.	.	.	.	.	.	.	.	8cc'yy/	.	.	.	.	.	.	8ccc'yy\J	.
8Cyy/	.	8C/yy	.	8ryy	.	8ryy	.	(8gg\	.	.	.	.	.	.	.	.	.	.	.	.	.	.	.	.	.	.	(yy8ggyy/	.	.	.	.	.	.	(yy8gggyy\L	.
8ryy	.	8ryy	.	8cyy 8Fyy/	.	8fyy 8Ayy/	.	8ff\JJ)	.	.	.	.	.	.	.	.	.	.	.	.	.	.	.	.	.	.	8ffyy/J)	.	.	.	.	.	.	8fffyy\J)	.
*	*	*	*	*	*	*	*	*	*	*	*	*	*	*	*	*	*	*	*	*	*	*	*	*	*	*	*v	*v	*	*	*	*	*	*	*
=41	=41	=41	=41	=41	=41	=41	=41	=41	=41	=41	=41	=41	=41	=41	=41	=41	=41	=41	=41	=41	=41	=41	=41	=41	=41	=41	=41	=41	=41	=41	=41	=41	=41	=41
.	.	.	.	.	.	.	.	(8qd/	.	.	.	.	.	.	.	.	.	.	.	.	.	.	.	.	.	.	.	.	(yy8qddyy/	.	(8qdd/	.	.	.
*	*	*	*	*	*	*	*	*	*	*	*	*	*	*	*	*	*	*	*	*	*^	*	*	*	*	*	*	*	*^	*	*	*	*	*
8Cyy/	.	8C/yy	.	8ryy	.	8ryy	.	8c/L)	.	4Reeyy/	2rcyy	.	2ryy	.	2ryy	.	2ryy	.	2ryy	.	[yy2Gyy/	2Cyy\	pyy	2ryy	.	2ryy	.	[yy2eyy [yy2B-yy/	.	8ccyy/L)	2rcyy	.	8cc\L)	.	2ryy	.
8ryy	.	8ryy	.	8cyy 8Gyy/	.	8eyy 8B-yy/	.	8c'/J	.	.	.	.	.	.	.	.	.	.	.	.	.	.	.	.	.	.	.	.	.	8cc'yy/J	.	.	8cc'\J	.	.	.
.	.	.	.	.	.	.	.	(8qa/	.	.	.	.	.	.	.	.	.	.	.	.	.	.	.	.	.	.	.	.	.	(yy8qaayy/	.	.	(8qaa/	.	.	.
8Cyy/	.	8C/yy	.	8ryy	.	8ryy	.	4b-/)	.	4Reeyy/	.	.	.	.	.	.	.	.	.	.	.	.	.	.	.	.	.	.	.	4bb-yy/)	.	.	4bb-\)	.	.	.
8ryy	.	8ryy	.	8cyy 8Gyy/	.	8eyy 8B-yy/	.	.	.	.	.	.	.	.	.	.	.	.	.	.	.	.	.	.	.	.	.	.	.	.	.	.	.	.	.	.
*	*	*	*	*	*	*	*	*	*	*	*	*	*	*	*	*	*	*	*	*	*v	*v	*	*	*	*	*	*	*	*	*	*	*	*	*	*
=42	=42	=42	=42	=42	=42	=42	=42	=42	=42	=42	=42	=42	=42	=42	=42	=42	=42	=42	=42	=42	=42	=42	=42	=42	=42	=42	=42	=42	=42	=42	=42	=42	=42	=42	=42
8Cyy/	.	8C/yy	.	8ryy	.	8ryy	.	(8.g/L	.	4Reeyy/	2rcyy	.	2ryy	.	2ryy	.	2ryy	.	2ryy	.	(yy4Gyy]yy 4Cyy\	.	2ryy	.	2ryy	.	4eyy]yy 4B-yy/]yy	.	(yy8.ggyy/L	2rcyy	.	(8.gg\L	.	2ryy	.
8ryy	.	8ryy	.	8cyy 8Ayy/	.	8eyy 8B-yy/	.	.	.	.	.	.	.	.	.	.	.	.	.	.	.	.	.	.	.	.	.	.	.	.	.	.	.	.	.
.	.	.	.	.	.	.	.	32a/LL	.	.	.	.	.	.	.	.	.	.	.	.	.	.	.	.	.	.	.	.	32aayy/LL	.	.	32aa\LL	.	.	.
.	.	.	.	.	.	.	.	32g/JJJ	.	.	.	.	.	.	.	.	.	.	.	.	.	.	.	.	.	.	.	.	32ggyy/JJJ	.	.	32gg\JJJ	.	.	.
8Fyy\	.	8F\yy	.	8ryy	.	8ryy	.	4f/)	.	4Reeyy/	.	.	.	.	.	.	.	.	.	.	4Fyy\)yy	.	.	.	.	.	4fyy 4Ayy/	.	4ffyy/)	.	.	4ff\)	.	.	.
8ryy	.	8ryy	.	8cyy 8Gyy/	.	8fyy 8Ayy/	.	.	.	.	.	.	.	.	.	.	.	.	.	.	.	.	.	.	.	.	.	.	.	.	.	.	.	.	.
!!LO:PB:g=original
=43	=43	=43	=43	=43	=43	=43	=43	=43	=43	=43	=43	=43	=43	=43	=43	=43	=43	=43	=43	=43	=43	=43	=43	=43	=43	=43	=43	=43	=43	=43	=43	=43	=43	=43	=43
*	*	*	*	*	*	*	*	*	*	*	*	*	*	*	*	*	*	*	*	*	*	*	*^	*	*	*	*^	*	*	*	*	*	*	*	*
8Cyy/	.	8C/yy	.	8ryy	.	8ryy	.	8e'/LL	.	2ryy	2ryy	.	2ryy	.	2ryy	.	2ryy	.	2ryy	.	2ryy	.	2eeyy/	2ccyy\	.	2gyy 2cyy/	.	8eyy/L	2rcyy	.	2ryy	2ryy	.	2ryy	.	8ee'yy\L	.
8ryy	.	8ryy	.	8cyy 8Gyy/	.	8eyy 8B-yy/	.	8g'/	.	.	.	.	.	.	.	.	.	.	.	.	.	.	.	.	.	.	.	8gyy/	.	.	.	.	.	.	.	8gg'yy\	.
8Cyy/	.	8C/yy	.	8ryy	.	8ryy	.	(8dd\	.	.	.	.	.	.	.	.	.	.	.	.	.	.	.	.	.	.	.	8ddyy/	.	.	.	.	.	.	.	(yy8dddyy\	.
8ryy	.	8ryy	.	8cyy 8Gyy/	.	8eyy 8B-yy/	.	8cc\JJ)	.	.	.	.	.	.	.	.	.	.	.	.	.	.	.	.	.	.	.	8ccyy/J	.	.	.	.	.	.	.	8cccyy\J)	.
=44	=44	=44	=44	=44	=44	=44	=44	=44	=44	=44	=44	=44	=44	=44	=44	=44	=44	=44	=44	=44	=44	=44	=44	=44	=44	=44	=44	=44	=44	=44	=44	=44	=44	=44	=44	=44	=44
8Fyy\	.	8F\yy	.	8ryy	.	8ryy	.	(16a/LL	.	2ryy	2ryy	.	2ryy	.	2ryy	.	2ryy	.	2ryy	.	2ryy	.	2ffyy/	2ccyy\	.	2fyy 2Ayy/	.	16ayy/LL	2rcyy	.	2ryy	2ryy	.	2ryy	.	16aayy\LL	.
.	.	.	.	.	.	.	.	16f/	.	.	.	.	.	.	.	.	.	.	.	.	.	.	.	.	.	.	.	16fyy/	.	.	.	.	.	.	.	(yy16ffyy\	.
8ryy	.	8ryy	.	8cyy 8Fyy/	.	8fyy 8Ayy/	.	16a/	.	.	.	.	.	.	.	.	.	.	.	.	.	.	.	.	.	.	.	16ayy/	.	.	.	.	.	.	.	16aayy\	.
.	.	.	.	.	.	.	.	16cc/JJ)	.	.	.	.	.	.	.	.	.	.	.	.	.	.	.	.	.	.	.	16ccyy/JJ	.	.	.	.	.	.	.	16cccyy\JJ	.
4FFyy/	.	4FF/yy	.	4cyy 4Fyy/	.	4fyy 4Ayy/	.	4ff\	.	.	.	.	.	.	.	.	.	.	.	.	.	.	.	.	.	.	.	4ffyy/	.	.	.	.	.	.	.	4fffyy\)	.
*	*	*	*	*	*	*	*	*	*	*	*	*	*	*	*	*	*	*	*	*	*	*	*v	*v	*	*	*	*	*	*	*v	*v	*	*	*	*	*
!!LO:TX:t=[segno]
*>E	*>E	*>E	*>E	*>E	*>E	*>E	*>E	*>E	*>E	*>E	*>E	*>E	*>E	*>E	*>E	*>E	*>E	*>E	*>E	*>E	*>E	*>E	*>E	*>E	*>E	*>E	*>E	*>E	*>E	*>E	*>E	*>E	*>E	*>E	*>E
=45!|:	=45!|:	=45!|:	=45!|:	=45!|:	=45!|:	=45!|:	=45!|:	=45!|:	=45!|:	=45!|:	=45!|:	=45!|:	=45!|:	=45!|:	=45!|:	=45!|:	=45!|:	=45!|:	=45!|:	=45!|:	=45!|:	=45!|:	=45!|:	=45!|:	=45!|:	=45!|:	=45!|:	=45!|:	=45!|:	=45!|:	=45!|:	=45!|:	=45!|:	=45!|:	=45!|:
*	*	*	*	*	*	*	*	*	*	*	*	*	*	*	*	*	*	*	*	*	*	*	*	*	*	*	*	*	*	*	*	*	*	*	*
8F#X\L	f	(16F#X\LL	.	8dL 8A\	.	8ddL 8f/	.	8dddL 8dd 8d\	f	8Ree/L	4Ra\	.	2r	.	8F#X\L	.	8dL 8A\	f	8dd\L	.	8AL 8F#X\	f	8dd\L	.	8aL 8f#X\	f	8dd/L	8a\L	.	8aaL 8dd\	.	8ddd\L	f	2r	.
.	.	16A\)	.	.	.	.	.	.	.	.	.	.	.	.	.	.	.	.	.	.	.	.	.	.	.	.	.	.	.	.	.	.	.	.	.
8F#\J	.	16c'\	.	8dJ 8A\	.	8ddJ 8f/	.	8ddd\J	.	8Ree/J	.	.	.	.	8F#\J	.	8dJ 8A\	.	8dd\J	.	8AJ 8F#\	.	8dd\J	.	8aJ 8f#\	.	8dd/J	8a\J	.	8aaJ 8dd\	.	8ddd\J	.	.	.
.	.	16d'\JJ	.	.	.	.	.	.	.	.	.	.	.	.	.	.	.	.	.	.	.	.	.	.	.	.	.	.	.	.	.	.	.	.	.
4F#\	.	(16a\LL	.	4d 4At\	.	8.a/L	.	8.aat\L	.	4Reet/	4Ra\	.	.	.	4F#\	.	4d 4A\	.	4a/	.	4A 4F#\	.	4dd\	.	4a 4f#\	.	8.a/L	[4a\	.	4aa 4dd\	.	(8.aat\L	.	.	.
.	.	16d\)	.	.	.	.	.	.	.	.	.	.	.	.	.	.	.	.	.	.	.	.	.	.	.	.	.	.	.	.	.	.	.	.	.
.	.	16c'\	.	.	.	.	.	.	.	.	.	.	.	.	.	.	.	.	.	.	.	.	.	.	.	.	.	.	.	.	.	.	.	.	.
.	.	16A'\JJ	.	.	.	(32g#X/LL	.	(32gg#X\LL	.	.	.	.	.	.	.	.	.	.	.	.	.	.	.	.	.	.	32g#X/LL	.	.	.	.	32gg#X\LL	.	.	.
.	.	.	.	.	.	32a/JJJ)	.	32aa\JJJ)	.	.	.	.	.	.	.	.	.	.	.	.	.	.	.	.	.	.	32a/JJJ	.	.	.	.	32aa\JJJ)	.	.	.
=46	=46	=46	=46	=46	=46	=46	=46	=46	=46	=46	=46	=46	=46	=46	=46	=46	=46	=46	=46	=46	=46	=46	=46	=46	=46	=46	=46	=46	=46	=46	=46	=46	=46	=46	=46
*	*	*	*	*	*	*	*	*	*	*rep	*	*	*	*	*	*	*	*	*	*	*	*	*	*	*	*	*	*	*	*	*	*	*	*	*
8G\L	.	(16G\LL	.	8dL 8B-\	.	8b-L 8d/	.	8bb-L 8b- 8d\	.	8Ree/L	4Ra\	.	2r	.	8G\L	.	8dL 8B-\	.	8b-/L	.	8B-L 8G\	.	8ddL 8g/	.	8g\L	.	8b-L 8g/	4ryy	.	8ggL 8dd\	.	8bb-\L	.	2r	.
.	.	16B-\)	.	.	.	.	.	.	.	.	.	.	.	.	.	.	.	.	.	.	.	.	.	.	.	.	.	.	.	.	.	.	.	.	.
8G\J	.	16d'\	.	8dJ 8B-\	.	8b-J 8d/	.	8bb-\J	.	8Ree/J	.	.	.	.	8G\J	.	8dJ 8B-\	.	8b-/J	.	8B-J 8G\	.	8ddJ 8g/	.	8g\J	.	8b-J 8g/	.	.	8ggJ 8dd\	.	8bb-\J	.	.	.
.	.	16g'\JJ	.	.	.	.	.	.	.	.	.	.	.	.	.	.	.	.	.	.	.	.	.	.	.	.	.	.	.	.	.	.	.	.	.
4G\	.	(16b-\LL	.	4d 4B-T\	.	8.g/L	.	8.ggT\L	.	4Reet/	4Ra\	.	.	.	4G\	.	4d 4B-\	.	4g/	.	4B- 4G\	.	4dd 4g/	.	4g\	.	8.gT/L	4g\	.	4gg 4dd\	.	(8.ggT\L	.	.	.
.	.	16g\)	.	.	.	.	.	.	.	.	.	.	.	.	.	.	.	.	.	.	.	.	.	.	.	.	.	.	.	.	.	.	.	.	.
.	.	16d'\	.	.	.	.	.	.	.	.	.	.	.	.	.	.	.	.	.	.	.	.	.	.	.	.	.	.	.	.	.	.	.	.	.
.	.	16B-'\JJ	.	.	.	(32f#X/LL	.	(32ff#X\LL	.	.	.	.	.	.	.	.	.	.	.	.	.	.	.	.	.	.	32f#X/LL	.	.	.	.	32ff#X\LL	.	.	.
.	.	.	.	.	.	32g/JJJ)	.	32gg\JJJ)	.	.	.	.	.	.	.	.	.	.	.	.	.	.	.	.	.	.	32g/JJJ	.	.	.	.	32gg\JJJ)	.	.	.
*	*	*	*	*	*	*	*	*	*	*Xrep	*	*	*	*	*	*	*	*	*	*	*	*	*	*	*	*	*	*	*	*	*	*	*	*	*
=47	=47	=47	=47	=47	=47	=47	=47	=47	=47	=47	=47	=47	=47	=47	=47	=47	=47	=47	=47	=47	=47	=47	=47	=47	=47	=47	=47	=47	=47	=47	=47	=47	=47	=47	=47
*	*	*	*	*	*	*	*	*	*	*rep	*	*	*	*	*	*	*	*	*	*	*	*	*	*	*	*	*	*	*	*	*	*	*	*	*
8E\L	.	(16E\LL	.	8cL 8G/	.	8ccL 8e/	.	8ccc\L	.	8Ree/L	4Ra\	.	8C/L	.	8E\L	.	8cL 8G/	.	8cc\L	.	8GL 8E\	.	8ccL 8e/	.	8gL 8c/	.	8ccL 8g/	4ryy	.	8ggL 8cc\	.	8ccc\L	.	2r	.
.	.	16G\)	.	.	.	.	.	.	.	.	.	.	.	.	.	.	.	.	.	.	.	.	.	.	.	.	.	.	.	.	.	.	.	.	.
8E\J	.	16B-'\	.	8cJ 8G/	.	8ccJ 8e/	.	8ccc\J	.	8Ree/J	.	.	8C/J	.	8E\J	.	8cJ 8G/	.	8cc\J	.	8GJ 8E\	.	8ccJ 8e/	.	8gJ 8c/	.	8ccJ 8g/	.	.	8ggJ 8cc\	.	8ccc\J	.	.	.
.	.	16c'\JJ	.	.	.	.	.	.	.	.	.	.	.	.	.	.	.	.	.	.	.	.	.	.	.	.	.	.	.	.	.	.	.	.	.
4E\	.	(16g\LL	.	4c 4GT/	.	(8.g/L	.	(8.ggT\L	.	4Reet/	4Ra\	.	4C/	.	4E\	.	4c 4G/	.	4g/	.	4G 4E\	.	4cc 4e/	.	4g 4c/	.	8.gT/L	4g\	.	4gg 4cc\	.	(8.ggT\L	.	.	.
.	.	16e\)	.	.	.	.	.	.	.	.	.	.	.	.	.	.	.	.	.	.	.	.	.	.	.	.	.	.	.	.	.	.	.	.	.
.	.	16c'\	.	.	.	.	.	.	.	.	.	.	.	.	.	.	.	.	.	.	.	.	.	.	.	.	.	.	.	.	.	.	.	.	.
.	.	16B-'\JJ	.	.	.	32f#X/LL	.	32ff#X\LL	.	.	.	.	.	.	.	.	.	.	.	.	.	.	.	.	.	.	32f#X/LL	.	.	.	.	32ff#X\LL	.	.	.
.	.	.	.	.	.	32g/JJJ)	.	32gg\JJJ)	.	.	.	.	.	.	.	.	.	.	.	.	.	.	.	.	.	.	32g/JJJ	.	.	.	.	32gg\JJJ)	.	.	.
*	*	*	*	*	*	*	*	*	*	*Xrep	*	*	*	*	*	*	*	*	*	*	*	*	*	*	*	*	*	*	*	*	*	*	*	*	*
*	*	*	*	*	*	*	*	*	*	*	*	*	*	*	*	*	*	*	*	*	*	*	*	*	*	*	*v	*v	*	*	*	*	*	*	*
!!LO:PB:g=original
=48	=48	=48	=48	=48	=48	=48	=48	=48	=48	=48	=48	=48	=48	=48	=48	=48	=48	=48	=48	=48	=48	=48	=48	=48	=48	=48	=48	=48	=48	=48	=48	=48	=48	=48
*	*	*	*	*	*	*	*	*	*	*	*	*	*	*	*	*	*	*	*	*	*	*	*	*	*	*	*	*	*^	*	*	*	*	*
8F\L	.	(16F\LL	.	8cL 8F/	.	8a/L	.	8aaL 8cc 8f\	.	8Ree/L	4Ra\	.	8F\L	.	8F\L	.	8cL 8A\	.	8aL 8f/	.	8F\L	.	8ccL 8f/	.	8fL 8A/	.	8aL 8f/	.	8aaL 8cc\	4rcyy	.	8aa'\L	.	2r	.
.	.	16c\)	.	.	.	.	.	.	.	.	.	.	.	.	.	.	.	.	.	.	.	.	.	.	.	.	.	.	.	.	.	.	.	.	.
8F\J	.	16f'\	.	8cJ 8F/	.	8a/J	.	8aaJ 8cc\	.	8Ree/J	.	.	8F\J	.	8F\J	.	8cJ 8A\	.	8aJ 8f/	.	8F\J	.	8ccJ 8f/	.	8fJ 8A/	.	8aJ 8f/	.	8aaJ 8cc\	.	.	8aa'\J	.	.	.
.	.	16a'\JJ	.	.	.	.	.	.	.	.	.	.	.	.	.	.	.	.	.	.	.	.	.	.	.	.	.	.	.	.	.	.	.	.	.
4F\	.	(16f\LL	.	4c 4F/	.	(8.fT/L	.	(8.ffT\L	.	4Reet/	4Ra\	.	4F\	.	4F\	.	4c 4A\	.	4f 4c/	.	4F\	.	4cc 4f/	.	4f 4A/	.	8.fT/L	.	8.ffT/L	4a\	.	(8.ffT\L	.	.	.
.	.	16c\)	.	.	.	.	.	.	.	.	.	.	.	.	.	.	.	.	.	.	.	.	.	.	.	.	.	.	.	.	.	.	.	.	.
.	.	16A'\	.	.	.	.	.	.	.	.	.	.	.	.	.	.	.	.	.	.	.	.	.	.	.	.	.	.	.	.	.	.	.	.	.
.	.	16F'\JJ	.	.	.	32e/LL	.	32ee\LL	.	.	.	.	.	.	.	.	.	.	.	.	.	.	.	.	.	.	32e/LL	.	32ee/LL	.	.	32ee\LL	.	.	.
.	.	.	.	.	.	32f/JJJ)	.	32ff\JJJ)	.	.	.	.	.	.	.	.	.	.	.	.	.	.	.	.	.	.	32f/JJJ	.	32ff/JJJ	.	.	32ff\JJJ)	.	.	.
*	*	*	*	*	*	*	*	*	*	*v	*v	*	*	*	*	*	*	*	*	*	*	*	*	*	*	*	*	*	*	*	*	*	*	*	*
=49	=49	=49	=49	=49	=49	=49	=49	=49	=49	=49	=49	=49	=49	=49	=49	=49	=49	=49	=49	=49	=49	=49	=49	=49	=49	=49	=49	=49	=49	=49	=49	=49	=49	=49
*	*	*	*	*	*	*	*	*	*	*	*	*	*	*	*	*	*	*	*	*	*	*	*	*^	*	*^	*	*	*	*	*	*	*	*
8D/	.	8Dyy/	.	8r	.	8r	.	8bn'\L	.	2r	.	2r	.	2r	.	2r	.	2r	.	(2D\	.	(>2dd [2g/	.	[2g/	(2f\	.	(2bn/	(<2f\	.	8bn/L	[>2g\	.	2r	.	8bbn'\L	.
8r	.	8ryy	.	8d 8Bn\	.	8f 8G/	.	8b'\J	.	.	.	.	.	.	.	.	.	.	.	.	.	.	.	.	.	.	.	.	.	8b/J	.	.	.	.	8bb'\J	.
8D/	.	8Dyy/	.	8r	.	8r	.	(8.ffT\L	.	.	.	.	.	.	.	.	.	.	.	.	.	.	.	.	.	.	.	.	.	(8.ffT/L	.	.	.	.	8.fffT\L	.
8r	.	8ryy	.	8d 8B\	.	8f 8G/	.	.	.	.	.	.	.	.	.	.	.	.	.	.	.	.	.	.	.	.	.	.	.	.	.	.	.	.	.	.
.	.	.	.	.	.	.	.	32ee\LL	.	.	.	.	.	.	.	.	.	.	.	.	.	.	.	.	.	.	.	.	.	32ee/LL	.	.	.	.	(32eee\LL	.
.	.	.	.	.	.	.	.	32ff\JJJ)	.	.	.	.	.	.	.	.	.	.	.	.	.	.	.	.	.	.	.	.	.	32ff/JJJ	.	.	.	.	32fff\JJJ	.
*	*	*	*	*	*	*	*	*	*	*	*	*	*	*	*	*	*	*	*	*	*	*	*	*v	*v	*	*	*	*	*	*	*	*	*	*	*
*	*	*	*	*	*	*	*	*	*	*	*	*	*	*	*	*	*	*	*	*	*	*	*	*	*	*v	*v	*	*	*	*	*	*	*	*
=50	=50	=50	=50	=50	=50	=50	=50	=50	=50	=50	=50	=50	=50	=50	=50	=50	=50	=50	=50	=50	=50	=50	=50	=50	=50	=50	=50	=50	=50	=50	=50	=50	=50	=50
8C/	.	8Cyy/	.	8r	.	8r	.	8ee\L	.	2r	.	2r	.	2r	.	2r	.	2r	.	8C/)	.	8ee 8g/])	.	8g] 8c)/	.	8cc) 8e/)<	.	8ee/L)	8g\]	.	2r	.	8eee'\L)	.
8r	.	8ryy	.	8c\	.	8e 8G/	.	8ee\J	.	.	.	.	.	.	.	.	.	.	.	8r	.	8r	.	8r	.	8r	.	8ee/J	8rg	.	.	.	8eee'\J	.
8C/	.	8Cyy/	.	8r	.	8r	.	(8.ccT\L	.	.	.	.	.	.	.	.	.	.	.	8C/	.	8ee 8g/	.	8g 8c/	.	8cc 8e/	.	8.ccT/L	8g\	.	.	.	8.cccT\L	.
8r	.	8ryy	.	8c\	.	8e 8G/	.	.	.	.	.	.	.	.	.	.	.	.	.	8r	.	8r	.	8r	.	8r	.	.	8rg	.	.	.	.	.
.	.	.	.	.	.	.	.	32bn\LL	.	.	.	.	.	.	.	.	.	.	.	.	.	.	.	.	.	.	.	32bn/LL	.	.	.	.	(32bbn\LL	.
.	.	.	.	.	.	.	.	32cc\JJJ)	.	.	.	.	.	.	.	.	.	.	.	.	.	.	.	.	.	.	.	32cc/JJJ	.	.	.	.	32ccc\JJJ)	.
=51	=51	=51	=51	=51	=51	=51	=51	=51	=51	=51	=51	=51	=51	=51	=51	=51	=51	=51	=51	=51	=51	=51	=51	=51	=51	=51	=51	=51	=51	=51	=51	=51	=51	=51
*	*	*	*	*	*	*	*	*	*	*	*	*	*	*	*	*	*	*	*	*	*	*	*	*^	*	*^	*	*	*	*	*	*	*	*
8GG/	.	8GGyy/	.	8r	.	8r	.	8bn'\L	.	2r	.	2r	.	2r	.	2r	.	2r	.	(2GG/	.	(>2dd [2g/	.	[2g/	(2f\	.	(2bn/	(2f\	.	8bn/L	2g\	.	8bn'\L	.	2r	.
8r	.	8ryy	.	8d 8Bn\	.	8f 8G/	.	8dd'\	.	.	.	.	.	.	.	.	.	.	.	.	.	.	.	.	.	.	.	.	.	8dd/	.	.	8dd'\	.	.	.
8G\	.	8Gyy\	.	8r	.	8r	.	(8aa\	.	.	.	.	.	.	.	.	.	.	.	.	.	.	.	.	.	.	.	.	.	8aa/	.	.	(8aa\	.	.	.
8r	.	8ryy	.	8d 8B\	.	8f 8G/	.	8gg\J)	.	.	.	.	.	.	.	.	.	.	.	.	.	.	.	.	.	.	.	.	.	8gg/J	.	.	8gg\J)	.	.	.
*	*	*	*	*	*	*	*	*	*	*	*	*	*	*	*	*	*	*	*	*	*	*	*	*v	*v	*	*	*	*	*	*	*	*	*	*	*
*	*	*	*	*	*	*	*	*	*	*	*	*	*	*	*	*	*	*	*	*	*	*	*	*	*	*v	*v	*	*	*	*	*	*	*	*
=52	=52	=52	=52	=52	=52	=52	=52	=52	=52	=52	=52	=52	=52	=52	=52	=52	=52	=52	=52	=52	=52	=52	=52	=52	=52	=52	=52	=52	=52	=52	=52	=52	=52	=52
*	*	*	*	*	*	*	*	*	*	*^	*	*	*	*	*	*	*	*	*	*	*	*	*	*	*	*	*	*	*	*	*	*	*	*
8C/	.	8Cyy/	.	8r	.	8r	.	(16ee\LL	.	4r	4r	.	4r	.	4r	.	4r	.	4r	.	8C/)	.	8ee 8g/])	.	8g] 8c)/	.	8cc) 8e/)	.	(<16ee/LL	8g\	.	(16ee\LL	.	4r	.
.	.	.	.	.	.	.	.	16cc\	.	.	.	.	.	.	.	.	.	.	.	.	.	.	.	.	.	.	.	.	16cc/	.	.	16cc\	.	.	.
8r	.	8ryy	.	8c\L	.	8eL 8G/	.	16ee\	.	.	.	.	.	.	.	.	.	.	.	.	8r	.	8r	.	8r	.	8r	.	16ee/	8rg	.	16ee\	.	.	.
.	.	.	.	.	.	.	.	16gg\JJ	.	.	.	.	.	.	.	.	.	.	.	.	.	.	.	.	.	.	.	.	16gg/JJ)	.	.	16gg\JJ)	.	.	.
8C/	.	8Cyy/	.	8gJ 8c\	.	8ccJ 8e/	.	8ccc\)	.	8Ree/	8Ra\	.	8C/	.	8C/	.	8e 8G\	.	8cc 8e/	f	8C/	.	8ee 8g/	.	8g 8c/	.	(16cc/LL	.	(16ccc\LL	8g\	.	(16ccc\LL	.	(16ccc\LL	.
.	.	.	.	.	.	.	.	.	.	.	.	.	.	.	.	.	.	.	.	.	.	.	.	.	.	.	16b-/	.	16bb-\	.	.	16bb-\	.	16bb-\	.
8r	.	8ryy	.	8r	.	8r	.	8r	.	8r	8r	.	8r	.	8r	.	8r	.	8r	.	8r	.	8r	.	8r	.	16g/	.	16gg\	8rc	.	16gg\	.	16gg\	.
.	.	.	.	.	.	.	.	.	.	.	.	.	.	.	.	.	.	.	.	.	.	.	.	.	.	.	16e/JJ)	.	16ee\JJ)	.	.	16ee\JJ)	.	16ee\JJ)	.
*	*	*	*	*	*	*	*	*	*	*	*	*	*	*	*	*	*	*	*	*	*	*	*	*	*	*	*	*	*v	*v	*	*	*	*	*
!!LO:PB:g=original
=53	=53	=53	=53	=53	=53	=53	=53	=53	=53	=53	=53	=53	=53	=53	=53	=53	=53	=53	=53	=53	=53	=53	=53	=53	=53	=53	=53	=53	=53	=53	=53	=53	=53	=53
!	!	!	!	!	!	!	!	!	!	!	!	!	!	!	!	!	!	!	!LO:TX:a:i:t=1o.	!	!	!	!	!	!	!	!LO:TX:a:i:t=1o.	!	!	!	!	!	!	!
.	.	.	.	.	.	.	.	.	.	.	.	.	.	.	.	.	.	.	(8qd/	.	.	.	.	.	.	.	.	.	.	.	(yy8qddyy/	.	(8qdd/	.
!	!	!	!	!	!	!	!	!	!	!	!	!	!	!	!	!	!	!	!	!	!	!	!	!	!	!	!	!	!	!	!LO:TX:t=col Flauto Uniſ	!	!	!
*	*	*	*	*	*	*	*	*	*	*	*	*	*	*	*	*	*	*	*^	*	*	*	*	*	*	*	*^	*	*	*	*	*	*	*
8C/	p	2cTT\	p	8r	.	8r	.	2r	.	4Ree/	2rg	p	2r	.	2r	.	2r	.	8c/L)	2rc	.	[2C/	.	[2ee [2cc\	.	[2g [2B-/	p	(<16c/LL	2rc	p	2r	.	8ccyy\L)	.	8cc\L)	.
.	.	.	.	.	.	.	.	.	.	.	.	.	.	.	.	.	.	.	.	.	.	.	.	.	.	.	.	16e/	.	.	.	.	.	.	.	.
8r	.	.	.	8c 8G/	.	8e 8B-/	p	.	.	.	.	.	.	.	.	.	.	.	8c'/J	.	.	.	.	.	.	.	.	16b-/	.	.	.	.	8ccyy\J	.	8cc\J	.
.	.	.	.	.	.	.	.	.	.	.	.	.	.	.	.	.	.	.	.	.	.	.	.	.	.	.	.	16e/JJ)	.	.	.	.	.	.	.	.
.	.	.	.	.	.	.	.	.	.	.	.	.	.	.	.	.	.	.	8qa/	.	.	.	.	.	.	.	.	.	.	.	.	.	8qaayy/	.	8qaa/	.
*	*	*	*	*	*	*	*	*	*	*	*	*	*	*	*	*	*	*	*	*	*	*	*	*	*	*	*	*rep	*	*	*	*	*	*	*	*
8C/	.	.	.	8r	.	8r	.	.	.	4Ree/	.	.	.	.	.	.	.	.	4b-/	.	.	.	.	.	.	.	.	(<16c/LL	.	.	.	.	4bb-yy\	.	4bb-\	.
.	.	.	.	.	.	.	.	.	.	.	.	.	.	.	.	.	.	.	.	.	.	.	.	.	.	.	.	16e/	.	.	.	.	.	.	.	.
8r	.	.	.	8c 8G/	.	8e 8B-/	.	.	.	.	.	.	.	.	.	.	.	.	.	.	.	.	.	.	.	.	.	16b-/	.	.	.	.	.	.	.	.
.	.	.	.	.	.	.	.	.	.	.	.	.	.	.	.	.	.	.	.	.	.	.	.	.	.	.	.	16e/JJ)	.	.	.	.	.	.	.	.
*	*	*	*	*	*	*	*	*	*	*	*	*	*	*	*	*	*	*	*	*	*	*	*	*	*	*	*	*Xrep	*	*	*	*	*	*	*	*
*	*	*	*	*	*	*	*	*	*	*	*	*	*	*	*	*	*	*	*	*	*	*	*	*	*	*	*	*v	*v	*	*	*	*	*	*	*
=54	=54	=54	=54	=54	=54	=54	=54	=54	=54	=54	=54	=54	=54	=54	=54	=54	=54	=54	=54	=54	=54	=54	=54	=54	=54	=54	=54	=54	=54	=54	=54	=54	=54	=54	=54
8C/	.	2cTTT\	.	8r	.	8r	.	2r	.	4Ree/	2rg	.	2r	.	2r	.	2r	.	(<8.g/L	2rc	.	4C/]	.	4ee] 4cc\]	.	4g] 4B-/]	.	(16c/LL	.	2r	.	(yy8.ggyy\L	.	(8.gg\L	.
.	.	.	.	.	.	.	.	.	.	.	.	.	.	.	.	.	.	.	.	.	.	.	.	.	.	.	.	16e/	.	.	.	.	.	.	.
8r	.	.	.	8c 8F/	.	8e 8B-/	.	.	.	.	.	.	.	.	.	.	.	.	.	.	.	.	.	.	.	.	.	16b-/	.	.	.	.	.	.	.
.	.	.	.	.	.	.	.	.	.	.	.	.	.	.	.	.	.	.	32a/LL	.	.	.	.	.	.	.	.	16e/JJ)	.	.	.	32aayy\LL	.	32aa\LL	.
.	.	.	.	.	.	.	.	.	.	.	.	.	.	.	.	.	.	.	32g/JJJ	.	.	.	.	.	.	.	.	.	.	.	.	32ggyy\JJJ	.	32gg\JJJ	.
8F\	.	.	.	8r	.	8r	.	.	.	4Ree/	.	.	.	.	.	.	.	.	4f/)	.	.	4F\	.	4ff 4cc\	.	4f 4A/	.	(16c/LL	.	.	.	4ffyy\)	.	4ff\)	.
.	.	.	.	.	.	.	.	.	.	.	.	.	.	.	.	.	.	.	.	.	.	.	.	.	.	.	.	16f/	.	.	.	.	.	.	.
8r	.	.	.	8c 8F/	.	8f 8A/	.	.	.	.	.	.	.	.	.	.	.	.	.	.	.	.	.	.	.	.	.	16a/	.	.	.	.	.	.	.
.	.	.	.	.	.	.	.	.	.	.	.	.	.	.	.	.	.	.	.	.	.	.	.	.	.	.	.	16f/JJ)	.	.	.	.	.	.	.
*	*	*	*	*	*	*	*	*	*	*	*	*	*	*	*	*	*	*	*v	*v	*	*	*	*	*	*	*	*	*	*	*	*	*	*	*
=55	=55	=55	=55	=55	=55	=55	=55	=55	=55	=55	=55	=55	=55	=55	=55	=55	=55	=55	=55	=55	=55	=55	=55	=55	=55	=55	=55	=55	=55	=55	=55	=55	=55	=55
*	*	*	*	*	*	*	*	*	*	*	*	*	*	*	*	*	*	*	*	*	*	*	*	*	*	*	*	*	*^	*	*	*	*	*
*	*	*	*	*	*	*	*	*	*	*rep	*	*	*	*	*	*	*	*	*	*	*	*	*	*	*	*	*	*	*	*	*	*	*	*	*
8C/	.	2cTTT\	.	8r	.	8r	.	8e'/L	p	4Ree/	2rg	.	2r	.	2r	.	2r	.	2r	.	8C/	.	8r	.	8r	.	(16c/LL	.	8e'/L	2rc	.	8ee'yy\L	.	8ee'\L	.
.	.	.	.	.	.	.	.	.	.	.	.	.	.	.	.	.	.	.	.	.	.	.	.	.	.	.	16e/	.	.	.	.	.	.	.	.
8r	.	.	.	8c 8G/	.	8e 8B-/	.	8g'/	.	.	.	.	.	.	.	.	.	.	.	.	8r	.	8ee 8cc\	.	8g 8B-/	.	16b-/	.	8g'/	.	.	8gg'yy\	.	8gg'\	.
.	.	.	.	.	.	.	.	.	.	.	.	.	.	.	.	.	.	.	.	.	.	.	.	.	.	.	16e/JJ)	.	.	.	.	.	.	.	.
*	*	*	*	*	*	*	*	*	*	*	*	*	*	*	*	*	*	*	*	*	*	*	*	*	*	*	*rep	*	*	*	*	*	*	*	*
8C/	.	.	.	8r	.	8r	.	(8dd/	.	4Ree/	.	.	.	.	.	.	.	.	.	.	8C/	.	8r	.	8r	.	(16c/LL	.	(8dd/	.	.	(yy8dddyy\	.	(8ddd\	.
.	.	.	.	.	.	.	.	.	.	.	.	.	.	.	.	.	.	.	.	.	.	.	.	.	.	.	16e/	.	.	.	.	.	.	.	.
8r	.	.	.	8c 8G/	.	8e 8B-/	.	8cc/J)	.	.	.	.	.	.	.	.	.	.	.	.	8r	.	8ee 8cc\	.	8g 8B-/	.	16b-/	.	8cc/J)	.	.	8cccyy\J)	.	8ccc\J)	.
.	.	.	.	.	.	.	.	.	.	.	.	.	.	.	.	.	.	.	.	.	.	.	.	.	.	.	16e/JJ)	.	.	.	.	.	.	.	.
*	*	*	*	*	*	*	*	*	*	*Xrep	*	*	*	*	*	*	*	*	*	*	*	*	*	*	*	*	*Xrep	*	*	*	*	*	*	*	*
=56	=56	=56	=56	=56	=56	=56	=56	=56	=56	=56	=56	=56	=56	=56	=56	=56	=56	=56	=56	=56	=56	=56	=56	=56	=56	=56	=56	=56	=56	=56	=56	=56	=56	=56	=56
*	*	*	*	*	*	*	*	*	*	*rep	*	*	*	*	*	*	*	*	*	*	*	*	*	*	*	*	*	*	*	*	*	*	*	*	*
8C/	.	2cTTT\	.	8r	.	8r	.	8a'\L	.	4Ree/	2rg	.	2r	.	2r	.	2r	.	2r	.	8C/	.	8r	.	8r	.	(16c/LL	.	8a'/L	2rc	.	8aa'yy\L	.	8aa'\L	.
.	.	.	.	.	.	.	.	.	.	.	.	.	.	.	.	.	.	.	.	.	.	.	.	.	.	.	16f/	.	.	.	.	.	.	.	.
8r	.	.	.	8c 8F/	.	8f 8A/	.	8cc'\	.	.	.	.	.	.	.	.	.	.	.	.	8r	.	8ff 8cc\	.	8f 8A/	.	16a/	.	8cc'/	.	.	8ccc'yy\	.	8ccc'\	.
.	.	.	.	.	.	.	.	.	.	.	.	.	.	.	.	.	.	.	.	.	.	.	.	.	.	.	16f/JJ)	.	.	.	.	.	.	.	.
*	*	*	*	*	*	*	*	*	*	*	*	*	*	*	*	*	*	*	*	*	*	*	*	*	*	*	*rep	*	*	*	*	*	*	*	*
8C/	.	.	.	8r	.	8r	.	(8gg\	.	4Ree/	.	.	.	.	.	.	.	.	.	.	8C/	.	8r	.	8r	.	(16c/LL	.	(<8gg/	.	.	(yy8gggyy\	.	(8ggg\	.
.	.	.	.	.	.	.	.	.	.	.	.	.	.	.	.	.	.	.	.	.	.	.	.	.	.	.	16f/	.	.	.	.	.	.	.	.
8r	.	.	.	8c 8F/	.	8f 8A/	.	8ff\J)	.	.	.	.	.	.	.	.	.	.	.	.	8r	.	8ff 8cc\	.	8f 8A/	.	16a/	.	8ff/J)	.	.	8fffyy\J)	.	8fff\J)	.
.	.	.	.	.	.	.	.	.	.	.	.	.	.	.	.	.	.	.	.	.	.	.	.	.	.	.	16f/JJ)	.	.	.	.	.	.	.	.
*	*	*	*	*	*	*	*	*	*	*Xrep	*	*	*	*	*	*	*	*	*	*	*	*	*	*	*	*	*Xrep	*	*	*	*	*	*	*	*
*	*	*	*	*	*	*	*	*	*	*	*	*	*	*	*	*	*	*	*	*	*	*	*	*	*	*	*	*	*v	*v	*	*	*	*	*
=57	=57	=57	=57	=57	=57	=57	=57	=57	=57	=57	=57	=57	=57	=57	=57	=57	=57	=57	=57	=57	=57	=57	=57	=57	=57	=57	=57	=57	=57	=57	=57	=57	=57	=57
*	*	*	*	*	*	*	*	*	*	*rep	*	*	*	*	*	*	*	*	*	*	*	*	*	*	*	*	*	*	*	*	*	*	*	*
.	.	.	.	.	.	.	.	.	.	.	.	.	.	.	.	.	.	.	(8qd/	.	.	.	.	.	.	.	.	.	.	.	8qddyy/	.	8qdd/	.
*	*	*	*	*	*	*	*	*	*	*	*	*	*	*	*	*	*	*	*	*	*	*	*^	*	*	*	*	*	*	*	*	*	*	*
8C/	.	2cTTT\	.	8r	.	8r	.	2r	.	4Ree/	2re	.	2r	.	2r	.	2r	.	8c/L)	.	[2C/	.	[2ee/	[2cc\	.	[2g [>2B-/	.	16c/LL	.	2r	.	8ccyy\L	.	8cc\L	.
.	.	.	.	.	.	.	.	.	.	.	.	.	.	.	.	.	.	.	.	.	.	.	.	.	.	.	.	16e/	.	.	.	.	.	.	.
8r	.	.	.	8c 8G/	.	8e 8B-/	.	.	.	.	.	.	.	.	.	.	.	.	8c'/J	.	.	.	.	.	.	.	.	16b-/	.	.	.	8ccyy\J	.	8cc\J	.
.	.	.	.	.	.	.	.	.	.	.	.	.	.	.	.	.	.	.	.	.	.	.	.	.	.	.	.	16e/JJ	.	.	.	.	.	.	.
.	.	.	.	.	.	.	.	.	.	.	.	.	.	.	.	.	.	.	(8qa/	.	.	.	.	.	.	.	.	.	.	.	.	8qaayy/	.	8qaa/	.
*	*	*	*	*	*	*	*	*	*	*	*	*	*	*	*	*	*	*	*	*	*	*	*	*	*	*	*	*rep	*	*	*	*	*	*	*
8C/	.	.	.	8r	.	8r	.	.	.	4Ree/	.	.	.	.	.	.	.	.	4b-/)	.	.	.	.	.	.	.	.	16c/LL	.	.	.	4bb-yy\	.	4bb-\	.
.	.	.	.	.	.	.	.	.	.	.	.	.	.	.	.	.	.	.	.	.	.	.	.	.	.	.	.	16e/	.	.	.	.	.	.	.
8r	.	.	.	8c 8G/	.	8e 8B-/	.	.	.	.	.	.	.	.	.	.	.	.	.	.	.	.	.	.	.	.	.	16b-/	.	.	.	.	.	.	.
.	.	.	.	.	.	.	.	.	.	.	.	.	.	.	.	.	.	.	.	.	.	.	.	.	.	.	.	16e/JJ	.	.	.	.	.	.	.
*	*	*	*	*	*	*	*	*	*	*Xrep	*	*	*	*	*	*	*	*	*	*	*	*	*	*	*	*	*	*Xrep	*	*	*	*	*	*	*
*	*	*	*	*	*	*	*	*	*	*	*	*	*	*	*	*	*	*	*	*	*	*	*v	*v	*	*	*	*	*	*	*	*	*	*	*
!!LO:PB:g=original
=58	=58	=58	=58	=58	=58	=58	=58	=58	=58	=58	=58	=58	=58	=58	=58	=58	=58	=58	=58	=58	=58	=58	=58	=58	=58	=58	=58	=58	=58	=58	=58	=58	=58	=58
*	*	*	*	*	*	*	*	*	*	*	*	*	*	*	*	*	*	*	*^	*	*	*	*	*	*	*	*	*	*	*	*	*	*	*
!	!	!	!	!	!	!	!	!	!	!	!	!	!	!	!	!	!	!	!LO:TX:a:i:t=1o.	!	!	!	!	!	!	!	!	!	!	!	!	!	!	!	!
8C/	.	2cTT\	.	8r	.	8r	.	2r	.	4Ree/	2rc	.	2r	.	2r	.	2r	.	8.g/L	2rc	.	4C/]	.	4ee] [>4cc\	.	4g] 4B-/]	.	(16c/LL	.	2r	.	(yy8.ggyy\L	.	(8.gg\L	.
.	.	.	.	.	.	.	.	.	.	.	.	.	.	.	.	.	.	.	.	.	.	.	.	.	.	.	.	16e/	.	.	.	.	.	.	.
8r	.	.	.	8c 8G/	.	8e 8B-/	.	.	.	.	.	.	.	.	.	.	.	.	.	.	.	.	.	.	.	.	.	16b-/	.	.	.	.	.	.	.
.	.	.	.	.	.	.	.	.	.	.	.	.	.	.	.	.	.	.	32a/LL	.	.	.	.	.	.	.	.	16e/JJ)	.	.	.	32aayy\LL	.	32aa\LL	.
.	.	.	.	.	.	.	.	.	.	.	.	.	.	.	.	.	.	.	32g/JJJ	.	.	.	.	.	.	.	.	.	.	.	.	32ggyy\JJJ	.	32gg\JJJ	.
8F\	.	.	.	8r	.	8r	.	.	.	4Ree/	.	.	.	.	.	.	.	.	4f/	.	.	4F\	.	4ff 4cc\]	.	4f 4A/	.	(16c/LL	.	.	.	4ffyy\)	.	4ff\)	.
.	.	.	.	.	.	.	.	.	.	.	.	.	.	.	.	.	.	.	.	.	.	.	.	.	.	.	.	16f/	.	.	.	.	.	.	.
8r	.	.	.	8c 8F/	.	8f 8A/	.	.	.	.	.	.	.	.	.	.	.	.	.	.	.	.	.	.	.	.	.	16a/	.	.	.	.	.	.	.
.	.	.	.	.	.	.	.	.	.	.	.	.	.	.	.	.	.	.	.	.	.	.	.	.	.	.	.	16f/JJ)	.	.	.	.	.	.	.
*	*	*	*	*	*	*	*	*	*	*	*	*	*	*	*	*	*	*	*v	*v	*	*	*	*	*	*	*	*	*	*	*	*	*	*	*
=59	=59	=59	=59	=59	=59	=59	=59	=59	=59	=59	=59	=59	=59	=59	=59	=59	=59	=59	=59	=59	=59	=59	=59	=59	=59	=59	=59	=59	=59	=59	=59	=59	=59	=59
*	*	*	*	*	*	*	*	*	*	*	*	*	*	*	*	*	*	*	*	*	*	*	*	*	*	*	*	*	*^	*	*	*	*	*
8C/	.	2cTTT\	.	8r	.	8r	.	8e'/L	p	4Ree/	2rc	.	2r	.	2r	.	2r	.	2r	.	8C/	.	8r	.	8r	.	(16c/LL	.	8e'/L	2rc	.	8ee'yy\L	.	8ee'\L	.
.	.	.	.	.	.	.	.	.	.	.	.	.	.	.	.	.	.	.	.	.	.	.	.	.	.	.	16e/	.	.	.	.	.	.	.	.
8r	.	.	.	8c 8G/	.	8e 8B-/	.	8g'/	.	.	.	.	.	.	.	.	.	.	.	.	8r	.	8ee 8cc\	.	8g 8B-/	.	16b-/	.	8g'/	.	.	8gg'yy\	.	8gg'\	.
.	.	.	.	.	.	.	.	.	.	.	.	.	.	.	.	.	.	.	.	.	.	.	.	.	.	.	16e/JJ)	.	.	.	.	.	.	.	.
*	*	*	*	*	*	*	*	*	*	*	*	*	*	*	*	*	*	*	*	*	*	*	*	*	*	*	*rep	*	*	*	*	*	*	*	*
8C/	.	.	.	8r	.	8r	.	(8dd/	.	4Ree/	.	.	.	.	.	.	.	.	.	.	8C/	.	8r	.	8r	.	(16c/LL	.	(8dd/	.	.	(yy8dddyy\	.	(8ddd\	.
.	.	.	.	.	.	.	.	.	.	.	.	.	.	.	.	.	.	.	.	.	.	.	.	.	.	.	16e/	.	.	.	.	.	.	.	.
8r	.	.	.	8c 8G/	.	8e 8B-/	.	8cc/J)	.	.	.	.	.	.	.	.	.	.	.	.	8r	.	8ee 8cc\	.	8g 8B-/	.	16b-/	.	8cc/J)	.	.	8cccyy\J)	.	8ccc\J)	.
.	.	.	.	.	.	.	.	.	.	.	.	.	.	.	.	.	.	.	.	.	.	.	.	.	.	.	16e/JJ)	.	.	.	.	.	.	.	.
*	*	*	*	*	*	*	*	*	*	*	*	*	*	*	*	*	*	*	*	*	*	*	*	*	*	*	*Xrep	*	*	*	*	*	*	*	*
*	*	*	*	*	*	*	*	*	*	*	*	*	*	*	*	*	*	*	*	*	*	*	*	*	*	*	*	*	*v	*v	*	*	*	*	*
*>E1	*>E1	*>E1	*>E1	*>E1	*>E1	*>E1	*>E1	*>E1	*>E1	*>E1	*>E1	*>E1	*>E1	*>E1	*>E1	*>E1	*>E1	*>E1	*>E1	*>E1	*>E1	*>E1	*>E1	*>E1	*>E1	*>E1	*>E1	*>E1	*>E1	*>E1	*>E1	*>E1	*>E1	*>E1
=60	=60	=60	=60	=60	=60	=60	=60	=60	=60	=60	=60	=60	=60	=60	=60	=60	=60	=60	=60	=60	=60	=60	=60	=60	=60	=60	=60	=60	=60	=60	=60	=60	=60	=60
8F\	.	(16a\LL	.	8r	.	8r	.	(16a/LL	.	8Ree/L	2rc	.	2r	.	2r	.	2r	.	2r	.	8F\	.	8r	.	8r	.	(>16a/LL	.	(>16a/LL	.	(yy16aayy\LL	.	(16aa\LL	.
.	.	16f\	.	.	.	.	.	16f/	.	.	.	.	.	.	.	.	.	.	.	.	.	.	.	.	.	.	16f/	.	16f/	.	16ffyy\	.	16ff\	.
!	!	!	!	!	!	!	!	!	!	!	!	!	!	!	!	!	!	!	!	!	!	!	!	!	!	!	!	!	!	!	!	!	!	!
8r	.	16c\	.	8c 8F/	.	8f 8A/	.	16a/	.	8Ree/J	.	.	.	.	.	.	.	.	.	.	8r	.	8ff 8cc\	.	8f 8A/	.	16c/	.	16a/	.	16aayy\	.	16aa\	.
.	.	16A\JJ	.	.	.	.	.	16cc/JJ	.	.	.	.	.	.	.	.	.	.	.	.	.	.	.	.	.	.	16A/JJ)	.	16cc/JJ	.	16cccyy\JJ	.	16ccc\JJ	.
4F\	.	4F\)	.	4c 4F/	.	4f 4A/	.	4ff\)	.	4Ree/	.	.	.	.	.	.	.	.	.	.	4F\	.	4ff 4cc\	.	4f 4A/	.	4F/	.	4ff/)	.	4fffyy\)	.	4fff\)	.
!!LO:TX:t=[segno]
=61:|!	=61:|!	=61:|!	=61:|!	=61:|!	=61:|!	=61:|!	=61:|!	=61:|!	=61:|!	=61:|!	=61:|!	=61:|!	=61:|!	=61:|!	=61:|!	=61:|!	=61:|!	=61:|!	=61:|!	=61:|!	=61:|!	=61:|!	=61:|!	=61:|!	=61:|!	=61:|!	=61:|!	=61:|!	=61:|!	=61:|!	=61:|!	=61:|!	=61:|!	=61:|!
*>E2	*>E2	*>E2	*>E2	*>E2	*>E2	*>E2	*>E2	*>E2	*>E2	*>E2	*>E2	*>E2	*>E2	*>E2	*>E2	*>E2	*>E2	*>E2	*>E2	*>E2	*>E2	*>E2	*>E2	*>E2	*>E2	*>E2	*>E2	*>E2	*>E2	*>E2	*>E2	*>E2	*>E2	*>E2
*	*	*	*	*	*	*	*	*	*	*	*	*	*	*	*	*	*	*	*	*	*	*	*	*	*	*	*	*	*^	*	*	*	*	*
!	!	!	!	!	!	!	!	!LO:TX:i:t=Coda	!	!	!	!	!	!	!	!	!	!	!	!	!	!	!	!	!	!	!	!	!	!	!	!	!	!LO:TX:a:i:t=Coda	!
8F\	f	8F\	f	8r	.	8r	.	(<16a/LL	f	8Ree/	8Ra\	.	8F\	.	8F\	.	8r	.	(16a/LL	.	8F 8FF/	.	8r	.	8r	.	8r	.	8a/	8rc	.	(yy16aayy\LL	fyy	(16aa\LL	f
!	!	!	!	!	!	!	!	!	!	!	!	!	!	!	!	!	!	!	!	!	!	!	!	!	!	!	!	!	!	!	!	!	!	!	!
.	.	.	.	.	.	.	.	16f/	.	.	.	.	.	.	.	.	.	.	16f/	.	.	.	.	.	.	.	.	.	.	.	.	16ffyy\	.	16ff\	.
8r	.	8r	.	8c 8F/	.	8f 8A/	.	16a/	.	8r	8rcyy	.	8r	.	8r	.	8f 8A\	.	16a/	.	8r	.	8ff 8cc\	.	8f 8A/	.	8a 8f/	f	8a 8f/	8rc	f	16aayy\	.	16aa\	.
.	.	.	.	.	.	.	.	16cc/JJ	.	.	.	.	.	.	.	.	.	.	16cc/JJ)	.	.	.	.	.	.	.	.	.	.	.	.	16cccyy\JJ	.	16ccc\JJ	.
*	*	*	*	*	*	*	*	*	*	*	*	*	*tremolo	*	*	*	*	*	*	*	*	*	*	*	*	*	*	*	*	*	*	*	*	*	*
4F\	.	4F\	.	4f 4A\	.	4cc 4f/	.	4ff 4a\)	.	4Ree/	4Ra\	.	16FT\LL	.	4F\	.	4f 4A\	.	4f/	.	4F 4FF/	.	4ff 4cc\	.	4f 4A/	.	4ff 4a\	.	4ff 4a/	4rcyy	.	4fffyy\)	.	4fff\)	.
.	.	.	.	.	.	.	.	.	.	.	.	.	16F\	.	.	.	.	.	.	.	.	.	.	.	.	.	.	.	.	.	.	.	.	.	.
.	.	.	.	.	.	.	.	.	.	.	.	.	16F\	.	.	.	.	.	.	.	.	.	.	.	.	.	.	.	.	.	.	.	.	.	.
.	.	.	.	.	.	.	.	.	.	.	.	.	16F\JJ	.	.	.	.	.	.	.	.	.	.	.	.	.	.	.	.	.	.	.	.	.	.
*	*	*	*	*	*	*	*	*	*	*	*	*	*Xtremolo	*	*	*	*	*	*	*	*	*	*	*	*	*	*	*	*	*	*	*	*	*	*
*	*	*	*	*	*	*	*	*	*	*	*	*	*	*	*	*	*	*	*	*	*	*	*	*	*	*	*	*	*v	*v	*	*	*	*	*
=62	=62	=62	=62	=62	=62	=62	=62	=62	=62	=62	=62	=62	=62	=62	=62	=62	=62	=62	=62	=62	=62	=62	=62	=62	=62	=62	=62	=62	=62	=62	=62	=62	=62	=62
*>F	*>F	*>F	*>F	*>F	*>F	*>F	*>F	*>F	*>F	*>F	*>F	*>F	*>F	*>F	*>F	*>F	*>F	*>F	*>F	*>F	*>F	*>F	*>F	*>F	*>F	*>F	*>F	*>F	*>F	*>F	*>F	*>F	*>F	*>F
*	*	*	*	*	*	*	*	*	*	*rep	*	*	*rep	*	*	*	*	*	*	*	*	*	*	*	*	*	*	*	*	*	*	*	*	*
8D\	.	8D\	.	8r	.	8r	.	16ff 16a/	.	8Ree/	8Ra\	.	8F\	.	8D\	.	8r	.	16a/LL	.	8D 8DD/	.	8r	.	8r	.	8r	.	8r	.	16fffyy\LL	.	16fff\LL	.
.	.	.	.	.	.	.	.	(16f/LL	.	.	.	.	.	.	.	.	.	.	16f/	.	.	.	.	.	.	.	.	.	.	.	16ffyy\	.	16ff\	.
8r	.	8r	.	8d\	.	8f 8A/	.	16a/	.	8r	8r	.	8r	.	8r	.	8f 8A\	.	16a/	.	8r	.	8ff 8dd\	.	8f 8A/	.	8a 8f/	.	8a 8f/	.	16aayy\	.	16aa\	.
.	.	.	.	.	.	.	.	16dd/JJ	.	.	.	.	.	.	.	.	.	.	16dd/JJ	.	.	.	.	.	.	.	.	.	.	.	16dddyy\JJ	.	16ddd\JJ	.
*	*	*	*	*	*	*	*	*	*	*	*	*	*tremolo	*	*	*	*	*	*	*	*	*	*	*	*	*	*	*	*	*	*	*	*	*
4D\	.	4D\	.	4f 4A/	.	4dd 4f/	.	4ff 4a\)	.	4Ree/	4Ra\	.	16FT\LL	.	4D\	.	4f 4A\	.	4f/	.	4D 4DD/	.	4ff 4dd\	.	4f 4A/	.	4ff 4a\	.	4ff 4a\	.	4ffyyf\	.	4fff\	.
.	.	.	.	.	.	.	.	.	.	.	.	.	16F\	.	.	.	.	.	.	.	.	.	.	.	.	.	.	.	.	.	.	.	.	.
.	.	.	.	.	.	.	.	.	.	.	.	.	16F\	.	.	.	.	.	.	.	.	.	.	.	.	.	.	.	.	.	.	.	.	.
.	.	.	.	.	.	.	.	.	.	.	.	.	16F\JJ	.	.	.	.	.	.	.	.	.	.	.	.	.	.	.	.	.	.	.	.	.
*	*	*	*	*	*	*	*	*	*	*	*	*	*Xtremolo	*	*	*	*	*	*	*	*	*	*	*	*	*	*	*	*	*	*	*	*	*
*	*	*	*	*	*	*	*	*	*	*Xrep	*	*	*Xrep	*	*	*	*	*	*	*	*	*	*	*	*	*	*	*	*	*	*	*	*	*
!!LO:PB:g=original
=63	=63	=63	=63	=63	=63	=63	=63	=63	=63	=63	=63	=63	=63	=63	=63	=63	=63	=63	=63	=63	=63	=63	=63	=63	=63	=63	=63	=63	=63	=63	=63	=63	=63	=63
*	*	*	*	*	*	*	*	*	*	*	*	*	*	*	*	*	*	*	*	*	*	*	*	*	*	*	*^	*	*	*	*	*	*	*
8BB-/	.	8BB-yy/	.	8r	.	8r	.	16dd'\LL	.	8Ree/	8Ra\	.	2r	.	8r	.	8r	.	(>16dd\LL	.	8BB- 8BBB-/	.	8r	.	8r	.	8r	4rcyy	.	8r	.	16dddyy\LL	.	16ddd\LL	.
.	.	.	.	.	.	.	.	(16g\	.	.	.	.	.	.	.	.	.	.	16g\	.	.	.	.	.	.	.	.	.	.	.	.	(yy16ggyy\	.	(16gg\	.
8r	.	8ryy	.	8B-/	.	8b- 8d/	.	16b-\	.	8r	8rg	.	.	.	8BB-/	.	8g 8B-\	.	16b-\	.	8r	.	8gg 8dd\	.	8g 8B-/	.	8b- 8g/	.	.	8b- 8g/	.	16bb-yy\	.	16bb-\	.
.	.	.	.	.	.	.	.	16dd\JJ	.	.	.	.	.	.	.	.	.	.	16dd\JJ	.	.	.	.	.	.	.	.	.	.	.	.	16dddyy\JJ	.	16ddd\JJ	.
*	*	*	*	*	*	*	*	*	*	*tremolo	*	*	*	*	*	*	*	*	*	*	*	*	*	*	*	*	*	*	*	*	*	*	*	*	*
4B-\	.	4B-yy\	.	4g 4B-\	.	4b- 4d/	.	8gg\L)	.	16Ree/LL	4Ra\	.	.	.	4BB-/	.	4g 4B-\	.	4g/)	.	4B- 4BB-\	.	4gg 4dd\	.	4g 4B-/	.	4dd/	4b-\	.	4gg 4b-\	.	8gggyy\L)	.	8ggg\L)	.
.	.	.	.	.	.	.	.	.	.	16Ree/	.	.	.	.	.	.	.	.	.	.	.	.	.	.	.	.	.	.	.	.	.	.	.	.	.
.	.	.	.	.	.	.	.	8dddJ	.	16Ree/	.	.	.	.	.	.	.	.	.	.	.	.	.	.	.	.	.	.	.	.	.	8dddyy\J	.	8ddd\J	.
.	.	.	.	.	.	.	.	.	.	16Ree/JJ	.	.	.	.	.	.	.	.	.	.	.	.	.	.	.	.	.	.	.	.	.	.	.	.	.
*	*	*	*	*	*	*	*	*	*	*Xtremolo	*	*	*	*	*	*	*	*	*	*	*	*	*	*	*	*	*	*	*	*	*	*	*	*	*
*	*	*	*	*	*	*	*	*	*	*	*	*	*	*	*	*	*	*	*	*	*	*	*	*	*	*	*v	*v	*	*	*	*	*	*	*
=64	=64	=64	=64	=64	=64	=64	=64	=64	=64	=64	=64	=64	=64	=64	=64	=64	=64	=64	=64	=64	=64	=64	=64	=64	=64	=64	=64	=64	=64	=64	=64	=64	=64	=64
!	!	!	!	!	!	!	!	!	!	!	!	!	!	!	!	!	!	!	!	!	!	!	!	!	!	!	!LO:TX:b:i:t=due	!	!	!	!	!	!	!
8c\	.	8cyy\	.	8r	.	8r	.	(16ccc\LL	.	8Ree/	8Ra\	.	8r	.	8C/	.	8g 8B-\	.	8b- 8e/	.	8c 8C\	.	8ee 8cc\	.	8g 8B-/	.	(16cc/LL	.	8ee 8b-\	.	(yy16cccyy\LL	.	(16ccc\LL	.
.	.	.	.	.	.	.	.	16bb-\	.	.	.	.	.	.	.	.	.	.	.	.	.	.	.	.	.	.	16b-/	.	.	.	16bb-yy\	.	16bb-\	.
8r	.	8ryy	.	8c\	.	8g 8B-/	.	16aa\	.	8r	8r	.	8C/	.	8r	.	8r	.	8r	.	8r	.	8r	.	8r	.	16a/	.	8r	.	16aayy\	.	16aa\	.
.	.	.	.	.	.	.	.	16gg\JJ	.	.	.	.	.	.	.	.	.	.	.	.	.	.	.	.	.	.	16g/JJ	.	.	.	16ggyy\JJ	.	16gg\JJ	.
8C/	.	8Cyy/	.	8r	.	8r	.	16ff\LL	.	8Ree/	8Ra\	.	8r	.	8C/	.	8g 8B-\	.	8b- 8g/	.	8c 8C\	.	8ee 8cc\	.	8g 8B-/	.	16g/LL	.	8gg 8b-\	.	16ffyy\LL	.	16ff\LL	.
.	.	.	.	.	.	.	.	16ee\	.	.	.	.	.	.	.	.	.	.	.	.	.	.	.	.	.	.	16f/	.	.	.	16eeyy\	.	16ee\	.
8r	.	8ryy	.	8c\	.	8g 8B-/	.	16dd\	.	8r	8r	.	8C/	.	8r	.	8r	.	8r	.	8r	.	8r	.	8r	.	16d/	.	8r	.	16ddyy\	.	16dd\	.
.	.	.	.	.	.	.	.	16ee\JJ)	.	.	.	.	.	.	.	.	.	.	.	.	.	.	.	.	.	.	16e/JJ)	.	.	.	16eeyy\JJ)	.	16ee\JJ)	.
=65	=65	=65	=65	=65	=65	=65	=65	=65	=65	=65	=65	=65	=65	=65	=65	=65	=65	=65	=65	=65	=65	=65	=65	=65	=65	=65	=65	=65	=65	=65	=65	=65	=65	=65
*	*	*	*	*	*	*	*	*	*	*	*	*	*	*	*	*	*	*	*^	*	*	*	*	*	*^	*	*	*	*	*	*	*	*	*
!	!	!	!	!	!	!	!	!LO:TX:t=P:problem=mixed beam	!	!	!	!	!	!	!	!	!	!	!	!	!	!	!	!	!	!	!	!	!	!	!	!	!	!	!	!
8F\	.	8Fyy\	.	8r	.	8r	.	16ff'\LL	.	8Ree/	8Ra\	.	8F\	.	8F\	.	8f 8A\	.	16a/LL	8f\	.	8F 8FF/	.	8ff 8cc\	.	8f 8A/	4rFyy	.	8f/	.	8ff 8a\	.	16ff'yy\LL	.	16ff'\LL	.
.	.	.	.	.	.	.	.	(16f/	.	.	.	.	.	.	.	.	.	.	(16f/	.	.	.	.	.	.	.	.	.	.	.	.	.	(yy16ffyy\	.	(16ff\	.
8r	.	8ryy	.	8c 8F/	.	8f 8A/	.	16a/	.	8r	8r	.	8r	.	8r	.	8r	.	16a/	8re	.	8r	.	8r	.	8r	.	.	8r	.	8r	.	16aayy\	.	16aa\	.
.	.	.	.	.	.	.	.	16cc/JJ)	.	.	.	.	.	.	.	.	.	.	16cc/JJ	.	.	.	.	.	.	.	.	.	.	.	.	.	16cccyy\JJ)	.	16ccc\JJ)	.
*	*	*	*	*tremolo	*	*tremolo	*	*tremolo	*	*tremolo	*	*	*	*	*	*	*	*	*	*	*	*	*	*	*	*	*	*	*tremolo	*	*tremolo	*	*tremolo	*	*tremolo	*
!	!	!	!	!	!	!	!	!LO:TX:t=P:problem=4 kropki nad nutami	!	!	!	!	!	!	!	!	!	!	!	!	!	!	!	!	!	!	!	!	!	!	!	!	!LO:TX:t=P:problem=4 kropki nad nutami	!	!LO:TX:t=P:problem=4 kropki nad nutami	!
16F/LL	.	16Fyy/LL	.	16fLL 16A\	.	16ccLL 16f\	.	16ffLL 16a\	.	32Ree/LLL	8Ra\L	.	8FT\L	.	8F\L	.	8fL 8A\	.	8ff/L)	8a\L	.	16F/LL	.	8ffL 8cc\	.	8a/L	8f\L	.	16ffLL 16a\	.	16ffLL 16a\	.	16fffyy\LL	.	16fff\LL	.
.	.	.	.	.	.	.	.	.	.	32Ree/	.	.	.	.	.	.	.	.	.	.	.	.	.	.	.	.	.	.	.	.	.	.	.	.	.	.
16C/	.	16Cyy/	.	16f 16A\	.	16cc 16f\	.	16ff 16a\	.	32Ree/	.	.	.	.	.	.	.	.	.	.	.	16C/	.	.	.	.	.	.	16ff 16a\	.	16ff 16a\	.	16fffyy\	.	16fff\	.
.	.	.	.	.	.	.	.	.	.	32Ree/JJ	.	.	.	.	.	.	.	.	.	.	.	.	.	.	.	.	.	.	.	.	.	.	.	.	.	.
*	*	*	*	*	*	*	*	*	*	*Xtremolo	*	*	*	*	*	*	*	*	*	*	*	*	*	*	*	*	*	*	*	*	*	*	*	*	*	*
16AA/	.	16AAyy/	.	16f 16A\	.	16cc 16f\	.	16ff 16a\	.	8Ree/J	8Ra\J	.	8F\J	.	8F\J	.	8fJ 8A\	.	8ff/J	8a\J	.	16AA/	.	8ffJ 8cc\	.	8a/J	8f\J	.	16ff 16a\	.	16ff 16a\	.	16fffyy\	.	16fff\	.
16FF/JJ	.	16FFyy/JJ	.	16fJJ 16A\	.	16ccJJ 16f\	.	16ffJJ 16a\	.	.	.	.	.	.	.	.	.	.	.	.	.	16FF/JJ	.	.	.	.	.	.	16ffJJ 16a\	.	16ffJJ 16a\	.	16fffyy\JJ	.	16fff\JJ	.
*	*	*	*	*Xtremolo	*	*Xtremolo	*	*Xtremolo	*	*	*	*	*	*	*	*	*	*	*	*	*	*	*	*	*	*	*	*	*Xtremolo	*	*Xtremolo	*	*Xtremolo	*	*Xtremolo	*
*	*	*	*	*	*	*	*	*	*	*	*	*	*	*	*	*	*	*	*	*	*	*	*	*	*	*v	*v	*	*	*	*	*	*	*	*	*
=66	=66	=66	=66	=66	=66	=66	=66	=66	=66	=66	=66	=66	=66	=66	=66	=66	=66	=66	=66	=66	=66	=66	=66	=66	=66	=66	=66	=66	=66	=66	=66	=66	=66	=66	=66
*	*	*	*	*	*	*	*	*	*	*rep	*rep	*	*rep	*	*	*	*rep	*	*	*	*	*	*	*	*	*	*	*	*	*	*	*	*	*	*
8D/	.	8Dyy/	.	8r	.	8r	.	16ffLL 16a'\	.	8Ree/	8Ra\	.	8F\	.	8D\	.	8f 8A\	.	16a|/LL	8f\	.	8D 8DD/	.	8ff 8dd\	.	8f 8A/	.	8a 8f/	.	8ff 8a\	.	16fff'yy\LL	.	16fff'\LL	.
.	.	.	.	.	.	.	.	(16f\	.	.	.	.	.	.	.	.	.	.	(>16f/	.	.	.	.	.	.	.	.	.	.	.	.	(yy16ff'yy\	.	(16ff'\	.
8r	.	8ryy	.	8d\	.	8f 8A/	.	16a\	.	8r	8r	.	8r	.	8r	.	8r	.	16a/	8re	.	8r	.	8r	.	8r	.	8r	.	8r	.	16aayy\	.	16aa\	.
.	.	.	.	.	.	.	.	16cc\JJ)	.	.	.	.	.	.	.	.	.	.	16dd/JJ	.	.	.	.	.	.	.	.	.	.	.	.	16dddyy\JJ)	.	16ddd\JJ)	.
*	*	*	*	*tremolo	*	*tremolo	*	*tremolo	*	*tremolo	*	*	*	*	*	*	*	*	*	*	*	*	*	*	*	*	*	*tremolo	*	*tremolo	*	*tremolo	*	*tremolo	*
!	!	!	!	!	!	!	!	!LO:TX:t=P:problem=4 kropki nad nutami	!	!	!	!	!	!	!	!	!	!	!	!	!	!	!	!	!	!	!	!	!	!	!	!LO:TX:t=P:problem=4 kropki nad nutami	!	!LO:TX:t=P:problem=4 kropki nad nutami	!
16d\LL	.	16dyy\LL	.	16fLL 16A\	.	16ccLL 16f\	.	16ffLL 16a\	.	32Ree/LLL	8Ra\L	.	8FT\L	.	8D\L	.	8fL 8A\	.	8ffL 8a\)	4reyy	.	16d\LL	.	8ffL 8dd\	.	8aL 8f\	.	16ffLL 16a\	.	16ffLL 16a\	.	16fffyy\LL	.	16fff\LL	.
.	.	.	.	.	.	.	.	.	.	32Ree/	.	.	.	.	.	.	.	.	.	.	.	.	.	.	.	.	.	.	.	.	.	.	.	.	.
16A\	.	16Ayy\	.	16f 16A\	.	16cc 16f\	.	16ff 16a\	.	32Ree/	.	.	.	.	.	.	.	.	.	.	.	16A\	.	.	.	.	.	16ff 16a\	.	16ff 16a\	.	16fffyy\	.	16fff\	.
.	.	.	.	.	.	.	.	.	.	32Ree/JJ	.	.	.	.	.	.	.	.	.	.	.	.	.	.	.	.	.	.	.	.	.	.	.	.	.
*	*	*	*	*	*	*	*	*	*	*Xtremolo	*	*	*	*	*	*	*	*	*	*	*	*	*	*	*	*	*	*	*	*	*	*	*	*	*
16F\	.	16Fyy\	.	16f 16A\	.	16cc 16f\	.	16ff 16a\	.	8Ree/J	8Ra\J	.	8F\J	.	8D\J	.	8fJ 8A\	.	8ffJ 8a\	.	.	16F\	.	8ffJ 8dd\	.	8aJ 8f\	.	16ff 16a\	.	16ff 16a\	.	16fffyy\	.	16fff\	.
16D\JJ	.	16Dyy\JJ	.	16fJJ 16A\	.	16ccJJ 16f\	.	16ffJJ 16a\	.	.	.	.	.	.	.	.	.	.	.	.	.	16D\JJ	.	.	.	.	.	16ffJJ 16a\	.	16ffJJ 16a\	.	16fffyy\JJ	.	16fff\JJ	.
*	*	*	*	*Xtremolo	*	*Xtremolo	*	*Xtremolo	*	*Xrep	*Xrep	*	*Xrep	*	*	*	*Xrep	*	*	*	*	*	*	*	*	*	*	*Xtremolo	*	*Xtremolo	*	*Xtremolo	*	*Xtremolo	*
=67	=67	=67	=67	=67	=67	=67	=67	=67	=67	=67	=67	=67	=67	=67	=67	=67	=67	=67	=67	=67	=67	=67	=67	=67	=67	=67	=67	=67	=67	=67	=67	=67	=67	=67	=67
*	*	*	*	*	*	*	*	*	*	*rep	*rep	*	*	*	*	*	*	*	*	*	*	*	*	*	*	*	*	*	*	*	*	*	*	*	*
8BB-/	.	8BB-yy/	.	8r	.	8r	.	16dd\LL	.	8Ree/	8Ra\	.	2r	.	8BB-/	.	8g 8B-\	.	16dd|/LL	8b-\	.	8BB-/	.	8gg 8dd\	.	8b- 8g\	.	8dd 8b-\	.	8gg 8b-\	.	16ddd'yy\LL	.	16ddd'\LL	.
.	.	.	.	.	.	.	.	(16g\	.	.	.	.	.	.	.	.	.	.	(16g/	.	.	.	.	.	.	.	.	.	.	.	.	(yy16ggyy\	.	(16gg\	.
8r	.	8ryy	.	8g 8B-\	.	8b- 8d/	.	16b-\	.	8r	8r	.	.	.	8r	.	8r	.	16b-/	8re	.	8r	.	8r	.	8r	.	8r	.	8r	.	16bb-yy\	.	16bb-\	.
.	.	.	.	.	.	.	.	16b-\JJ)	.	.	.	.	.	.	.	.	.	.	16dd/JJ)	.	.	.	.	.	.	.	.	.	.	.	.	16dddyy\JJ)	.	16ddd\JJ)	.
*	*	*	*	*tremolo	*	*tremolo	*	*tremolo	*	*tremolo	*	*	*	*	*	*	*	*	*	*	*	*	*	*	*	*	*	*tremolo	*	*tremolo	*	*	*	*	*
!	!	!	!	!	!	!	!	!LO:TX:t=P:problem=4 kropki nad nutami	!	!	!	!	!	!	!	!	!	!	!	!	!	!	!	!	!	!	!	!	!	!	!	!	!	!	!
16B-\LL	.	16B-yy\LL	.	16gLL 16B-\	.	16b-LL 16d/	.	16ggLL 16b-\	.	32Ree/LLL	8Ra\L	.	.	.	8BB-/L	.	8gL 8B-\	.	8gL 8d/	4reyy	.	16B-\LL	.	8ggL 8dd\	.	8b-L 8g\	.	16ddLL 16b-\	.	16ggLL 16b-\	.	16gggyy\LL	.	16ggg\LL	.
.	.	.	.	.	.	.	.	.	.	32Ree/	.	.	.	.	.	.	.	.	.	.	.	.	.	.	.	.	.	.	.	.	.	.	.	.	.
16G\	.	16Gyy\	.	16g 16B-\	.	16b- 16d/	.	16gg 16b-\	.	32Ree/	.	.	.	.	.	.	.	.	.	.	.	16G\	.	.	.	.	.	16dd 16b-\	.	16gg 16b-\	.	16gggyy\	.	16ggg\	.
.	.	.	.	.	.	.	.	.	.	32Ree/JJ	.	.	.	.	.	.	.	.	.	.	.	.	.	.	.	.	.	.	.	.	.	.	.	.	.
*	*	*	*	*	*	*	*	*	*	*Xtremolo	*	*	*	*	*	*	*	*	*	*	*	*	*	*	*	*	*	*	*	*	*	*	*	*	*
16D\	.	16Dyy\	.	16g 16B-\	.	16b- 16d/	.	16gg 16b-\	.	8Ree/J	8Ra\J	.	.	.	8BB-/J	.	8gJ 8B-\	.	8gJ 8d/	.	.	16D\	.	8ggJ 8dd\	.	8b-J 8g\	.	16dd 16b-\	.	16gg 16b-\	.	16gggyy\	.	16ggg\	.
16BB-\JJ	.	16BB-yy\JJ	.	16gJJ 16B-\	.	16b-JJ 16d/	.	16ggJJ 16b-\	.	.	.	.	.	.	.	.	.	.	.	.	.	16BB-\JJ	.	.	.	.	.	16ddJJ 16b-\	.	16ggJJ 16b-\	.	16ggyy\JJ	.	16gg\JJ	.
*	*	*	*	*Xtremolo	*	*Xtremolo	*	*Xtremolo	*	*Xrep	*Xrep	*	*	*	*	*	*	*	*	*	*	*	*	*	*	*	*	*Xtremolo	*	*Xtremolo	*	*	*	*	*
*	*	*	*	*	*	*	*	*	*	*	*	*	*	*	*	*	*	*	*v	*v	*	*	*	*	*	*	*	*	*	*	*	*	*	*	*
!!LO:PB:g=original
=68	=68	=68	=68	=68	=68	=68	=68	=68	=68	=68	=68	=68	=68	=68	=68	=68	=68	=68	=68	=68	=68	=68	=68	=68	=68	=68	=68	=68	=68	=68	=68	=68	=68	=68
*	*	*	*	*	*	*	*	*	*	*	*	*	*	*	*	*	*	*	*	*	*	*	*^	*	*	*	*	*	*	*	*	*	*	*
*	*	*	*	*	*	*	*	*	*	*tremolo	*	*	*	*	*	*	*	*	*	*	*	*	*	*	*	*	*	*	*	*	*	*	*	*	*
8C/	.	8Cyy/	.	8r	.	(16cc\LL	.	(16ee\LL	.	16Ree/LL	4Ra\	.	2CT/	.	2C/	.	2e 2B-\	.	16eLL 16c/	.	2B- 2C\	.	2ee/	2cc\	.	2g 2c/	.	16eLL 16c/	.	(16cc\LL	.	(16ee\LL	.	(16ee\LL	.
.	.	.	.	.	.	16dd\	.	16ff\	.	16Ree/	.	.	.	.	.	.	.	.	(16f 16d/	.	.	.	.	.	.	.	.	16f 16d/	.	16dd\	.	16ff\	.	16ff\	.
8r	.	8ryy	.	8g 8B-\	.	16ee\	.	16gg\	.	16Ree/	.	.	.	.	.	.	.	.	16g 16e/	.	.	.	.	.	.	.	.	16g 16e/	.	16ee\	.	16gg\	.	16gg\	.
.	.	.	.	.	.	16ff\JJ)	.	16aa\JJ)	.	16Ree/	.	.	.	.	.	.	.	.	16aJJ 16f/	.	.	.	.	.	.	.	.	16aJJ 16f/	.	16ff\JJ)	.	16aa\JJ)	.	16aa\JJ)	.
8C/	.	8Cyy/	.	8r	.	(16gg\LL	.	(16bb-\LL	.	16Ree/	4Ra\	.	.	.	.	.	.	.	16b-LL 16g/	.	.	.	.	.	.	.	.	16b-LL 16g/	.	(16gg\LL	.	(16bb-\LL	.	(16bb-\LL	.
.	.	.	.	.	.	16aa\	.	16ccc\	.	16Ree/	.	.	.	.	.	.	.	.	16cc 16a/	.	.	.	.	.	.	.	.	16cc 16a/	.	16aa\	.	16ccc\	.	16ccc\	.
8r	.	8ryy	.	8g 8B-\	.	16bb-\	.	16ddd\	.	16Ree/	.	.	.	.	.	.	.	.	16dd 16b-/	.	.	.	.	.	.	.	.	16dd 16b-/	.	16bb-\	.	16ddd\	.	16ddd\	.
.	.	.	.	.	.	16gg\JJ)	.	16eee\JJ	.	16Ree/JJ	.	.	.	.	.	.	.	.	16eeJJ 16g/)	.	.	.	.	.	.	.	.	16eeJJ 16g/	.	16gg\JJ)	.	16eee\JJ	.	16eee\JJ	.
*	*	*	*	*	*	*	*	*	*	*Xtremolo	*	*	*	*	*	*	*	*	*	*	*	*	*	*	*	*	*	*	*	*	*	*	*	*	*
=69	=69	=69	=69	=69	=69	=69	=69	=69	=69	=69	=69	=69	=69	=69	=69	=69	=69	=69	=69	=69	=69	=69	=69	=69	=69	=69	=69	=69	=69	=69	=69	=69	=69	=69	=69
8F\	.	8Fyy\	.	8f 8A\	.	8aa\	.	8fff\)	.	8Ree/	8Ra\	.	8F\	.	8F\	.	8f 8A\	.	8ff 8a/	.	8A 8F\	.	8ff/	8cc\	.	8f 8A/	.	8ff 8a\	.	8aa\	.	8fff\)	.	8fff\)	.
8r	.	8ryy	.	8r	.	8r	.	8r	.	8r	8rcyy	.	8r	.	8r	.	8r	.	8r	.	8r	.	8r	8rcyy	.	8r	.	8r	.	8r	.	8r	.	8r	.
8D\L	.	8Dyy\L	.	8aL 8f#X\	.	8ccL 8d/	.	16ff#X|\LL	.	4r	4rcyy	.	4r	.	4r	.	4r	.	4r	.	8AL 8D\	.	8ddL 8cc\	4rcyy	.	8aL 8f#X\	.	8ccL 8a/	.	8ff#XL 8a\	.	16ff#X'\LL	.	16ff#X'yy\LL	.
.	.	.	.	.	.	.	.	(16dd\	.	.	.	.	.	.	.	.	.	.	.	.	.	.	.	.	.	.	.	.	.	.	.	(16dd\	.	(yy16ddyy\	.
8D\J	.	8Dyy\J	.	8aJ 8f#\	.	8ccJ 8d/	.	16cc#X\	.	.	.	.	.	.	.	.	.	.	.	.	8AJ 8D\	.	8ddJ 8cc\	.	.	8aJ 8f#\	.	8ccJ 8a/	.	8ff#J 8a\	.	16cc#X\	.	16cc#Xyy\	.
.	.	.	.	.	.	.	.	16dd\JJ)	.	.	.	.	.	.	.	.	.	.	.	.	.	.	.	.	.	.	.	.	.	.	.	16dd\JJ)	.	16ddyy\JJ)	.
*	*	*	*	*	*	*	*	*	*	*v	*v	*	*	*	*	*	*	*	*	*	*	*	*v	*v	*	*	*	*	*	*	*	*	*	*	*
=70	=70	=70	=70	=70	=70	=70	=70	=70	=70	=70	=70	=70	=70	=70	=70	=70	=70	=70	=70	=70	=70	=70	=70	=70	=70	=70	=70	=70	=70	=70	=70	=70	=70
*	*	*	*	*	*	*	*	*	*	*	*	*	*	*	*	*	*	*	*	*	*	*	*	*^	*	*	*	*	*	*	*	*	*
8GG/	.	8GGyy/	.	8g\	.	8b- 8d/	.	16gg|\LL	.	2r	.	2r	.	2r	.	2r	.	2r	.	8B- 8G\	.	8dd 8g/	.	8g/	8g\	.	8b- 8g/	.	8gg 8b-\	.	16gg'\LL	.	16gg'yy\LL	.
.	.	.	.	.	.	.	.	(16dd\	.	.	.	.	.	.	.	.	.	.	.	.	.	.	.	.	.	.	.	.	.	.	(16dd\	.	(yy16ddyy\	.
8r	.	8ryy	.	8r	.	8r	.	16cc#X\	.	.	.	.	.	.	.	.	.	.	.	8r	.	8r	.	8r	8rFyy	.	8r	.	8r	.	16cc#X\	.	16cc#Xyy\	.
.	.	.	.	.	.	.	.	16dd\JJ)	.	.	.	.	.	.	.	.	.	.	.	.	.	.	.	.	.	.	.	.	.	.	16dd\JJ)	.	16ddyy\JJ)	.
8E\L	.	8Eyy\L	.	8bnL 8g#X\	.	8ddL 8e/	.	16gg#X|\LL	.	.	.	.	.	.	.	.	.	.	.	8BnL 8E\	.	8eeL 8b-\	.	8g#X\L	4rFyy	.	8ddL 8bn\	.	8gg#XL 8bn\	.	16gg#X'\LL	.	16gg#X'yy\LL	.
.	.	.	.	.	.	.	.	(16ee\	.	.	.	.	.	.	.	.	.	.	.	.	.	.	.	.	.	.	.	.	.	.	(16ee\	.	(yy16eeyy\	.
8E\J	.	8Eyy\J	.	8bJ 8g#\	.	8ddJ 8e/	.	16dd#X\	.	.	.	.	.	.	.	.	.	.	.	8BJ 8E\	.	8eeJ 8b-\	.	8g#\J	.	.	8ddJ 8b\	.	8gg#J 8b\	.	16dd#X\	.	16dd#Xyy\	.
.	.	.	.	.	.	.	.	16ee\JJ)	.	.	.	.	.	.	.	.	.	.	.	.	.	.	.	.	.	.	.	.	.	.	16ee\JJ)	.	16eeyy\JJ)	.
*	*	*	*	*	*	*	*	*	*	*	*	*	*	*	*	*	*	*	*	*	*	*	*	*v	*v	*	*	*	*	*	*	*	*	*
=71	=71	=71	=71	=71	=71	=71	=71	=71	=71	=71	=71	=71	=71	=71	=71	=71	=71	=71	=71	=71	=71	=71	=71	=71	=71	=71	=71	=71	=71	=71	=71	=71	=71
*	*	*	*	*	*	*	*	*	*	*^	*	*	*	*	*	*	*	*	*	*	*	*	*	*	*	*	*	*	*	*	*	*	*
8AA/	.	8AAyy/	.	8a\	.	8cc 8e/	.	16aa'\LL	.	4ree	4re	.	2r	.	4r	.	4r	.	4r	.	8c 8A\	.	8ee 8cc\	.	8a\	.	8cc 8a/	.	8aa 8cc\	.	16aa'\LL	.	16aa'yy\LL	.
.	.	.	.	.	.	.	.	(16ee\	.	.	.	.	.	.	.	.	.	.	.	.	.	.	.	.	.	.	.	.	.	.	(16ee\	.	(yy16eeyy\	.
8r	.	8ryy	.	8r	.	8r	.	16cc\	.	.	.	.	.	.	.	.	.	.	.	.	8r	.	8r	.	8r	.	8r	.	8r	.	16cc\	.	16ccyy\	.
.	.	.	.	.	.	.	.	16ee\JJ)	.	.	.	.	.	.	.	.	.	.	.	.	.	.	.	.	.	.	.	.	.	.	16ee\JJ)	.	16eeyy\JJ)	.
8BB-/L	.	8BB-yy/L	.	8g\L	.	8b-L 8d/	.	16gg'\LL	.	8Ree/L	4Ra\	.	.	.	8BB-/L	.	8dL 8B-\	.	8b-L 8g/	.	8B-\L	.	8dd\L	.	8b-L 8g\	.	8b-L 8g/	.	8ggL 8b-\	.	16gg'\LL	.	16gg'yy\LL	.
.	.	.	.	.	.	.	.	(16dd\	.	.	.	.	.	.	.	.	.	.	.	.	.	.	.	.	.	.	.	.	.	.	(16dd\	.	(yy16ddyy\	.
8BB-/J	.	8BB-yy/J	.	8g\J	.	8b-J 8d/	.	16b-\	.	8Ree/J	.	.	.	.	8BB-/J	.	8dJ 8B-\	.	8b-J 8g/	.	8B-\J	.	8dd\J	.	8b-J 8g\	.	8b-J 8g/	.	8ggJ 8b-\	.	16b-\	.	16b-yy\	.
.	.	.	.	.	.	.	.	16dd\JJ)	.	.	.	.	.	.	.	.	.	.	.	.	.	.	.	.	.	.	.	.	.	.	16dd\JJ)	.	16ddyy\JJ)	.
!!LO:PB:g=original
=72	=72	=72	=72	=72	=72	=72	=72	=72	=72	=72	=72	=72	=72	=72	=72	=72	=72	=72	=72	=72	=72	=72	=72	=72	=72	=72	=72	=72	=72	=72	=72	=72	=72	=72
8C/	.	8Cyy/	.	8c\	.	8a 8f/	.	(16ff\LL	.	8Ree/	8Ra\	.	8C/	.	8C/	.	8c 8A\	.	8a 8f/	.	8c\	.	8cc\	.	8a 8f\	.	8a 8f/	.	8ff 8a\	.	2r	.	16fff|\LL	.
.	.	.	.	.	.	.	.	16cc\	.	.	.	.	.	.	.	.	.	.	.	.	.	.	.	.	.	.	.	.	.	.	.	.	(16ccc\	.
8r	.	8ryy	.	8r	.	8r	.	16bn\	.	8ree	8re	.	8r	.	8r	.	8r	.	8r	.	8r	.	8r	.	8r	.	8r	.	8r	.	.	.	16bbn\	.
.	.	.	.	.	.	.	.	16cc\JJ)	.	.	.	.	.	.	.	.	.	.	.	.	.	.	.	.	.	.	.	.	.	.	.	.	16ccc\JJ)	.
8C/	.	8Cyy/	.	8c\	.	8a 8f/	.	(16dd\LL	.	8Ree/	8Ra\	.	8C/	.	8C/	.	8c 8A\	.	8a 8f/	.	8c\	.	8cc\	.	8a 8f\	.	8a 8f/	.	8ff 8a\	.	.	.	(16ddd\LL	.
.	.	.	.	.	.	.	.	16cc\	.	.	.	.	.	.	.	.	.	.	.	.	.	.	.	.	.	.	.	.	.	.	.	.	16ccc\	.
8r	.	8ryy	.	8r	.	8r	.	16b\	.	8ree	8re	.	8r	.	8r	.	8r	.	8r	.	8r	.	8r	.	8r	.	8r	.	8r	.	.	.	16bb\	.
.	.	.	.	.	.	.	.	16cc\JJ)	.	.	.	.	.	.	.	.	.	.	.	.	.	.	.	.	.	.	.	.	.	.	.	.	16ccc\JJ)	.
=73	=73	=73	=73	=73	=73	=73	=73	=73	=73	=73	=73	=73	=73	=73	=73	=73	=73	=73	=73	=73	=73	=73	=73	=73	=73	=73	=73	=73	=73	=73	=73	=73	=73	=73
*	*	*	*	*	*	*	*	*	*	*rep	*rep	*	*rep	*	*	*	*	*	*	*	*	*	*	*	*	*	*	*	*	*	*	*	*	*
8C/	.	8Cyy/	.	8c\	.	8b- 8g/	.	(16dd\LL	.	8Ree/	8Ra\	.	8C/	.	8C/	.	8c 8G/	.	8b- 8e/	.	8C/	.	8ee 8cc\	.	8g 8c/	.	8b- 8g/	.	8ee 8b-\	.	2r	.	(16ddd\LL	.
.	.	.	.	.	.	.	.	16cc\	.	.	.	.	.	.	.	.	.	.	.	.	.	.	.	.	.	.	.	.	.	.	.	.	16ccc\	.
8r	.	8ryy	.	8r	.	8r	.	16bn\	.	8ree	8re	.	8r	.	8r	.	8r	.	8r	.	8r	.	8r	.	8r	.	8r	.	8r	.	.	.	16bbn\	.
.	.	.	.	.	.	.	.	16cc\JJ)	.	.	.	.	.	.	.	.	.	.	.	.	.	.	.	.	.	.	.	.	.	.	.	.	16ccc\JJ)	.
8C/	.	8Cyy/	.	8c\	.	8b- 8g/	.	(16cc#X\LL	.	8Ree/	8Ra\	.	8C/	.	8C/	.	8c 8G/	.	8b- 8e/	.	8C/	.	8ee 8cc\	.	8g 8c/	.	8b- 8g/	.	8gg 8b-\	.	.	.	(16ccc#X\LL	.
.	.	.	.	.	.	.	.	16dd\	.	.	.	.	.	.	.	.	.	.	.	.	.	.	.	.	.	.	.	.	.	.	.	.	16ddd\	.
8r	.	8ryy	.	8r	.	8r	.	16dd#X\	.	8ree	8re	.	8r	.	8r	.	8r	.	8r	.	8r	.	8r	.	8r	.	8r	.	8r	.	.	.	16ddd#X\	.
.	.	.	.	.	.	.	.	16ee\JJ	.	.	.	.	.	.	.	.	.	.	.	.	.	.	.	.	.	.	.	.	.	.	.	.	16eee\JJ)	.
*	*	*	*	*	*	*	*	*	*	*Xrep	*Xrep	*	*Xrep	*	*	*	*	*	*	*	*	*	*	*	*	*	*	*	*	*	*	*	*	*
=74	=74	=74	=74	=74	=74	=74	=74	=74	=74	=74	=74	=74	=74	=74	=74	=74	=74	=74	=74	=74	=74	=74	=74	=74	=74	=74	=74	=74	=74	=74	=74	=74	=74	=74
*	*	*	*	*	*	*	*	*	*	*	*	*	*	*	*	*	*^	*	*	*	*	*	*	*	*	*	*^	*	*	*	*	*	*	*
8D-X/L	ff	8D-Xyy/L	ffyy	8d-X\L	ff	8a-X/L	.	8ff\L)	ff	8Ree/L	8Ra\L	.	8F\L	.	8D-X/L	ff	8fL 8F\	4rBByy	.	8a-XL 8f/	.	8D-X/L	.	8ffL 8dd-X\	ff	8fL 8A-X/	.	8a-X/L	8f\L	.	8ff 8a-X\	.	8r	.	8fff\L	ff
8D-/J	.	8D-yy/J	.	8d-\J	.	8a-/J	.	8fffJ 8ff\	.	8Ree/J	8Ra\J	.	8F\J	.	8D-/J	.	8fJ 8A-X\	.	.	8a-J 8f/	.	8D-/J	.	8ffJ 8dd-\	.	8fJ 8A-/	.	8ff/J	8a-\J	.	8ff\	.	8fff\	.	8fff\J	.
*	*	*	*	*	*	*	*	*	*	*tremolo	*	*	*	*	*	*	*	*	*	*	*	*	*	*	*	*	*	*	*	*	*	*	*	*	*	*
4D-/	.	4D-yy/	.	4f 4d-\	.	4a-/	.	4bbn 4bn\	.	32Ree/LLL	4Ra\	.	4FT\	.	4D-/	.	4Bn/	4A-\	.	4a- 4f/	.	4D-/	.	4ff 4dd-\	.	4f 4A-/	.	4bn/	4a-\	.	4bn\	.	4bbn\	.	4bbn\	.
.	.	.	.	.	.	.	.	.	.	32Ree/	.	.	.	.	.	.	.	.	.	.	.	.	.	.	.	.	.	.	.	.	.	.	.	.	.	.
.	.	.	.	.	.	.	.	.	.	32Ree/	.	.	.	.	.	.	.	.	.	.	.	.	.	.	.	.	.	.	.	.	.	.	.	.	.	.
.	.	.	.	.	.	.	.	.	.	32Ree/	.	.	.	.	.	.	.	.	.	.	.	.	.	.	.	.	.	.	.	.	.	.	.	.	.	.
.	.	.	.	.	.	.	.	.	.	32Ree/	.	.	.	.	.	.	.	.	.	.	.	.	.	.	.	.	.	.	.	.	.	.	.	.	.	.
.	.	.	.	.	.	.	.	.	.	32Ree/	.	.	.	.	.	.	.	.	.	.	.	.	.	.	.	.	.	.	.	.	.	.	.	.	.	.
.	.	.	.	.	.	.	.	.	.	32Ree/	.	.	.	.	.	.	.	.	.	.	.	.	.	.	.	.	.	.	.	.	.	.	.	.	.	.
.	.	.	.	.	.	.	.	.	.	32Ree/JJJ	.	.	.	.	.	.	.	.	.	.	.	.	.	.	.	.	.	.	.	.	.	.	.	.	.	.
*	*	*	*	*	*	*	*	*	*	*Xtremolo	*	*	*	*	*	*	*	*	*	*	*	*	*	*	*	*	*	*	*	*	*	*	*	*	*	*
*	*	*	*	*	*	*	*	*	*	*	*	*	*	*	*	*	*	*	*	*	*	*	*	*	*	*	*	*v	*v	*	*	*	*	*	*	*
=75	=75	=75	=75	=75	=75	=75	=75	=75	=75	=75	=75	=75	=75	=75	=75	=75	=75	=75	=75	=75	=75	=75	=75	=75	=75	=75	=75	=75	=75	=75	=75	=75	=75	=75	=75
*	*	*	*	*	*	*	*	*	*	*rep	*rep	*	*rep	*	*	*	*	*	*	*	*	*	*	*	*	*	*	*	*	*	*	*	*	*	*
!	!	!	!	!	!	!	!	!	!	!	!	!	!	!	!	!	!	!	!	!	!	!	!	!	!	!	!	!	!	!	!	!LO:TX:t=col Fl	!	!	!
8C/L	.	8Cyy/L	.	8fL 8c\	.	8a-X/L	.	8cccL 8cc\	.	8Ree/L	8Ra\L	.	8F\L	.	8C/L	.	8c/L	8A-X\L	.	8a-XL 8f/	.	8C/L	.	8ffL 8cc\	.	8fL 8A-X/	.	8ccL 8a-X\	.	8cc\L	.	8cccyy\L	.	8ccc\L	.
8C/J	.	8Cyy/J	.	8fJ 8c\	.	8a-/J	.	8cccJ 8cc\	.	8Ree/J	8Ra\J	.	8F\J	.	8C/J	.	8c/J	8A-\J	.	8a-J 8f/	.	8C/J	.	8ffJ 8cc\	.	8fJ 8A-/	.	8ccJ 8a-\	.	8cc\J	.	8cccyy\J	.	8ccc\J	.
*	*	*	*	*	*	*	*	*	*	*tremolo	*	*	*	*	*	*	*	*	*	*	*	*	*	*	*	*	*	*	*	*	*	*	*	*	*
4BBn/	.	4BBnyy/	.	4f 4Bn\	.	4a-/	.	4ddd 4dd\	.	32Ree/LLL	4Ra\	.	4FT\	.	4BBn/	.	4d/	4A-\	.	4a- 4f/	.	4BBn/	.	4ff 4b-\	.	4f 4A-/	.	4dd 4a-\	.	4dd\	.	4dddyy\	.	4ddd\	.
.	.	.	.	.	.	.	.	.	.	32Ree/	.	.	.	.	.	.	.	.	.	.	.	.	.	.	.	.	.	.	.	.	.	.	.	.	.
.	.	.	.	.	.	.	.	.	.	32Ree/	.	.	.	.	.	.	.	.	.	.	.	.	.	.	.	.	.	.	.	.	.	.	.	.	.
.	.	.	.	.	.	.	.	.	.	32Ree/	.	.	.	.	.	.	.	.	.	.	.	.	.	.	.	.	.	.	.	.	.	.	.	.	.
.	.	.	.	.	.	.	.	.	.	32Ree/	.	.	.	.	.	.	.	.	.	.	.	.	.	.	.	.	.	.	.	.	.	.	.	.	.
.	.	.	.	.	.	.	.	.	.	32Ree/	.	.	.	.	.	.	.	.	.	.	.	.	.	.	.	.	.	.	.	.	.	.	.	.	.
.	.	.	.	.	.	.	.	.	.	32Ree/	.	.	.	.	.	.	.	.	.	.	.	.	.	.	.	.	.	.	.	.	.	.	.	.	.
.	.	.	.	.	.	.	.	.	.	32Ree/JJJ	.	.	.	.	.	.	.	.	.	.	.	.	.	.	.	.	.	.	.	.	.	.	.	.	.
*	*	*	*	*	*	*	*	*	*	*Xtremolo	*	*	*	*	*	*	*	*	*	*	*	*	*	*	*	*	*	*	*	*	*	*	*	*	*
*	*	*	*	*	*	*	*	*	*	*Xrep	*Xrep	*	*Xrep	*	*	*	*	*	*	*	*	*	*	*	*	*	*	*	*	*	*	*	*	*	*
*	*	*	*	*	*	*	*	*	*	*	*	*	*	*	*	*	*v	*v	*	*	*	*	*	*	*	*	*	*	*	*	*	*	*	*	*
=76	=76	=76	=76	=76	=76	=76	=76	=76	=76	=76	=76	=76	=76	=76	=76	=76	=76	=76	=76	=76	=76	=76	=76	=76	=76	=76	=76	=76	=76	=76	=76	=76	=76	=76
.	.	.	.	.	.	.	.	8qcc/	.	.	.	.	.	.	.	.	.	.	.	.	.	.	.	.	.	.	.	.	.	.	.	.	.	.
8C/	.	8Cyy/	.	8fL 8c\	.	8anL 8f/	.	(16ccc\LL	.	8Ree/L	8Ra\	.	8F|\	.	8C/	.	8cL 8An\	.	8anL 8f/	.	8C/	.	8ffL 8cc\	.	8fL 8A/	.	8cc\L	.	8cc\L	.	(yy16cccyy\LL	.	(16ccc\LL	.
.	.	.	.	.	.	.	.	16bb-\	.	.	.	.	.	.	.	.	.	.	.	.	.	.	.	.	.	.	.	.	.	.	16bb-yy\	.	16bb-\	.
8r	.	8ryy	.	8fJ 8c\	.	8aJ 8f/	.	16aa\	.	8Ree/J	8r	.	8F\	.	8r	.	8fJ 8A\	.	8aJ 8f/	.	8r	.	8ffJ 8cc\	.	8fJ 8A/	.	8ccJ 8a\	.	8ffJ 8a\	.	16aayy\	.	16aa\	.
.	.	.	.	.	.	.	.	16gg\JJ	.	.	.	.	.	.	.	.	.	.	.	.	.	.	.	.	.	.	.	.	.	.	16ggyy\JJ	.	16gg\JJ	.
8C/	.	8Cyy/	.	8r	.	8r	.	16ff\LL	.	8raa	8Ra\	.	8r	.	8C/	.	8r	.	8r	.	8C/	.	8r	.	8r	.	8r	.	8r	.	16ffyy\LL	.	16ff\LL	.
.	.	.	.	.	.	.	.	16ee\	.	.	.	.	.	.	.	.	.	.	.	.	.	.	.	.	.	.	.	.	.	.	16eeyy\	.	16ee\	.
8r	.	8ryy	.	8f 8c\	.	8a 8f/	.	16dd\	.	8Ree/	8r	.	8F\	.	8r	.	8f 8A\	.	8a 8f/	.	8r	.	8ff 8cc\	.	8f 8A/	.	8cc 8a\	.	8ff 8a\	.	16ddyy\	.	16dd\	.
.	.	.	.	.	.	.	.	16cc\JJ)	.	.	.	.	.	.	.	.	.	.	.	.	.	.	.	.	.	.	.	.	.	.	16ccyy\JJ)	.	16cc\JJ)	.
!!LO:PB:g=original
=77	=77	=77	=77	=77	=77	=77	=77	=77	=77	=77	=77	=77	=77	=77	=77	=77	=77	=77	=77	=77	=77	=77	=77	=77	=77	=77	=77	=77	=77	=77	=77	=77	=77	=77
*	*	*	*	*	*	*	*	*	*	*	*	*	*	*	*	*	*	*	*	*	*	*	*^	*	*	*	*	*	*	*	*	*	*	*
8C/	.	8Cyy/	.	8r	.	8r	.	(16ccc\LL	.	8r	8Ra\	.	8r	.	8C/	.	8r	.	8r	.	8C/	.	8r	4.rcyy	.	8r	.	8r	.	8r	.	(yy16cccyy\LL	.	(16ccc\LL	.
.	.	.	.	.	.	.	.	16bb-\	.	.	.	.	.	.	.	.	.	.	.	.	.	.	.	.	.	.	.	.	.	.	.	16bb-yy\	.	16bb-\	.
8r	.	8ryy	.	8c\	.	8b- 8g/	.	16aa\	.	8Ree/	8rg	.	8C/	.	8r	.	8g 8B-\	.	8b- 8e/	.	8r	.	8ee 8cc\	.	.	8g 8B-/	.	8b- 8g/	.	8ee 8b-\	.	16aayy\	.	16aa\	.
.	.	.	.	.	.	.	.	16gg\JJ	.	.	.	.	.	.	.	.	.	.	.	.	.	.	.	.	.	.	.	.	.	.	.	16ggyy\JJ	.	16gg\JJ	.
8C/	.	8Cyy/	.	8r	.	8r	.	16ff\LL	.	8r	8Ra\	.	8r	.	8C/	.	8r	.	8r	.	8C/	.	8r	.	.	8r	.	8r	.	8r	.	16ffyy\LL	.	16ff\LL	.
.	.	.	.	.	.	.	.	16ee\	.	.	.	.	.	.	.	.	.	.	.	.	.	.	.	.	.	.	.	.	.	.	.	16eeyy\	.	16ee\	.
8r	.	8ryy	.	8c\	.	8b- 8g/	.	16dd\	.	8Ree/	8rg	.	8C/	.	8r	.	8g 8B-\	.	8b- 8g/	.	8r	.	8cc/	8cc\	.	8g 8B-/	.	8b- 8g/	.	8gg 8b-\	.	16ddyy\	.	16dd\	.
.	.	.	.	.	.	.	.	16ee\JJ)	.	.	.	.	.	.	.	.	.	.	.	.	.	.	.	.	.	.	.	.	.	.	.	16eeyy\JJ)	.	16ee\JJ)	.
*	*	*	*	*	*	*	*	*	*	*	*	*	*	*	*	*	*	*	*	*	*	*	*v	*v	*	*	*	*	*	*	*	*	*	*	*
=78	=78	=78	=78	=78	=78	=78	=78	=78	=78	=78	=78	=78	=78	=78	=78	=78	=78	=78	=78	=78	=78	=78	=78	=78	=78	=78	=78	=78	=78	=78	=78	=78	=78	=78
*	*	*	*	*	*	*	*	*	*	*	*	*	*	*	*	*	*^	*	*	*	*	*	*	*	*	*	*^	*	*^	*	*	*	*	*
8D-X/L	.	8D-Xyy/L	.	8d-X\L	.	8a-X/L	.	8ff\L	.	8Ree/L	8Ra\L	.	8F\L	.	2D-X/	.	2f/	2A-X\	ff	8a-XL 8f/	.	8D-X\L	ff	8ffL 8dd-X\	.	8fL 8A-X/	.	8a-XL 8f/	4rcyy	ff	8ff/L	8a-X\L	.	8ffyy\L	ffyy	8ff\L	ff
8D-/J	.	8D-yy/J	.	8d-\J	.	8a-/J	.	8fff\J 8ff\	.	8Ree/J	8Ra\J	.	8F\J	.	.	.	.	.	.	8a-J 8f/	.	8D-\J	.	8ffJ 8dd-\	.	8fJ 8A-/	.	8ffJ 8a-/	.	.	8ff/J	8ff\J	.	8fffyy\J	.	8fff\J	.
*	*	*	*	*	*	*	*	*	*	*tremolo	*	*	*	*	*	*	*	*	*	*	*	*	*	*	*	*	*	*	*	*	*	*	*	*	*	*	*
4D-/	.	4D-yy/	.	4f 4d-\	.	4a-/	.	4bbn 4bn\	.	32Ree/LLL	4Ra\	.	4FT\	.	.	.	.	.	.	4a- 4f/	.	4D-\	.	4ff 4dd-\	.	4f 4A-/	.	4bn/	4a-\	.	4bn/	4bn\	.	4bbnyy\	.	4bbn\	.
.	.	.	.	.	.	.	.	.	.	32Ree/	.	.	.	.	.	.	.	.	.	.	.	.	.	.	.	.	.	.	.	.	.	.	.	.	.	.	.
.	.	.	.	.	.	.	.	.	.	32Ree/	.	.	.	.	.	.	.	.	.	.	.	.	.	.	.	.	.	.	.	.	.	.	.	.	.	.	.
.	.	.	.	.	.	.	.	.	.	32Ree/	.	.	.	.	.	.	.	.	.	.	.	.	.	.	.	.	.	.	.	.	.	.	.	.	.	.	.
.	.	.	.	.	.	.	.	.	.	32Ree/	.	.	.	.	.	.	.	.	.	.	.	.	.	.	.	.	.	.	.	.	.	.	.	.	.	.	.
.	.	.	.	.	.	.	.	.	.	32Ree/	.	.	.	.	.	.	.	.	.	.	.	.	.	.	.	.	.	.	.	.	.	.	.	.	.	.	.
.	.	.	.	.	.	.	.	.	.	32Ree/	.	.	.	.	.	.	.	.	.	.	.	.	.	.	.	.	.	.	.	.	.	.	.	.	.	.	.
.	.	.	.	.	.	.	.	.	.	32Ree/JJJ	.	.	.	.	.	.	.	.	.	.	.	.	.	.	.	.	.	.	.	.	.	.	.	.	.	.	.
*	*	*	*	*	*	*	*	*	*	*Xtremolo	*	*	*	*	*	*	*	*	*	*	*	*	*	*	*	*	*	*	*	*	*	*	*	*	*	*	*
*	*	*	*	*	*	*	*	*	*	*	*	*	*	*	*	*	*	*	*	*	*	*	*	*	*	*	*	*v	*v	*	*	*	*	*	*	*	*
*	*	*	*	*	*	*	*	*	*	*	*	*	*	*	*	*	*	*	*	*	*	*	*	*	*	*	*	*	*	*v	*v	*	*	*	*	*
=79	=79	=79	=79	=79	=79	=79	=79	=79	=79	=79	=79	=79	=79	=79	=79	=79	=79	=79	=79	=79	=79	=79	=79	=79	=79	=79	=79	=79	=79	=79	=79	=79	=79	=79	=79
*	*	*	*	*	*	*	*	*	*	*rep	*rep	*	*rep	*	*	*	*	*	*	*rep	*	*	*	*	*	*	*	*	*	*	*	*	*	*	*
8C/L	.	8Cyy/L	.	8fL 8c\	.	8a-X/L	.	8cccL 8cc\	.	8Ree/L	8Ra\L	.	8F\L	.	4C/	.	2f/	2A\	.	8a-XL 8f/	.	8C/L	.	8ffL 8cc\	.	8fL 8A-X/	.	8ccL 8a-X/	.	8cc\L	.	8cccyy\L	.	8ccc\L	.
8C/J	.	8Cyy/J	.	8fJ 8c\	.	8a-/J	.	8cccJ 8cc\	.	8Ree/J	8Ra\J	.	8F\J	.	.	.	.	.	.	8a-J 8f/	.	8C/J	.	8ffJ 8cc\	.	8fJ 8A-/	.	8ccJ 8a-/	.	8cc\J	.	8cccyy\J	.	8ccc\J	.
*	*	*	*	*	*	*	*	*	*	*tremolo	*	*	*	*	*	*	*	*	*	*	*	*	*	*	*	*	*	*	*	*	*	*	*	*	*
4BBn/	.	4BBnyy/	.	4f 4Bn\	.	4a-/	.	4ddd 4dd\	.	32Ree/LLL	4Ra\	.	4FT\	.	4BBn/	.	.	.	.	4a- 4f/	.	4BBn/	.	4ff 4b-\	.	4f 4A-/	.	4dd 4a-/	.	4dd\	.	4dddyy\	.	4ddd\	.
.	.	.	.	.	.	.	.	.	.	32Ree/	.	.	.	.	.	.	.	.	.	.	.	.	.	.	.	.	.	.	.	.	.	.	.	.	.
.	.	.	.	.	.	.	.	.	.	32Ree/	.	.	.	.	.	.	.	.	.	.	.	.	.	.	.	.	.	.	.	.	.	.	.	.	.
.	.	.	.	.	.	.	.	.	.	32Ree/	.	.	.	.	.	.	.	.	.	.	.	.	.	.	.	.	.	.	.	.	.	.	.	.	.
.	.	.	.	.	.	.	.	.	.	32Ree/	.	.	.	.	.	.	.	.	.	.	.	.	.	.	.	.	.	.	.	.	.	.	.	.	.
.	.	.	.	.	.	.	.	.	.	32Ree/	.	.	.	.	.	.	.	.	.	.	.	.	.	.	.	.	.	.	.	.	.	.	.	.	.
.	.	.	.	.	.	.	.	.	.	32Ree/	.	.	.	.	.	.	.	.	.	.	.	.	.	.	.	.	.	.	.	.	.	.	.	.	.
.	.	.	.	.	.	.	.	.	.	32Ree/JJJ	.	.	.	.	.	.	.	.	.	.	.	.	.	.	.	.	.	.	.	.	.	.	.	.	.
*	*	*	*	*	*	*	*	*	*	*Xtremolo	*	*	*	*	*	*	*	*	*	*	*	*	*	*	*	*	*	*	*	*	*	*	*	*	*
*	*	*	*	*	*	*	*	*	*	*Xrep	*Xrep	*	*Xrep	*	*	*	*	*	*	*Xrep	*	*	*	*	*	*	*	*	*	*	*	*	*	*	*
*	*	*	*	*	*	*	*	*	*	*	*	*	*	*	*	*	*v	*v	*	*	*	*	*	*	*	*	*	*	*	*	*	*	*	*	*
=80	=80	=80	=80	=80	=80	=80	=80	=80	=80	=80	=80	=80	=80	=80	=80	=80	=80	=80	=80	=80	=80	=80	=80	=80	=80	=80	=80	=80	=80	=80	=80	=80	=80	=80
8BB-X/L	.	8BB-Xyy/L	.	8eL 8c\	.	8g/L	.	8eeeL 8ee\	.	2ree	2re	.	2r	.	4BB-X/	.	4e 4G\	.	8gL 8e/	.	8BB-X/L	.	8eeL 8cc\	.	8gL 8c/	.	8ccL 8g/	.	8ee\L	.	8eeeyy\L	.	8eee\L	.
8BB-/J	.	8BB-yy/J	.	8eJ 8c\	.	8g/J	.	8eeeJ 8ee\	.	.	.	.	.	.	.	.	.	.	8gJ 8e/	.	8BB-/J	.	8eeJ 8cc\	.	8gJ 8c/	.	8ccJ 8g/	.	8ee\J	.	8eeeyy\J	.	8eee\J	.
8AA/L	.	8AAyy/L	.	8fL 8c\	.	8f/L	.	(16gggLL 16gg\	.	.	.	.	.	.	8AA/L	.	8fL 8F\	.	8f/L	.	8AA/L	.	8ffL 8cc\	.	8fL 8c/	.	8ccL 8f/	.	(16gg\LL	.	(yy16gggyy\LL	.	(16ggg\LL	.
.	.	.	.	.	.	.	.	16fff 16ff\)	.	.	.	.	.	.	.	.	.	.	.	.	.	.	.	.	.	.	.	.	16ff\)	.	16fffyy\)	.	16fff\)	.
8BB-/J	.	8BB-yy/J	.	8d\J	.	8g/J	.	16ddd 16dd'\	.	.	.	.	.	.	8BB-/J	.	8dJ 8B-\	.	8gJ 8d/	.	8BB-/J	.	8dd\J	.	8gJ 8B-/	.	8ddJ 8b-/	.	16dd'\	.	16ddd'yy\	.	16ddd'\	.
.	.	.	.	.	.	.	.	16bb-JJ 16b-'\	.	.	.	.	.	.	.	.	.	.	.	.	.	.	.	.	.	.	.	.	16b-'\JJ	.	16bb-'yy\JJ	.	16bb-'\JJ	.
=81	=81	=81	=81	=81	=81	=81	=81	=81	=81	=81	=81	=81	=81	=81	=81	=81	=81	=81	=81	=81	=81	=81	=81	=81	=81	=81	=81	=81	=81	=81	=81	=81	=81	=81
*	*	*	*	*	*	*	*	*	*	*	*	*	*	*	*	*	*	*	*	*	*	*	*	*	*	*	*^	*	*	*	*	*	*	*
8C/	.	8Cyy/	.	8c\L	.	8aL 8f/	.	(16aaLL 16a\	.	4rdd	4rcyy	.	4r	.	8C/	.	8cL 8A\	.	8aL 8c/	.	8C/	.	8cc\L	.	8fL 8A/	.	(16ccLL 16a/	4rcyy	.	(16a\LL	.	(yy16aayy\LL	.	(16aa\LL	.
.	.	.	.	.	.	.	.	16cc\)	.	.	.	.	.	.	.	.	.	.	.	.	.	.	.	.	.	.	16c/)	.	.	16cc\)	.	16ccyy\)	.	16cc\)	.
8r	.	8ryy	.	8c\J	.	8aJ 8f/	.	16ff'\	.	.	.	.	.	.	8r	.	8fJ 8A\	.	8aJ 8c/	.	8r	.	8cc\J	.	8fJ 8B-/	.	16g'/	.	.	16ff'\	.	16ff'yy\	.	16ff'\	.
.	.	.	.	.	.	.	.	16aa'\JJ	.	.	.	.	.	.	.	.	.	.	.	.	.	.	.	.	.	.	16a'/JJ	.	.	16aa'\JJ	.	16aa'yy\JJ	.	16aa'\JJ	.
8C/L	.	8Cyy/L	.	8r	.	8r	.	8ccc\L	.	8rdd	8rcyy	.	8r	.	8C/L	.	8r	.	8r	.	8cL 8C\	.	8r	.	8r	.	8cc/L	8cc\L	.	8cccL 8cc\	.	8ccc'yy\L	.	8ccc'\L	.
8C/J	.	8Cyy/J	.	8g 8c\	.	8cc 8e/	.	8eeJ 8b-\	.	8Ree/	8Ra\	.	8C/	.	8C/J	.	8e 8B-\	.	8cc 8e/	.	8C\J	.	8ee 8cc\	.	8g 8c/	.	8ee/J	8b-\J	.	8eeJ 8b-\	.	8eee'yy\J	.	8eee'\J	.
*	*	*	*	*	*	*	*	*	*	*	*	*	*	*	*	*	*	*	*	*	*	*	*	*	*	*	*v	*v	*	*	*	*	*	*	*
!!LO:PB:g=original
=82	=82	=82	=82	=82	=82	=82	=82	=82	=82	=82	=82	=82	=82	=82	=82	=82	=82	=82	=82	=82	=82	=82	=82	=82	=82	=82	=82	=82	=82	=82	=82	=82	=82	=82
4F\	.	4Fyy\	.	4f\	.	4cc 4f/	.	4ff 4a\	.	4Ree/	4Ra\	.	4F\	.	4F\	.	4f 4A\	.	4a 4f/	.	4F\	.	4ff 4cc\	.	4f 4A/	.	4ff 4a\	.	4ff 4a\	.	4fff\	.	4fff\	.
4r	.	4ryy	.	4r	.	4r	.	4r	.	4rg	4r	.	4r	.	4r	.	4r	.	4r	.	4r	.	4r	.	4r	.	4r	.	4r	.	4r	.	4r	.
=83	=83	=83	=83	=83	=83	=83	=83	=83	=83	=83	=83	=83	=83	=83	=83	=83	=83	=83	=83	=83	=83	=83	=83	=83	=83	=83	=83	=83	=83	=83	=83	=83	=83	=83
*	*	*	*	*	*	*	*	*	*	*	*	*	*	*	*	*	*	*	*	*	*^	*	*	*	*^	*	*	*	*	*	*	*	*	*
4F\	.	4Fyy\	.	4f 4A 4C/	.	4ff 4a\	.	4aa 4cc 4f\	.	4Ree/	4Ra\	.	4F\	.	4F\	.	4f 4A\	.	4a 4f/	.	4A/	4F\	.	4ff 4cc\	.	4a/	4f\	.	4ff 4a\	.	4aa 4cc\	.	4aa\	.	4aaa\	.
8.r	.	8.ryy	.	8.r	.	8.r	.	8.r	.	4r	4rcyy	.	4r	.	4r	.	4r	.	4r	.	4rF	4rEEyy	.	4r	.	4r	4rFyy	.	4r	.	4r	.	4r	.	4r	.
16F\	.	16Fyy\	.	16c 16F/	.	16f 16A/	.	16f 16A/	.	.	.	.	.	.	.	.	.	.	.	.	.	.	.	.	.	.	.	.	.	.	.	.	.	.	.	.
*	*	*	*	*	*	*	*	*	*	*v	*v	*	*	*	*	*	*	*	*	*	*v	*v	*	*	*	*v	*v	*	*	*	*	*	*	*	*	*
=84	=84	=84	=84	=84	=84	=84	=84	=84	=84	=84	=84	=84	=84	=84	=84	=84	=84	=84	=84	=84	=84	=84	=84	=84	=84	=84	=84	=84	=84	=84	=84	=84	=84
[2F\	.	[yy2Fyy\	.	[2c [2F/	.	[2f 2A/	.	[2f 2A/	.	2r	.	2r	.	2r	.	2r	.	2r	.	2r	.	2r	.	2r	.	2r	.	2r	.	2r	.	2r	.
=85	=85	=85	=85	=85	=85	=85	=85	=85	=85	=85	=85	=85	=85	=85	=85	=85	=85	=85	=85	=85	=85	=85	=85	=85	=85	=85	=85	=85	=85	=85	=85	=85	=85
*	*	*	*	*	*	*	*	*	*	*^	*	*	*	*	*	*	*	*	*	*	*	*	*	*	*	*	*	*	*	*	*	*	*
8F\]	.	8Fyy\]	.	8c] 8F/]	.	8f] 8A/	.	8f] 8A/	.	8Ree/	8Ra\	.	8F\	.	8F\	.	8f 8A\	.	8f/	.	8A 8F\	.	8ff 8cc\	.	8f 8A/	.	8ff 8a\	.	8aa 8cc\	.	8ff\	.	8fff\	.
8r	.	8ryy	.	8r	.	8r	.	8r	.	8r	8rcyy	.	8r	.	8r	.	8r	.	8r	.	8r	.	8r	.	8r	.	8r	.	8r	.	8r	.	8r	.
4r	.	4ryy	.	4r	.	4r	.	4r	.	4r	4rcyy	.	4r	.	4r	.	4r	.	4r	.	4r	.	4r	.	4r	.	4r	.	4r	.	4r	.	4r	.
*	*	*	*	*	*	*	*	*	*	*v	*v	*	*	*	*	*	*	*	*	*	*	*	*	*	*	*	*	*	*	*	*	*	*	*
==	==	==	==	==	==	==	==	==	==	==	==	==	==	==	==	==	==	==	==	==	==	==	==	==	==	==	==	==	==	==	==	==	==
*-	*-	*-	*-	*-	*-	*-	*-	*-	*-	*-	*-	*-	*-	*-	*-	*-	*-	*-	*-	*-	*-	*-	*-	*-	*-	*-	*-	*-	*-	*-	*-	*-	*-
!!!system-decoration: [({g1},s3,s4,{g2},s7,s8,{g3},{g4}),({g5},{g6})]
!!!RDF**kern: > = above
!!!RDF**kern: < = below
!!!RDF**kern: | = vertical stroke
!!!ENC: Kamil Watkowski
!!!END: 2021-07-07
